DreamSnakecc/climbing_ws/test_logs/single_swing_lf_20260623_202900.csv
wall_time,elapsed_s,cycle,leg,cmd_x,cmd_y,cmd_z,cmd_support,ujc_x,ujc_y,ujc_z,body_x,body_y,body_z,mission_state,servo_phase_id,servo_gate_enabled,servo_ready,servo_max_abs_error_tick,servo_within_tolerance_s,servo_wait_s,servo_timed_out,servo_last_pass_phase_id,servo_last_pass_sequence,servo_error_joint1_tick,servo_error_joint2_tick,servo_error_joint3_tick,servo_last_pass_error_joint1_tick,servo_last_pass_error_joint2_tick,servo_last_pass_error_joint3_tick,ticks_cmd_11,ticks_cmd_1,ticks_cmd_2,ticks_cmd_12,ticks_cmd_3,ticks_cmd_4,ticks_cmd_13,ticks_cmd_5,ticks_cmd_6,ticks_cmd_14,ticks_cmd_7,ticks_cmd_8,ticks_act_11,ticks_act_1,ticks_act_2,ticks_act_12,ticks_act_3,ticks_act_4,ticks_act_13,ticks_act_5,ticks_act_6,ticks_act_14,ticks_act_7,ticks_act_8
1782217743.2388,2.7620,1,lf,0.0986,0.0986,-0.1100,0,0.3307,0.3307,-0.1126,0.0000,0.0001,-0.0001,CLIMB,4,1,0,0.0,0.000,0.000,0,-1,0,0.0,0.0,0.0,0.0,0.0,0.0,2037,2781,1318,1912,1298,2788,2050,2901,1310,1039,1278,2804,2037,2765,1312,1909,1316,2791,2052,2884,1308,1040,1285,2802
1782217743.2449,2.7681,1,lf,0.0986,0.0986,-0.1100,0,0.3307,0.3307,-0.1126,0.0000,0.0001,-0.0001,CLIMB,4,1,0,0.0,0.000,0.000,0,-1,0,0.0,0.0,0.0,0.0,0.0,0.0,2037,2781,1318,1912,1298,2788,2050,2901,1310,1039,1278,2804,2037,2765,1312,1909,1316,2791,2052,2884,1308,1040,1285,2802
1782217743.2649,2.7881,1,lf,0.0986,0.0986,-0.1100,0,0.3307,0.3307,-0.1126,0.0000,0.0001,-0.0001,CLIMB,4,1,0,0.0,0.000,0.000,0,-1,0,0.0,0.0,0.0,0.0,0.0,0.0,2037,2781,1318,1912,1298,2788,2050,2901,1310,1039,1278,2804,2037,2766,1311,1909,1316,2791,2052,2884,1308,1039,1285,2803
1782217743.2848,2.8080,1,lf,0.0986,0.0986,-0.1100,0,0.3307,0.3307,-0.1124,0.0000,0.0001,-0.0001,CLIMB,4,1,0,0.0,0.000,0.000,0,-1,0,0.0,0.0,0.0,0.0,0.0,0.0,2037,2781,1318,1912,1298,2788,2050,2901,1310,1039,1278,2804,2037,2766,1311,1909,1316,2791,2052,2884,1308,1039,1285,2803
1782217743.3049,2.8281,1,lf,0.0986,0.0986,-0.1100,0,0.3307,0.3307,-0.1124,0.0000,0.0000,-0.0002,CLIMB,4,1,0,0.0,0.000,0.000,0,-1,0,0.0,0.0,0.0,0.0,0.0,0.0,2037,2781,1318,1912,1298,2788,2050,2901,1310,1039,1278,2804,2037,2766,1311,1909,1316,2791,2052,2884,1308,1039,1285,2803
1782217743.3248,2.8480,1,lf,0.0986,0.0986,-0.1100,0,0.3307,0.3307,-0.1124,0.0000,0.0000,-0.0002,CLIMB,4,1,0,0.0,0.000,0.000,0,-1,0,0.0,0.0,0.0,0.0,0.0,0.0,2037,2781,1318,1912,1298,2788,2050,2901,1310,1039,1278,2804,2037,2766,1312,1909,1316,2791,2052,2884,1308,1039,1285,2803
1782217743.3449,2.8681,1,lf,0.0986,0.0986,-0.1100,0,0.3308,0.3308,-0.1124,-0.0000,0.0000,-0.0002,CLIMB,4,1,0,0.0,0.000,0.000,0,-1,0,0.0,0.0,0.0,0.0,0.0,0.0,2037,2781,1318,1912,1298,2788,2050,2901,1310,1039,1278,2804,2037,2766,1312,1909,1316,2791,2052,2884,1308,1039,1285,2803
1782217743.3648,2.8880,1,lf,0.0986,0.0986,-0.1100,0,0.3308,0.3308,-0.1124,-0.0000,0.0000,-0.0002,CLIMB,4,1,0,0.0,0.000,0.000,0,-1,0,0.0,0.0,0.0,0.0,0.0,0.0,2037,2781,1318,1912,1298,2788,2050,2901,1310,1039,1278,2804,2037,2766,1311,1909,1316,2792,2052,2884,1309,1040,1285,2803
1782217743.3848,2.9080,1,lf,0.0986,0.0986,-0.1100,0,0.3307,0.3307,-0.1124,-0.0000,0.0000,-0.0002,CLIMB,4,1,0,0.0,0.000,0.000,0,-1,0,0.0,0.0,0.0,0.0,0.0,0.0,2037,2781,1318,1912,1298,2788,2050,2901,1310,1039,1278,2804,2037,2766,1311,1909,1316,2792,2052,2884,1309,1040,1285,2803
1782217743.4050,2.9282,1,lf,0.0986,0.0986,-0.1100,0,0.3307,0.3307,-0.1124,-0.0000,0.0000,-0.0002,CLIMB,4,1,0,0.0,0.000,0.000,0,-1,0,0.0,0.0,0.0,0.0,0.0,0.0,2037,2781,1318,1912,1298,2788,2050,2901,1310,1039,1278,2804,2037,2766,1311,1909,1316,2792,2052,2884,1309,1040,1285,2803
1782217743.4249,2.9481,1,lf,0.0986,0.0986,-0.1100,0,0.3307,0.3307,-0.1124,-0.0000,0.0000,-0.0001,CLIMB,4,1,0,0.0,0.000,0.000,0,-1,0,0.0,0.0,0.0,0.0,0.0,0.0,2037,2781,1318,1912,1298,2788,2050,2901,1310,1039,1278,2804,2037,2765,1312,1909,1316,2791,2052,2884,1308,1040,1285,2803
1782217743.4450,2.9682,1,lf,0.0986,0.0986,-0.1100,0,0.3307,0.3307,-0.1126,0.0000,0.0001,-0.0000,CLIMB,4,1,0,0.0,0.000,0.000,0,-1,0,0.0,0.0,0.0,0.0,0.0,0.0,2037,2781,1318,1912,1298,2788,2050,2901,1310,1039,1278,2804,2037,2765,1312,1909,1316,2791,2052,2884,1308,1040,1285,2803
1782217743.4649,2.9881,1,lf,0.0986,0.0986,-0.1100,0,0.3307,0.3307,-0.1126,0.0001,0.0001,0.0000,CLIMB,4,1,0,0.0,0.000,0.000,0,-1,0,0.0,0.0,0.0,0.0,0.0,0.0,2037,2781,1318,1912,1298,2788,2050,2901,1310,1039,1278,2804,2037,2765,1312,1909,1316,2792,2052,2884,1308,1040,1285,2803
1782217743.4848,3.0081,1,lf,0.0986,0.0986,-0.1100,0,0.3307,0.3307,-0.1126,0.0001,0.0001,0.0000,CLIMB,4,1,0,0.0,0.000,0.000,0,-1,0,0.0,0.0,0.0,0.0,0.0,0.0,2037,2781,1318,1912,1298,2788,2050,2901,1310,1039,1278,2804,2037,2765,1312,1909,1316,2792,2052,2884,1308,1040,1285,2803
1782217743.5049,3.0282,1,lf,0.0986,0.0986,-0.1100,0,0.3307,0.3307,-0.1126,0.0001,0.0001,0.0001,CLIMB,4,1,0,0.0,0.000,0.000,0,-1,0,0.0,0.0,0.0,0.0,0.0,0.0,2037,2781,1318,1912,1298,2788,2050,2901,1310,1039,1278,2804,2037,2765,1312,1909,1316,2792,2052,2884,1308,1040,1285,2803
1782217743.5248,3.0480,1,lf,0.0986,0.0986,-0.1100,0,0.3307,0.3307,-0.1126,0.0001,0.0001,0.0001,CLIMB,4,1,0,0.0,0.000,0.000,0,-1,0,0.0,0.0,0.0,0.0,0.0,0.0,2037,2781,1318,1912,1298,2788,2050,2901,1310,1039,1278,2804,2037,2766,1312,1909,1316,2792,2052,2884,1308,1039,1285,2803
1782217743.5449,3.0681,1,lf,0.0986,0.0986,-0.1100,0,0.3308,0.3308,-0.1124,-0.0000,0.0001,-0.0000,CLIMB,4,1,0,0.0,0.000,0.000,0,-1,0,0.0,0.0,0.0,0.0,0.0,0.0,2037,2781,1318,1912,1298,2788,2050,2901,1310,1039,1278,2804,2037,2766,1312,1909,1316,2792,2052,2884,1308,1039,1285,2803
1782217743.5648,3.0880,1,lf,0.0986,0.0986,-0.1100,0,0.3308,0.3308,-0.1124,-0.0000,0.0001,-0.0001,CLIMB,4,1,0,0.0,0.000,0.000,0,-1,0,0.0,0.0,0.0,0.0,0.0,0.0,2037,2781,1318,1912,1298,2788,2050,2901,1310,1039,1278,2804,2037,2765,1312,1909,1316,2792,2052,2884,1308,1039,1285,2803
1782217743.5848,3.1080,1,lf,0.0986,0.0986,-0.1100,0,0.3307,0.3307,-0.1126,0.0000,0.0001,0.0000,CLIMB,4,1,0,0.0,0.000,0.000,0,-1,0,0.0,0.0,0.0,0.0,0.0,0.0,2037,2781,1318,1912,1298,2788,2050,2901,1310,1039,1278,2804,2037,2765,1312,1909,1316,2792,2052,2884,1308,1039,1285,2803
1782217743.6049,3.1281,1,lf,0.0986,0.0986,-0.1100,0,0.3307,0.3307,-0.1126,0.0000,0.0001,0.0001,CLIMB,4,1,0,0.0,0.000,0.000,0,-1,0,0.0,0.0,0.0,0.0,0.0,0.0,2037,2781,1318,1912,1298,2788,2050,2901,1310,1039,1278,2804,2037,2765,1312,1909,1316,2792,2052,2884,1308,1039,1285,2803
1782217743.6248,3.1480,1,lf,0.0986,0.0986,-0.1100,0,0.3307,0.3307,-0.1126,0.0001,0.0001,0.0001,CLIMB,4,1,0,0.0,0.000,0.000,0,-1,0,0.0,0.0,0.0,0.0,0.0,0.0,2037,2781,1318,1912,1298,2788,2050,2901,1310,1039,1278,2804,2037,2766,1312,1909,1316,2791,2052,2884,1308,1039,1285,2803
1782217743.6449,3.1681,1,lf,0.0986,0.0986,-0.1100,0,0.3308,0.3308,-0.1124,-0.0000,0.0001,0.0000,CLIMB,4,1,0,0.0,0.000,0.000,0,-1,0,0.0,0.0,0.0,0.0,0.0,0.0,2037,2781,1318,1912,1298,2788,2050,2901,1310,1039,1278,2804,2037,2766,1312,1909,1316,2791,2052,2884,1308,1039,1285,2803
1782217743.6649,3.1881,1,lf,0.0986,0.0986,-0.1100,0,0.3308,0.3308,-0.1124,-0.0001,0.0001,-0.0000,CLIMB,4,1,0,0.0,0.000,0.000,0,-1,0,0.0,0.0,0.0,0.0,0.0,0.0,2037,2781,1318,1912,1298,2788,2050,2901,1310,1039,1278,2804,2037,2765,1312,1909,1316,2791,2052,2884,1308,1039,1285,2803
1782217743.6848,3.2081,1,lf,0.0986,0.0986,-0.1100,0,0.3307,0.3307,-0.1126,-0.0000,0.0001,0.0001,CLIMB,4,1,0,0.0,0.000,0.000,0,-1,0,0.0,0.0,0.0,0.0,0.0,0.0,2037,2781,1318,1912,1298,2788,2050,2901,1310,1039,1278,2804,2037,2765,1312,1909,1316,2791,2052,2884,1308,1039,1285,2803
1782217743.7049,3.2281,1,lf,0.0986,0.0986,-0.1100,0,0.3307,0.3307,-0.1126,0.0000,0.0001,0.0001,CLIMB,4,1,0,0.0,0.000,0.000,0,-1,0,0.0,0.0,0.0,0.0,0.0,0.0,2037,2781,1318,1912,1298,2788,2050,2901,1310,1039,1278,2804,2037,2765,1312,1909,1316,2791,2052,2884,1308,1039,1285,2803
1782217743.7248,3.2480,1,lf,0.0986,0.0986,-0.1100,0,0.3307,0.3307,-0.1126,0.0000,0.0001,0.0001,CLIMB,4,1,0,0.0,0.000,0.000,0,-1,0,0.0,0.0,0.0,0.0,0.0,0.0,2037,2781,1318,1912,1298,2788,2050,2901,1310,1039,1278,2804,2037,2766,1312,1909,1316,2791,2052,2884,1308,1040,1285,2803
1782217743.7449,3.2681,1,lf,0.0986,0.0986,-0.1100,0,0.3308,0.3308,-0.1124,-0.0000,0.0001,0.0000,CLIMB,4,1,0,0.0,0.000,0.000,0,-1,0,0.0,0.0,0.0,0.0,0.0,0.0,2037,2781,1318,1912,1298,2788,2050,2901,1310,1039,1278,2804,2037,2766,1312,1909,1316,2791,2052,2884,1308,1040,1285,2803
1782217743.7649,3.2882,1,lf,0.0986,0.0986,-0.1100,0,0.3308,0.3308,-0.1124,-0.0001,0.0001,-0.0000,CLIMB,4,1,0,0.0,0.000,0.000,0,-1,0,0.0,0.0,0.0,0.0,0.0,0.0,2037,2781,1318,1912,1298,2788,2050,2901,1310,1039,1278,2804,2037,2766,1311,1909,1316,2791,2052,2884,1308,1040,1285,2803
1782217743.7848,3.3080,1,lf,0.0986,0.0986,-0.1100,0,0.3307,0.3307,-0.1124,-0.0001,0.0001,-0.0001,CLIMB,4,1,0,0.0,0.000,0.000,0,-1,0,0.0,0.0,0.0,0.0,0.0,0.0,2037,2781,1318,1912,1298,2788,2050,2901,1310,1039,1278,2804,2037,2766,1311,1909,1316,2791,2052,2884,1308,1040,1285,2803
1782217743.8048,3.3280,1,lf,0.0986,0.0986,-0.1100,0,0.3307,0.3307,-0.1124,-0.0001,0.0001,-0.0001,CLIMB,4,1,0,0.0,0.000,0.000,0,-1,0,0.0,0.0,0.0,0.0,0.0,0.0,2037,2781,1318,1912,1298,2788,2050,2901,1310,1039,1278,2804,2037,2766,1311,1909,1316,2791,2052,2884,1308,1040,1285,2803
1782217743.8249,3.3481,1,lf,0.0986,0.0986,-0.1100,0,0.3307,0.3307,-0.1124,-0.0001,0.0001,-0.0001,CLIMB,4,1,0,0.0,0.000,0.000,0,-1,0,0.0,0.0,0.0,0.0,0.0,0.0,2037,2781,1318,1912,1298,2788,2050,2901,1310,1039,1278,2804,2037,2766,1312,1909,1316,2791,2052,2884,1308,1039,1285,2803
1782217743.8449,3.3682,1,lf,0.0986,0.0986,-0.1100,0,0.3308,0.3308,-0.1124,-0.0001,0.0001,-0.0001,CLIMB,4,1,0,0.0,0.000,0.000,0,-1,0,0.0,0.0,0.0,0.0,0.0,0.0,2037,2781,1318,1912,1298,2788,2050,2901,1310,1039,1278,2804,2037,2766,1312,1909,1316,2791,2052,2884,1308,1039,1285,2803
1782217743.8649,3.3881,1,lf,0.0986,0.0986,-0.1100,0,0.3308,0.3308,-0.1124,-0.0001,0.0001,-0.0001,CLIMB,4,1,0,0.0,0.000,0.000,0,-1,0,0.0,0.0,0.0,0.0,0.0,0.0,2037,2781,1318,1912,1298,2788,2050,2901,1310,1039,1278,2804,2037,2766,1312,1909,1316,2791,2052,2884,1308,1040,1285,2803
1782217743.8849,3.4081,1,lf,0.0986,0.0986,-0.1100,0,0.3308,0.3308,-0.1124,-0.0001,0.0001,-0.0001,CLIMB,4,1,0,0.0,0.000,0.000,0,-1,0,0.0,0.0,0.0,0.0,0.0,0.0,2037,2781,1318,1912,1298,2788,2050,2901,1310,1039,1278,2804,2037,2766,1312,1909,1316,2791,2052,2884,1308,1040,1285,2803
1782217743.9049,3.4281,1,lf,0.0986,0.0986,-0.1100,0,0.3308,0.3308,-0.1124,-0.0001,0.0001,-0.0001,CLIMB,4,1,0,0.0,0.000,0.000,0,-1,0,0.0,0.0,0.0,0.0,0.0,0.0,2037,2781,1318,1912,1298,2788,2050,2901,1310,1039,1278,2804,2037,2766,1312,1909,1316,2791,2052,2884,1308,1040,1285,2803
1782217743.9248,3.4480,1,lf,0.0986,0.0986,-0.1100,0,0.3308,0.3308,-0.1124,-0.0001,0.0001,-0.0001,CLIMB,4,1,0,0.0,0.000,0.000,0,-1,0,0.0,0.0,0.0,0.0,0.0,0.0,2037,2781,1318,1912,1298,2788,2050,2901,1310,1039,1278,2804,2037,2765,1312,1909,1316,2792,2052,2884,1308,1039,1285,2803
1782217743.9449,3.4681,1,lf,0.0986,0.0986,-0.1100,0,0.3307,0.3307,-0.1126,-0.0000,0.0001,0.0001,CLIMB,4,1,0,0.0,0.000,0.000,0,-1,0,0.0,0.0,0.0,0.0,0.0,0.0,2037,2781,1318,1912,1298,2788,2050,2901,1310,1039,1278,2804,2037,2765,1312,1909,1316,2792,2052,2884,1308,1039,1285,2803
1782217743.9648,3.4880,1,lf,0.0986,0.0986,-0.1100,0,0.3307,0.3307,-0.1126,-0.0000,0.0002,0.0001,CLIMB,4,1,0,0.0,0.000,0.000,0,-1,0,0.0,0.0,0.0,0.0,0.0,0.0,2037,2781,1318,1912,1298,2788,2050,2901,1310,1039,1278,2804,2037,2765,1312,1909,1316,2791,2052,2884,1308,1040,1285,2803
1782217743.9849,3.5081,1,lf,0.0986,0.0986,-0.1100,0,0.3307,0.3307,-0.1126,0.0000,0.0002,0.0001,CLIMB,4,1,0,0.0,0.000,0.000,0,-1,0,0.0,0.0,0.0,0.0,0.0,0.0,2037,2781,1318,1912,1298,2788,2050,2901,1310,1039,1278,2804,2037,2765,1312,1909,1316,2791,2052,2884,1308,1040,1285,2803
1782217744.0048,3.5280,1,lf,0.0986,0.0986,-0.1100,0,0.3307,0.3307,-0.1126,0.0000,0.0002,0.0001,CLIMB,4,1,0,0.0,0.000,0.000,0,-1,0,0.0,0.0,0.0,0.0,0.0,0.0,2037,2781,1318,1912,1298,2788,2050,2901,1310,1039,1278,2804,2037,2765,1312,1909,1316,2791,2052,2884,1308,1040,1285,2803
1782217744.0248,3.5480,1,lf,0.0986,0.0986,-0.1100,0,0.3307,0.3307,-0.1126,0.0000,0.0002,0.0001,CLIMB,4,1,0,0.0,0.000,0.000,0,-1,0,0.0,0.0,0.0,0.0,0.0,0.0,2037,2781,1318,1912,1298,2788,2050,2901,1310,1039,1278,2804,2037,2765,1312,1909,1316,2792,2052,2884,1308,1040,1285,2803
1782217744.0449,3.5681,1,lf,0.0986,0.0986,-0.1100,0,0.3307,0.3307,-0.1126,0.0000,0.0002,0.0001,CLIMB,4,1,0,0.0,0.000,0.000,0,-1,0,0.0,0.0,0.0,0.0,0.0,0.0,2037,2781,1318,1912,1298,2788,2050,2901,1310,1039,1278,2804,2037,2765,1312,1909,1316,2792,2052,2884,1308,1040,1285,2803
1782217744.0649,3.5881,1,lf,0.0986,0.0986,-0.1100,0,0.3307,0.3307,-0.1126,0.0000,0.0002,0.0001,CLIMB,4,1,0,0.0,0.000,0.000,0,-1,0,0.0,0.0,0.0,0.0,0.0,0.0,2037,2781,1318,1912,1298,2788,2050,2901,1310,1039,1278,2804,2037,2765,1312,1909,1316,2791,2052,2884,1308,1040,1284,2803
1782217744.0848,3.6081,1,lf,0.0986,0.0986,-0.1100,0,0.3307,0.3307,-0.1126,0.0000,0.0002,0.0001,CLIMB,4,1,0,0.0,0.000,0.000,0,-1,0,0.0,0.0,0.0,0.0,0.0,0.0,2037,2781,1318,1912,1298,2788,2050,2901,1310,1039,1278,2804,2037,2765,1312,1909,1316,2791,2052,2884,1308,1040,1284,2803
1782217744.1049,3.6281,1,lf,0.0986,0.0986,-0.1100,0,0.3307,0.3307,-0.1126,0.0000,0.0002,0.0001,CLIMB,4,1,0,0.0,0.000,0.000,0,-1,0,0.0,0.0,0.0,0.0,0.0,0.0,2037,2781,1318,1912,1298,2788,2050,2901,1310,1039,1278,2804,2037,2765,1312,1909,1316,2791,2052,2884,1308,1040,1284,2803
1782217744.1249,3.6482,1,lf,0.0986,0.0986,-0.1100,0,0.3307,0.3307,-0.1126,0.0000,0.0002,0.0001,CLIMB,4,1,0,0.0,0.000,0.000,0,-1,0,0.0,0.0,0.0,0.0,0.0,0.0,2037,2781,1318,1912,1298,2788,2050,2901,1310,1039,1278,2804,2037,2766,1311,1909,1316,2792,2052,2884,1308,1040,1285,2803
1782217744.1449,3.6681,1,lf,0.0986,0.0986,-0.1100,0,0.3307,0.3307,-0.1124,-0.0000,0.0002,0.0000,CLIMB,4,1,0,0.0,0.000,0.000,0,-1,0,0.0,0.0,0.0,0.0,0.0,0.0,2037,2781,1318,1912,1298,2788,2050,2901,1310,1039,1278,2804,2037,2766,1311,1909,1316,2792,2052,2884,1308,1040,1285,2803
1782217744.1649,3.6881,1,lf,0.0986,0.0986,-0.1100,0,0.3307,0.3307,-0.1124,-0.0001,0.0001,-0.0000,CLIMB,4,1,0,0.0,0.000,0.000,0,-1,0,0.0,0.0,0.0,0.0,0.0,0.0,2037,2781,1318,1912,1298,2788,2050,2901,1310,1039,1278,2804,2037,2765,1312,1909,1316,2792,2052,2884,1308,1040,1285,2803
1782217744.1848,3.7080,1,lf,0.0986,0.0986,-0.1100,0,0.3307,0.3307,-0.1126,-0.0000,0.0002,0.0000,CLIMB,4,1,0,0.0,0.000,0.000,0,-1,0,0.0,0.0,0.0,0.0,0.0,0.0,2037,2781,1318,1912,1298,2788,2050,2901,1310,1039,1278,2804,2037,2765,1312,1909,1316,2792,2052,2884,1308,1040,1285,2803
1782217744.2049,3.7281,1,lf,0.0986,0.0986,-0.1100,0,0.3307,0.3307,-0.1126,-0.0000,0.0002,0.0001,CLIMB,4,1,0,0.0,0.000,0.000,0,-1,0,0.0,0.0,0.0,0.0,0.0,0.0,2037,2781,1318,1912,1298,2788,2050,2901,1310,1039,1278,2804,2037,2765,1312,1909,1316,2792,2052,2884,1308,1040,1285,2803
1782217744.2249,3.7481,1,lf,0.0986,0.0986,-0.1100,0,0.3307,0.3307,-0.1126,0.0000,0.0002,0.0001,CLIMB,4,1,0,0.0,0.000,0.000,0,-1,0,0.0,0.0,0.0,0.0,0.0,0.0,2037,2781,1318,1912,1298,2788,2050,2901,1310,1039,1278,2804,2037,2765,1312,1909,1316,2791,2052,2884,1308,1040,1285,2803
1782217744.2449,3.7681,1,lf,0.0986,0.0986,-0.1100,0,0.3307,0.3307,-0.1126,0.0000,0.0002,0.0001,CLIMB,4,1,0,0.0,0.000,0.000,0,-1,0,0.0,0.0,0.0,0.0,0.0,0.0,2037,2781,1318,1912,1298,2788,2050,2901,1310,1039,1278,2804,2037,2765,1312,1909,1316,2791,2052,2884,1308,1040,1285,2803
1782217744.2649,3.7881,1,lf,0.0986,0.0986,-0.1100,0,0.3307,0.3307,-0.1126,0.0000,0.0002,0.0001,CLIMB,4,1,0,0.0,0.000,0.000,0,-1,0,0.0,0.0,0.0,0.0,0.0,0.0,2037,2781,1318,1912,1298,2788,2050,2901,1310,1039,1278,2804,2037,2765,1312,1909,1316,2791,2052,2884,1308,1040,1285,2803
1782217744.2848,3.8080,1,lf,0.0986,0.0986,-0.1100,0,0.3307,0.3307,-0.1126,0.0000,0.0002,0.0001,CLIMB,4,1,0,0.0,0.000,0.000,0,-1,0,0.0,0.0,0.0,0.0,0.0,0.0,2037,2781,1318,1912,1298,2788,2050,2901,1310,1039,1278,2804,2037,2765,1312,1909,1316,2791,2052,2884,1308,1040,1285,2803
1782217744.3048,3.8280,1,lf,0.0986,0.0986,-0.1100,0,0.3307,0.3307,-0.1126,0.0000,0.0002,0.0001,CLIMB,5,1,0,0.0,0.000,0.000,0,-1,0,0.0,0.0,0.0,0.0,0.0,0.0,2037,2781,1318,1912,1298,2788,2050,2901,1310,1039,1278,2804,2037,2765,1312,1909,1316,2791,2052,2884,1308,1040,1285,2803
1782217744.3249,3.8481,1,lf,0.0986,0.0986,-0.1100,0,0.3307,0.3307,-0.1126,0.0000,0.0002,0.0001,CLIMB,5,1,0,0.0,0.000,0.000,0,-1,0,0.0,0.0,0.0,0.0,0.0,0.0,2037,2781,1318,1912,1298,2788,2050,2901,1310,1039,1278,2804,2037,2765,1312,1909,1316,2791,2052,2884,1308,1039,1285,2803
1782217744.3448,3.8680,1,lf,0.0986,0.0986,-0.1097,0,0.3307,0.3307,-0.1126,0.0000,0.0002,0.0001,CLIMB,5,1,0,0.0,0.000,0.000,0,-1,0,0.0,0.0,0.0,0.0,0.0,0.0,2037,2781,1318,1912,1298,2788,2050,2901,1310,1039,1278,2804,2037,2765,1312,1909,1316,2791,2052,2884,1308,1039,1285,2803
1782217744.3648,3.8881,1,lf,0.0986,0.0986,-0.1091,0,0.3307,0.3307,-0.1126,0.0000,0.0002,0.0001,CLIMB,5,1,0,0.0,0.000,0.000,0,-1,0,0.0,0.0,0.0,0.0,0.0,0.0,2037,2782,1315,1912,1298,2788,2050,2901,1310,1039,1278,2804,2037,2766,1311,1909,1316,2792,2052,2884,1308,1040,1285,2803
1782217744.3850,3.9082,1,lf,0.0986,0.0986,-0.1081,0,0.3307,0.3307,-0.1124,-0.0000,0.0001,-0.0000,CLIMB,5,1,0,0.0,0.000,0.000,0,-1,0,0.0,0.0,0.0,0.0,0.0,0.0,2037,2785,1308,1912,1298,2788,2050,2901,1310,1039,1278,2804,2037,2766,1311,1909,1316,2792,2052,2884,1308,1040,1285,2803
1782217744.4049,3.9281,1,lf,0.0986,0.0986,-0.1068,0,0.3307,0.3307,-0.1124,-0.0001,0.0001,-0.0001,CLIMB,5,1,0,0.0,0.000,0.000,0,-1,0,0.0,0.0,0.0,0.0,0.0,0.0,2037,2789,1297,1912,1298,2788,2050,2901,1310,1039,1278,2804,2037,2766,1311,1909,1316,2792,2052,2884,1308,1040,1285,2803
1782217744.4248,3.9480,1,lf,0.0986,0.0986,-0.1054,0,0.3307,0.3307,-0.1124,-0.0001,0.0001,-0.0001,CLIMB,5,1,0,0.0,0.000,0.000,0,-1,0,0.0,0.0,0.0,0.0,0.0,0.0,2037,2795,1283,1912,1298,2788,2050,2901,1310,1039,1278,2804,2037,2766,1312,1909,1316,2791,2052,2884,1308,1039,1285,2803
1782217744.4449,3.9681,1,lf,0.0986,0.0986,-0.1039,0,0.3308,0.3308,-0.1124,-0.0001,0.0001,-0.0002,CLIMB,5,1,0,0.0,0.000,0.000,0,-1,0,0.0,0.0,0.0,0.0,0.0,0.0,2037,2802,1267,1912,1298,2788,2050,2901,1310,1039,1278,2804,2037,2766,1312,1909,1316,2791,2052,2884,1308,1039,1285,2803
1782217744.4649,3.9882,1,lf,0.0986,0.0986,-0.1025,0,0.3308,0.3308,-0.1124,-0.0001,0.0001,-0.0002,CLIMB,5,1,0,0.0,0.000,0.000,0,-1,0,0.0,0.0,0.0,0.0,0.0,0.0,2037,2809,1251,1912,1298,2788,2050,2901,1310,1039,1278,2804,2037,2765,1312,1909,1316,2791,2052,2884,1308,1040,1285,2802
1782217744.4849,4.0081,1,lf,0.0986,0.0986,-0.1014,0,0.3307,0.3307,-0.1126,-0.0001,0.0001,-0.0001,CLIMB,5,1,0,0.0,0.000,0.000,0,-1,0,0.0,0.0,0.0,0.0,0.0,0.0,2037,2815,1237,1912,1298,2788,2050,2901,1310,1039,1278,2804,2037,2765,1312,1909,1316,2791,2052,2884,1308,1040,1285,2802
1782217744.5048,4.0280,1,lf,0.0986,0.0986,-0.1006,0,0.3307,0.3307,-0.1126,-0.0000,0.0002,-0.0001,CLIMB,5,1,0,0.0,0.000,0.000,0,-1,0,0.0,0.0,0.0,0.0,0.0,0.0,2037,2820,1225,1912,1298,2788,2050,2901,1310,1039,1278,2804,2037,2765,1312,1909,1316,2791,2052,2884,1308,1040,1285,2802
1782217744.5248,4.0480,1,lf,0.0986,0.0986,-0.1001,0,0.3307,0.3307,-0.1126,0.0000,0.0002,-0.0000,CLIMB,5,1,0,0.0,0.000,0.000,0,-1,0,0.0,0.0,0.0,0.0,0.0,0.0,2037,2823,1217,1912,1298,2788,2050,2901,1310,1039,1278,2804,2037,2765,1312,1909,1316,2791,2052,2884,1308,1040,1285,2803
1782217744.5448,4.0680,1,lf,0.0986,0.0986,-0.1000,0,0.3307,0.3307,-0.1126,0.0000,0.0002,-0.0000,CLIMB,5,1,0,0.0,0.000,0.000,0,-1,0,0.0,0.0,0.0,0.0,0.0,0.0,2037,2825,1213,1912,1298,2788,2050,2901,1310,1039,1278,2804,2037,2765,1312,1909,1316,2791,2052,2884,1308,1040,1285,2803
1782217744.5648,4.0881,1,lf,0.0986,0.0986,-0.1000,0,0.3307,0.3307,-0.1126,0.0000,0.0002,-0.0000,CLIMB,5,1,0,97.0,0.000,0.000,0,-1,0,0.0,-59.0,97.0,0.0,0.0,0.0,2037,2826,1212,1912,1298,2788,2050,2901,1310,1039,1278,2804,2037,2767,1309,1909,1316,2791,2052,2884,1308,1040,1285,2803
1782217744.5849,4.1081,1,lf,0.0986,0.0986,-0.1000,0,0.3308,0.3308,-0.1122,-0.0001,0.0001,-0.0003,CLIMB,5,1,0,90.0,0.000,0.020,0,-1,0,0.0,-55.0,90.0,0.0,0.0,0.0,2037,2826,1212,1912,1298,2788,2050,2901,1310,1039,1278,2804,2037,2767,1309,1909,1316,2791,2052,2884,1308,1040,1285,2803
1782217744.6049,4.1281,1,lf,0.0986,0.0986,-0.1000,0,0.3308,0.3308,-0.1122,-0.0001,0.0001,-0.0004,CLIMB,5,1,0,90.0,0.000,0.040,0,-1,0,0.0,-55.0,90.0,0.0,0.0,0.0,2037,2826,1212,1912,1298,2788,2050,2901,1310,1039,1278,2804,2037,2767,1309,1909,1316,2791,2052,2884,1308,1040,1285,2803
1782217744.6248,4.1480,1,lf,0.0986,0.0986,-0.1000,0,0.3308,0.3308,-0.1122,-0.0001,0.0001,-0.0004,CLIMB,5,1,0,79.0,0.000,0.060,0,-1,0,0.0,-50.0,79.0,0.0,0.0,0.0,2037,2826,1212,1912,1298,2788,2050,2901,1310,1039,1278,2804,2037,2776,1291,1909,1315,2792,2052,2884,1308,1039,1285,2803
1782217744.6449,4.1681,1,lf,0.0986,0.0986,-0.1000,0,0.3310,0.3310,-0.1102,-0.0002,-0.0000,-0.0015,CLIMB,5,1,0,66.0,0.000,0.080,0,-1,0,0.0,-44.0,66.0,0.0,0.0,0.0,2037,2826,1212,1912,1298,2788,2050,2901,1310,1039,1278,2804,2037,2776,1291,1909,1315,2792,2052,2884,1308,1039,1285,2803
1782217744.6649,4.1881,1,lf,0.0986,0.0986,-0.1000,0,0.3310,0.3310,-0.1102,-0.0003,-0.0001,-0.0020,CLIMB,5,1,0,66.0,0.000,0.100,0,-1,0,0.0,-44.0,66.0,0.0,0.0,0.0,2037,2826,1212,1912,1298,2788,2050,2901,1310,1039,1278,2804,2037,2782,1278,1909,1316,2791,2052,2884,1308,1039,1285,2803
1782217744.6848,4.2081,1,lf,0.0986,0.0986,-0.1000,0,0.3311,0.3311,-0.1089,-0.0004,-0.0001,-0.0030,CLIMB,5,1,0,52.0,0.000,0.120,0,-1,0,0.0,-37.0,52.0,0.0,0.0,0.0,2037,2826,1212,1912,1298,2788,2050,2901,1310,1039,1278,2804,2037,2782,1278,1909,1316,2791,2052,2884,1308,1039,1285,2803
1782217744.7049,4.2281,1,lf,0.0986,0.0986,-0.1000,0,0.3311,0.3311,-0.1089,-0.0004,-0.0002,-0.0034,CLIMB,5,1,0,52.0,0.000,0.140,0,-1,0,0.0,-37.0,52.0,0.0,0.0,0.0,2037,2826,1212,1912,1298,2788,2050,2901,1310,1039,1278,2804,2037,2782,1278,1909,1316,2791,2052,2884,1308,1039,1285,2803
1782217744.7248,4.2480,1,lf,0.0986,0.0986,-0.1000,0,0.3311,0.3311,-0.1089,-0.0005,-0.0002,-0.0037,CLIMB,5,1,0,38.0,0.000,0.160,0,-1,0,0.0,-31.0,38.0,0.0,0.0,0.0,2037,2826,1212,1912,1298,2788,2050,2901,1310,1039,1278,2804,2037,2795,1250,1909,1316,2791,2052,2884,1308,1039,1285,2803
1782217744.7448,4.2680,1,lf,0.0986,0.0986,-0.1000,0,0.3312,0.3312,-0.1061,-0.0006,-0.0003,-0.0053,CLIMB,5,1,0,26.0,0.000,0.180,0,-1,0,0.0,-26.0,26.0,0.0,0.0,0.0,2037,2826,1212,1912,1298,2788,2050,2901,1310,1039,1278,2804,2037,2795,1250,1909,1316,2791,2052,2884,1308,1039,1285,2803
1782217744.7648,4.2880,1,lf,0.0986,0.0986,-0.1000,0,0.3312,0.3312,-0.1061,-0.0006,-0.0003,-0.0061,CLIMB,5,1,0,26.0,0.000,0.200,0,-1,0,0.0,-26.0,26.0,0.0,0.0,0.0,2037,2826,1212,1912,1298,2788,2050,2901,1310,1039,1278,2804,2037,2800,1238,1909,1316,2791,2052,2884,1308,1039,1285,2802
1782217744.7848,4.3080,1,lf,0.0986,0.0986,-0.1000,0,0.3312,0.3312,-0.1049,-0.0007,-0.0004,-0.0071,CLIMB,5,1,0,21.0,0.000,0.220,0,-1,0,0.0,-21.0,16.0,0.0,0.0,0.0,2037,2826,1212,1912,1298,2788,2050,2901,1310,1039,1278,2804,2037,2800,1238,1909,1316,2791,2052,2884,1308,1039,1285,2802
1782217744.8048,4.3281,1,lf,0.0986,0.0986,-0.1000,0,0.3312,0.3312,-0.1049,-0.0007,-0.0004,-0.0076,CLIMB,5,1,0,18.0,0.000,0.240,0,-1,0,0.0,-18.0,8.0,0.0,0.0,0.0,2037,2826,1212,1912,1298,2788,2050,2901,1310,1039,1278,2804,2037,2800,1238,1909,1316,2791,2052,2884,1308,1039,1285,2802
1782217744.8248,4.3480,1,lf,0.0986,0.0986,-0.1000,0,0.3312,0.3312,-0.1049,-0.0007,-0.0004,-0.0078,CLIMB,5,1,0,18.0,0.000,0.260,0,-1,0,0.0,-18.0,8.0,0.0,0.0,0.0,2037,2826,1212,1912,1298,2788,2050,2901,1310,1039,1278,2804,2037,2808,1220,1909,1316,2791,2052,2884,1308,1039,1285,2803
1782217744.8448,4.3680,1,lf,0.0986,0.0986,-0.1000,0,0.3313,0.3313,-0.1031,-0.0007,-0.0004,-0.0089,CLIMB,5,1,0,16.0,0.000,0.280,0,-1,0,0.0,-16.0,3.0,0.0,0.0,0.0,2037,2826,1212,1912,1298,2788,2050,2901,1310,1039,1278,2804,2037,2808,1220,1909,1316,2791,2052,2884,1308,1039,1285,2803
1782217744.8650,4.3882,1,lf,0.0986,0.0986,-0.1000,0,0.3313,0.3313,-0.1031,-0.0007,-0.0004,-0.0093,CLIMB,5,1,0,16.0,0.000,0.300,0,-1,0,0.0,-16.0,3.0,0.0,0.0,0.0,2037,2826,1212,1912,1298,2788,2050,2901,1310,1039,1278,2804,2037,2810,1215,1909,1316,2792,2052,2884,1308,1039,1285,2802
1782217744.8850,4.4083,1,lf,0.0986,0.0986,-0.1000,0,0.3313,0.3313,-0.1027,-0.0007,-0.0004,-0.0098,CLIMB,5,1,0,15.0,0.000,0.320,0,-1,0,0.0,-15.0,1.0,0.0,0.0,0.0,2037,2826,1212,1912,1298,2788,2050,2901,1310,1039,1278,2804,2037,2810,1215,1909,1316,2792,2052,2884,1308,1039,1285,2802
1782217744.9050,4.4282,1,lf,0.0986,0.0986,-0.1000,0,0.3313,0.3313,-0.1027,-0.0007,-0.0004,-0.0100,CLIMB,5,1,0,15.0,0.000,0.340,0,-1,0,0.0,-15.0,0.0,0.0,0.0,0.0,2037,2826,1212,1912,1298,2788,2050,2901,1310,1039,1278,2804,2037,2810,1215,1909,1316,2792,2052,2884,1308,1039,1285,2802
1782217744.9249,4.4481,1,lf,0.0986,0.0986,-0.1000,0,0.3313,0.3313,-0.1027,-0.0007,-0.0004,-0.0101,CLIMB,5,1,0,15.0,0.000,0.360,0,-1,0,0.0,-15.0,0.0,0.0,0.0,0.0,2037,2826,1212,1912,1298,2788,2050,2901,1310,1039,1278,2804,2037,2811,1212,1909,1316,2792,2052,2884,1308,1039,1285,2803
1782217744.9449,4.4681,1,lf,0.0986,0.0986,-0.1000,0,0.3312,0.3312,-0.1024,-0.0007,-0.0004,-0.0103,CLIMB,5,1,0,15.0,0.000,0.380,0,-1,0,0.0,-15.0,0.0,0.0,0.0,0.0,2037,2826,1212,1912,1298,2788,2050,2901,1310,1039,1278,2804,2037,2811,1212,1909,1316,2792,2052,2884,1308,1039,1285,2803
1782217744.9650,4.4882,1,lf,0.0986,0.0986,-0.1000,0,0.3312,0.3312,-0.1024,-0.0007,-0.0004,-0.0103,CLIMB,5,1,0,15.0,0.000,0.400,0,-1,0,0.0,-15.0,-1.0,0.0,0.0,0.0,2037,2826,1212,1912,1298,2788,2050,2901,1310,1039,1278,2804,2037,2811,1211,1909,1316,2791,2052,2884,1308,1040,1285,2803
1782217744.9848,4.5081,1,lf,0.0986,0.0986,-0.1000,0,0.3312,0.3312,-0.1024,-0.0006,-0.0004,-0.0103,CLIMB,5,1,0,15.0,0.000,0.420,0,-1,0,0.0,-15.0,-1.0,0.0,0.0,0.0,2037,2826,1212,1912,1298,2788,2050,2901,1310,1039,1278,2804,2037,2811,1211,1909,1316,2791,2052,2884,1308,1040,1285,2803
1782217745.0049,4.5281,1,lf,0.0986,0.0986,-0.1000,0,0.3312,0.3312,-0.1024,-0.0006,-0.0004,-0.0103,CLIMB,5,1,0,15.0,0.000,0.440,0,-1,0,0.0,-15.0,-1.0,0.0,0.0,0.0,2037,2826,1212,1912,1298,2788,2050,2901,1310,1039,1278,2804,2037,2811,1211,1909,1316,2791,2052,2884,1308,1040,1285,2803
1782217745.0249,4.5481,1,lf,0.0986,0.0986,-0.1000,0,0.3312,0.3312,-0.1024,-0.0006,-0.0004,-0.0103,CLIMB,5,1,0,15.0,0.000,0.460,0,-1,0,0.0,-15.0,-1.0,0.0,0.0,0.0,2037,2826,1212,1912,1298,2788,2050,2901,1310,1039,1278,2804,2037,2811,1211,1909,1316,2791,2052,2884,1308,1040,1285,2803
1782217745.0449,4.5682,1,lf,0.0986,0.0986,-0.1000,0,0.3312,0.3312,-0.1024,-0.0006,-0.0004,-0.0102,CLIMB,5,1,0,15.0,0.000,0.480,0,-1,0,0.0,-15.0,-1.0,0.0,0.0,0.0,2037,2826,1212,1912,1298,2788,2050,2901,1310,1039,1278,2804,2037,2811,1211,1909,1316,2791,2052,2884,1308,1040,1285,2803
1782217745.0650,4.5882,1,lf,0.0986,0.0986,-0.1000,0,0.3312,0.3312,-0.1024,-0.0006,-0.0004,-0.0102,CLIMB,5,1,0,15.0,0.000,0.500,0,-1,0,0.0,-15.0,-1.0,0.0,0.0,0.0,2037,2826,1212,1912,1298,2788,2050,2901,1310,1039,1278,2804,2037,2811,1211,1909,1316,2791,2053,2884,1308,1040,1285,2803
1782217745.0850,4.6082,1,lf,0.0986,0.0986,-0.1000,0,0.3312,0.3312,-0.1024,-0.0006,-0.0004,-0.0101,CLIMB,5,1,0,15.0,0.000,0.520,0,-1,0,0.0,-15.0,-1.0,0.0,0.0,0.0,2037,2826,1212,1912,1298,2788,2050,2901,1310,1039,1278,2804,2037,2811,1211,1909,1316,2791,2053,2884,1308,1040,1285,2803
1782217745.1049,4.6282,1,lf,0.0986,0.0986,-0.1000,0,0.3312,0.3312,-0.1024,-0.0006,-0.0004,-0.0101,CLIMB,5,1,0,15.0,0.000,0.540,0,-1,0,0.0,-15.0,-1.0,0.0,0.0,0.0,2037,2826,1212,1912,1298,2788,2050,2901,1310,1039,1278,2804,2037,2811,1211,1909,1316,2791,2053,2884,1308,1040,1285,2803
1782217745.1248,4.6481,1,lf,0.0986,0.0986,-0.1000,0,0.3312,0.3312,-0.1024,-0.0006,-0.0004,-0.0101,CLIMB,5,1,0,16.0,0.000,0.560,0,-1,0,0.0,-16.0,-1.0,0.0,0.0,0.0,2037,2826,1212,1912,1298,2788,2050,2901,1310,1039,1278,2804,2037,2811,1211,1909,1316,2792,2052,2884,1308,1040,1285,2803
1782217745.1448,4.6680,1,lf,0.0986,0.0986,-0.1000,0,0.3312,0.3312,-0.1024,-0.0005,-0.0004,-0.0100,CLIMB,5,1,0,16.0,0.000,0.580,0,-1,0,0.0,-16.0,-1.0,0.0,0.0,0.0,2037,2826,1212,1912,1298,2788,2050,2901,1310,1039,1278,2804,2037,2811,1211,1909,1316,2792,2052,2884,1308,1040,1285,2803
1782217745.1649,4.6881,1,lf,0.0986,0.0986,-0.1000,0,0.3312,0.3312,-0.1024,-0.0005,-0.0004,-0.0100,CLIMB,5,1,0,15.0,0.000,0.600,0,-1,0,0.0,-15.0,-1.0,0.0,0.0,0.0,2037,2826,1212,1912,1298,2788,2050,2901,1310,1039,1278,2804,2037,2811,1211,1909,1316,2791,2052,2884,1308,1039,1285,2803
1782217745.1849,4.7082,1,lf,0.0986,0.0986,-0.1000,0,0.3312,0.3312,-0.1024,-0.0005,-0.0004,-0.0100,CLIMB,5,1,0,15.0,0.000,0.620,0,-1,0,0.0,-15.0,-1.0,0.0,0.0,0.0,2037,2826,1212,1912,1298,2788,2050,2901,1310,1039,1278,2804,2037,2811,1211,1909,1316,2791,2052,2884,1308,1039,1285,2803
1782217745.2050,4.7282,1,lf,0.0986,0.0986,-0.1000,0,0.3312,0.3312,-0.1024,-0.0005,-0.0004,-0.0099,CLIMB,5,1,0,15.0,0.000,0.640,0,-1,0,0.0,-15.0,-1.0,0.0,0.0,0.0,2037,2826,1212,1912,1298,2788,2050,2901,1310,1039,1278,2804,2037,2811,1211,1909,1316,2791,2052,2884,1308,1039,1285,2803
1782217745.2249,4.7481,1,lf,0.0986,0.0986,-0.1000,0,0.3312,0.3312,-0.1024,-0.0005,-0.0004,-0.0099,CLIMB,5,1,0,15.0,0.000,0.660,0,-1,0,1.0,-15.0,-1.0,0.0,0.0,0.0,2037,2826,1212,1912,1298,2788,2050,2901,1310,1039,1278,2804,2037,2811,1211,1909,1316,2791,2052,2884,1308,1040,1285,2803
1782217745.2450,4.7682,1,lf,0.0986,0.0986,-0.1000,0,0.3312,0.3312,-0.1024,-0.0005,-0.0004,-0.0099,CLIMB,5,1,0,15.0,0.000,0.680,0,-1,0,1.0,-15.0,-1.0,0.0,0.0,0.0,2037,2826,1212,1912,1298,2788,2050,2901,1310,1039,1278,2804,2037,2811,1211,1909,1316,2791,2052,2884,1308,1040,1285,2803
1782217745.2648,4.7880,1,lf,0.0986,0.0986,-0.1000,0,0.3312,0.3312,-0.1024,-0.0005,-0.0004,-0.0099,CLIMB,5,1,0,15.0,0.000,0.700,0,-1,0,0.0,-15.0,-1.0,0.0,0.0,0.0,2037,2826,1212,1912,1298,2788,2050,2901,1310,1039,1278,2804,2037,2811,1211,1909,1316,2791,2052,2884,1308,1039,1285,2803
1782217745.2850,4.8082,1,lf,0.0986,0.0986,-0.1000,0,0.3312,0.3312,-0.1024,-0.0005,-0.0004,-0.0098,CLIMB,5,1,0,15.0,0.000,0.720,0,-1,0,0.0,-15.0,-1.0,0.0,0.0,0.0,2037,2826,1212,1912,1298,2788,2050,2901,1310,1039,1278,2804,2037,2811,1211,1909,1316,2791,2052,2884,1308,1039,1285,2803
1782217745.3050,4.8282,1,lf,0.0986,0.0986,-0.1000,0,0.3312,0.3312,-0.1024,-0.0005,-0.0004,-0.0098,CLIMB,5,1,0,15.0,0.000,0.740,0,-1,0,0.0,-15.0,-1.0,0.0,0.0,0.0,2037,2826,1212,1912,1298,2788,2050,2901,1310,1039,1278,2804,2037,2811,1211,1909,1316,2791,2052,2884,1308,1039,1285,2803
1782217745.3249,4.8481,1,lf,0.0986,0.0986,-0.1000,0,0.3312,0.3312,-0.1024,-0.0005,-0.0004,-0.0098,CLIMB,5,1,0,15.0,0.000,0.760,0,-1,0,0.0,-15.0,-1.0,0.0,0.0,0.0,2037,2826,1212,1912,1298,2788,2050,2901,1310,1039,1278,2804,2037,2811,1211,1909,1316,2791,2052,2884,1308,1040,1285,2802
1782217745.3449,4.8681,1,lf,0.0986,0.0986,-0.1000,0,0.3312,0.3312,-0.1024,-0.0005,-0.0004,-0.0098,CLIMB,5,1,0,15.0,0.000,0.780,0,-1,0,0.0,-15.0,-1.0,0.0,0.0,0.0,2037,2826,1212,1912,1298,2788,2050,2901,1310,1039,1278,2804,2037,2811,1211,1909,1316,2791,2052,2884,1308,1040,1285,2802
1782217745.3647,4.8879,1,lf,0.0986,0.0986,-0.1000,0,0.3312,0.3312,-0.1024,-0.0005,-0.0004,-0.0097,CLIMB,5,1,0,15.0,0.000,0.800,0,-1,0,0.0,-15.0,-1.0,0.0,0.0,0.0,2037,2826,1212,1912,1298,2788,2050,2901,1310,1039,1278,2804,2037,2811,1211,1909,1316,2791,2052,2884,1308,1040,1285,2803
1782217745.3848,4.9080,1,lf,0.0986,0.0986,-0.1000,0,0.3312,0.3312,-0.1024,-0.0005,-0.0004,-0.0097,CLIMB,5,1,0,15.0,0.000,0.820,0,-1,0,0.0,-15.0,-1.0,0.0,0.0,0.0,2037,2826,1212,1912,1298,2788,2050,2901,1310,1039,1278,2804,2037,2811,1211,1909,1316,2791,2052,2884,1308,1040,1285,2803
1782217745.4048,4.9280,1,lf,0.0986,0.0986,-0.1000,0,0.3312,0.3312,-0.1024,-0.0005,-0.0004,-0.0097,CLIMB,5,1,0,15.0,0.000,0.840,0,-1,0,0.0,-15.0,-1.0,0.0,0.0,0.0,2037,2826,1212,1912,1298,2788,2050,2901,1310,1039,1278,2804,2037,2811,1211,1909,1316,2791,2052,2884,1308,1040,1285,2803
1782217745.4248,4.9481,1,lf,0.0986,0.0986,-0.1000,0,0.3312,0.3312,-0.1024,-0.0005,-0.0004,-0.0097,CLIMB,5,1,0,15.0,0.000,0.860,0,-1,0,0.0,-15.0,-1.0,0.0,0.0,0.0,2037,2826,1212,1912,1298,2788,2050,2901,1310,1039,1278,2804,2037,2811,1211,1909,1316,2791,2052,2884,1308,1040,1285,2803
1782217745.4449,4.9681,1,lf,0.0986,0.0986,-0.1000,0,0.3312,0.3312,-0.1024,-0.0005,-0.0003,-0.0097,CLIMB,5,1,0,15.0,0.000,0.880,0,-1,0,0.0,-15.0,-1.0,0.0,0.0,0.0,2037,2826,1212,1912,1298,2788,2050,2901,1310,1039,1278,2804,2037,2811,1211,1909,1316,2791,2052,2884,1308,1040,1285,2803
1782217745.4650,4.9882,1,lf,0.0986,0.0986,-0.1000,0,0.3312,0.3312,-0.1024,-0.0005,-0.0003,-0.0097,CLIMB,5,1,0,15.0,0.000,0.900,0,-1,0,0.0,-15.0,-1.0,0.0,0.0,0.0,2037,2826,1212,1912,1298,2788,2050,2901,1310,1039,1278,2804,2037,2811,1211,1909,1316,2792,2052,2884,1308,1039,1285,2803
1782217745.4849,5.0082,1,lf,0.0986,0.0986,-0.1000,0,0.3312,0.3312,-0.1024,-0.0005,-0.0003,-0.0096,CLIMB,5,1,0,15.0,0.000,0.920,0,-1,0,0.0,-15.0,-1.0,0.0,0.0,0.0,2037,2826,1212,1912,1298,2788,2050,2901,1310,1039,1278,2804,2037,2811,1211,1909,1316,2792,2052,2884,1308,1039,1285,2803
1782217745.5051,5.0283,1,lf,0.0986,0.0986,-0.1000,0,0.3312,0.3312,-0.1024,-0.0005,-0.0003,-0.0096,CLIMB,5,1,0,15.0,0.000,0.940,0,-1,0,0.0,-15.0,-1.0,0.0,0.0,0.0,2037,2826,1212,1912,1298,2788,2050,2901,1310,1039,1278,2804,2037,2811,1211,1909,1316,2792,2052,2884,1308,1039,1285,2803
1782217745.5248,5.0480,1,lf,0.0986,0.0986,-0.1000,0,0.3312,0.3312,-0.1024,-0.0005,-0.0003,-0.0096,CLIMB,5,1,0,15.0,0.000,0.960,0,-1,0,0.0,-15.0,-1.0,0.0,0.0,0.0,2037,2826,1212,1912,1298,2788,2050,2901,1310,1039,1278,2804,2037,2811,1211,1909,1315,2791,2052,2884,1309,1040,1285,2802
1782217745.5449,5.0681,1,lf,0.0986,0.0986,-0.1000,0,0.3312,0.3312,-0.1024,-0.0005,-0.0003,-0.0096,CLIMB,5,1,0,15.0,0.000,0.980,0,-1,0,0.0,-15.0,-1.0,0.0,0.0,0.0,2037,2826,1212,1912,1298,2788,2050,2901,1310,1039,1278,2804,2037,2811,1211,1909,1315,2791,2052,2884,1309,1040,1285,2802
1782217745.5649,5.0881,1,lf,0.0986,0.0986,-0.1000,0,0.3312,0.3312,-0.1024,-0.0005,-0.0003,-0.0096,CLIMB,5,1,0,15.0,0.000,1.000,0,-1,0,0.0,-15.0,-1.0,0.0,0.0,0.0,2037,2826,1212,1912,1298,2788,2050,2901,1310,1039,1278,2804,2037,2811,1211,1909,1316,2791,2052,2884,1308,1040,1285,2803
1782217745.5850,5.1083,1,lf,0.0986,0.0986,-0.1000,0,0.3312,0.3312,-0.1024,-0.0005,-0.0003,-0.0096,CLIMB,5,1,0,15.0,0.000,1.020,0,-1,0,0.0,-15.0,-1.0,0.0,0.0,0.0,2037,2826,1212,1912,1298,2788,2050,2901,1310,1039,1278,2804,2037,2811,1211,1909,1316,2791,2052,2884,1308,1040,1285,2803
1782217745.6051,5.1283,1,lf,0.0986,0.0986,-0.1000,0,0.3312,0.3312,-0.1024,-0.0005,-0.0003,-0.0096,CLIMB,5,1,0,15.0,0.000,1.040,0,-1,0,0.0,-15.0,-1.0,0.0,0.0,0.0,2037,2826,1212,1912,1298,2788,2050,2901,1310,1039,1278,2804,2037,2811,1211,1909,1316,2791,2052,2884,1308,1040,1285,2803
1782217745.6249,5.1481,1,lf,0.0986,0.0986,-0.1000,0,0.3312,0.3312,-0.1024,-0.0005,-0.0003,-0.0095,CLIMB,5,1,0,15.0,0.000,1.060,0,-1,0,0.0,-15.0,-1.0,0.0,0.0,0.0,2037,2826,1212,1912,1298,2788,2050,2901,1310,1039,1278,2804,2037,2811,1211,1909,1316,2791,2052,2884,1308,1039,1285,2802
1782217745.6449,5.1681,1,lf,0.0986,0.0986,-0.1000,0,0.3312,0.3312,-0.1024,-0.0005,-0.0003,-0.0095,CLIMB,5,1,0,15.0,0.000,1.080,0,-1,0,0.0,-15.0,-1.0,0.0,0.0,0.0,2037,2826,1212,1912,1298,2788,2050,2901,1310,1039,1278,2804,2037,2811,1211,1909,1316,2791,2052,2884,1308,1039,1285,2802
1782217745.6650,5.1882,1,lf,0.0986,0.0986,-0.1000,0,0.3312,0.3312,-0.1024,-0.0005,-0.0003,-0.0095,CLIMB,5,1,0,15.0,0.000,1.100,0,-1,0,0.0,-15.0,-1.0,0.0,0.0,0.0,2037,2826,1212,1912,1298,2788,2050,2901,1310,1039,1278,2804,2037,2811,1211,1909,1316,2791,2052,2884,1308,1040,1285,2803
1782217745.6850,5.2082,1,lf,0.0986,0.0986,-0.1000,0,0.3312,0.3312,-0.1024,-0.0005,-0.0003,-0.0095,CLIMB,5,1,0,15.0,0.000,1.120,0,-1,0,0.0,-15.0,-1.0,0.0,0.0,0.0,2037,2826,1212,1912,1298,2788,2050,2901,1310,1039,1278,2804,2037,2811,1211,1909,1316,2791,2052,2884,1308,1040,1285,2803
1782217745.7050,5.2282,1,lf,0.0986,0.0986,-0.1000,0,0.3312,0.3312,-0.1024,-0.0005,-0.0003,-0.0095,CLIMB,5,1,0,15.0,0.000,1.140,0,-1,0,0.0,-15.0,-1.0,0.0,0.0,0.0,2037,2826,1212,1912,1298,2788,2050,2901,1310,1039,1278,2804,2037,2811,1211,1909,1316,2791,2052,2884,1308,1040,1285,2803
1782217745.7248,5.2480,1,lf,0.0986,0.0986,-0.1000,0,0.3312,0.3312,-0.1024,-0.0005,-0.0003,-0.0095,CLIMB,5,1,0,15.0,0.000,1.160,0,-1,0,0.0,-15.0,-1.0,0.0,0.0,0.0,2037,2826,1212,1912,1298,2788,2050,2901,1310,1039,1278,2804,2037,2811,1211,1909,1316,2791,2052,2884,1308,1040,1285,2803
1782217745.7449,5.2681,1,lf,0.0986,0.0986,-0.1000,0,0.3312,0.3312,-0.1024,-0.0005,-0.0003,-0.0094,CLIMB,5,1,0,16.0,0.000,1.180,0,-1,0,0.0,-16.0,-1.0,0.0,0.0,0.0,2037,2826,1212,1912,1298,2788,2050,2901,1310,1039,1278,2804,2037,2811,1211,1909,1316,2791,2052,2884,1308,1040,1285,2803
1782217745.7649,5.2881,1,lf,0.0986,0.0986,-0.1000,0,0.3312,0.3312,-0.1024,-0.0005,-0.0003,-0.0094,CLIMB,5,1,0,15.0,0.000,1.200,0,-1,0,0.0,-15.0,-1.0,0.0,0.0,0.0,2037,2826,1212,1912,1298,2788,2050,2901,1310,1039,1278,2804,2037,2811,1211,1909,1316,2792,2052,2884,1308,1039,1285,2803
1782217745.7850,5.3082,1,lf,0.0986,0.0986,-0.1000,0,0.3312,0.3312,-0.1024,-0.0005,-0.0003,-0.0094,CLIMB,5,1,0,15.0,0.000,1.220,0,-1,0,0.0,-15.0,-1.0,0.0,0.0,0.0,2037,2826,1212,1912,1298,2788,2050,2901,1310,1039,1278,2804,2037,2811,1211,1909,1316,2792,2052,2884,1308,1039,1285,2803
1782217745.8049,5.3281,1,lf,0.0986,0.0986,-0.1000,0,0.3312,0.3312,-0.1024,-0.0005,-0.0003,-0.0094,CLIMB,5,1,0,15.0,0.000,1.240,0,-1,0,0.0,-15.0,-1.0,0.0,0.0,0.0,2037,2826,1212,1912,1298,2788,2050,2901,1310,1039,1278,2804,2037,2811,1211,1909,1316,2792,2052,2884,1308,1039,1285,2803
1782217745.8248,5.3480,1,lf,0.0986,0.0986,-0.1000,0,0.3312,0.3312,-0.1024,-0.0005,-0.0003,-0.0094,CLIMB,5,1,0,15.0,0.000,1.260,0,-1,0,0.0,-15.0,-1.0,0.0,0.0,0.0,2037,2826,1212,1912,1298,2788,2050,2901,1310,1039,1278,2804,2037,2811,1211,1909,1316,2792,2052,2884,1308,1040,1285,2803
1782217745.8448,5.3681,1,lf,0.0986,0.0986,-0.1000,0,0.3312,0.3312,-0.1024,-0.0005,-0.0003,-0.0094,CLIMB,5,1,0,15.0,0.000,1.280,0,-1,0,0.0,-15.0,-1.0,0.0,0.0,0.0,2037,2826,1212,1912,1298,2788,2050,2901,1310,1039,1278,2804,2037,2811,1211,1909,1316,2792,2052,2884,1308,1040,1285,2803
1782217745.8649,5.3882,1,lf,0.0986,0.0986,-0.1000,0,0.3312,0.3312,-0.1024,-0.0005,-0.0003,-0.0094,CLIMB,5,1,0,15.0,0.000,1.300,0,-1,0,0.0,-15.0,-1.0,0.0,0.0,0.0,2037,2826,1212,1912,1298,2788,2050,2901,1310,1039,1278,2804,2037,2811,1211,1909,1316,2792,2052,2884,1308,1039,1285,2802
1782217745.8852,5.4084,1,lf,0.0986,0.0986,-0.1000,0,0.3312,0.3312,-0.1024,-0.0005,-0.0003,-0.0094,CLIMB,5,1,0,15.0,0.000,1.320,0,-1,0,0.0,-15.0,-1.0,0.0,0.0,0.0,2037,2826,1212,1912,1298,2788,2050,2901,1310,1039,1278,2804,2037,2811,1211,1909,1316,2792,2052,2884,1308,1039,1285,2802
1782217745.9049,5.4281,1,lf,0.0986,0.0986,-0.1000,0,0.3312,0.3312,-0.1024,-0.0005,-0.0003,-0.0094,CLIMB,5,1,0,15.0,0.000,1.340,0,-1,0,0.0,-15.0,-1.0,0.0,0.0,0.0,2037,2826,1212,1912,1298,2788,2050,2901,1310,1039,1278,2804,2037,2811,1211,1909,1316,2792,2052,2884,1308,1039,1285,2802
1782217745.9248,5.4480,1,lf,0.0986,0.0986,-0.1000,0,0.3312,0.3312,-0.1024,-0.0005,-0.0003,-0.0094,CLIMB,5,1,0,15.0,0.000,1.360,0,-1,0,0.0,-15.0,-1.0,0.0,0.0,0.0,2037,2826,1212,1912,1298,2788,2050,2901,1310,1039,1278,2804,2037,2811,1211,1909,1316,2791,2052,2884,1308,1040,1285,2803
1782217745.9448,5.4681,1,lf,0.0986,0.0986,-0.1000,0,0.3312,0.3312,-0.1024,-0.0005,-0.0003,-0.0093,CLIMB,5,1,0,15.0,0.000,1.380,0,-1,0,0.0,-15.0,-1.0,0.0,0.0,0.0,2037,2826,1212,1912,1298,2788,2050,2901,1310,1039,1278,2804,2037,2811,1211,1909,1316,2791,2052,2884,1308,1040,1285,2803
1782217745.9650,5.4882,1,lf,0.0986,0.0986,-0.1000,0,0.3312,0.3312,-0.1024,-0.0005,-0.0003,-0.0093,CLIMB,5,1,0,15.0,0.000,1.400,0,-1,0,0.0,-15.0,-1.0,0.0,0.0,0.0,2037,2826,1212,1912,1298,2788,2050,2901,1310,1039,1278,2804,2037,2811,1211,1909,1316,2791,2052,2884,1308,1039,1285,2803
1782217745.9849,5.5081,1,lf,0.0986,0.0986,-0.1000,0,0.3312,0.3312,-0.1024,-0.0005,-0.0003,-0.0093,CLIMB,5,1,0,15.0,0.000,1.420,0,-1,0,0.0,-15.0,-1.0,0.0,0.0,0.0,2037,2826,1212,1912,1298,2788,2050,2901,1310,1039,1278,2804,2037,2811,1211,1909,1316,2791,2052,2884,1308,1039,1285,2803
1782217746.0049,5.5282,1,lf,0.0986,0.0986,-0.1000,0,0.3312,0.3312,-0.1024,-0.0005,-0.0003,-0.0093,CLIMB,5,1,0,15.0,0.000,1.440,0,-1,0,0.0,-15.0,-1.0,0.0,0.0,0.0,2037,2826,1212,1912,1298,2788,2050,2901,1310,1039,1278,2804,2037,2811,1211,1909,1316,2791,2052,2884,1308,1039,1285,2803
1782217746.0248,5.5480,1,lf,0.0986,0.0986,-0.1000,0,0.3312,0.3312,-0.1024,-0.0005,-0.0003,-0.0093,CLIMB,5,1,0,15.0,0.000,1.460,0,-1,0,0.0,-15.0,-1.0,0.0,0.0,0.0,2037,2826,1212,1912,1298,2788,2050,2901,1310,1039,1278,2804,2037,2811,1211,1909,1316,2791,2052,2884,1308,1039,1285,2803
1782217746.0448,5.5680,1,lf,0.0986,0.0986,-0.1000,0,0.3312,0.3312,-0.1024,-0.0005,-0.0003,-0.0093,CLIMB,5,1,0,15.0,0.000,1.480,0,-1,0,0.0,-15.0,-1.0,0.0,0.0,0.0,2037,2826,1212,1912,1298,2788,2050,2901,1310,1039,1278,2804,2037,2811,1211,1909,1316,2791,2052,2884,1308,1039,1285,2803
1782217746.0649,5.5881,1,lf,0.0986,0.0986,-0.1000,0,0.3312,0.3312,-0.1024,-0.0005,-0.0003,-0.0093,CLIMB,5,1,0,15.0,0.000,1.500,0,-1,0,0.0,-15.0,-1.0,0.0,0.0,0.0,2037,2826,1212,1912,1298,2788,2050,2901,1310,1039,1278,2804,2037,2811,1211,1909,1316,2792,2052,2884,1308,1039,1285,2803
1782217746.0848,5.6081,1,lf,0.0986,0.0986,-0.1000,0,0.3312,0.3312,-0.1024,-0.0005,-0.0003,-0.0093,CLIMB,5,1,0,15.0,0.000,1.520,0,-1,0,0.0,-15.0,-1.0,0.0,0.0,0.0,2037,2826,1212,1912,1298,2788,2050,2901,1310,1039,1278,2804,2037,2811,1211,1909,1316,2792,2052,2884,1308,1039,1285,2803
1782217746.1048,5.6281,1,lf,0.0986,0.0986,-0.1000,0,0.3312,0.3312,-0.1024,-0.0005,-0.0003,-0.0092,CLIMB,5,1,0,15.0,0.000,1.540,0,-1,0,0.0,-15.0,-1.0,0.0,0.0,0.0,2037,2826,1212,1912,1298,2788,2050,2901,1310,1039,1278,2804,2037,2811,1211,1909,1316,2792,2052,2884,1308,1039,1285,2803
1782217746.1248,5.6481,1,lf,0.0986,0.0986,-0.1000,0,0.3312,0.3312,-0.1024,-0.0005,-0.0003,-0.0092,CLIMB,5,1,0,15.0,0.000,1.560,0,-1,0,0.0,-15.0,-1.0,0.0,0.0,0.0,2037,2826,1212,1912,1298,2788,2050,2901,1310,1039,1278,2804,2037,2811,1211,1909,1316,2791,2052,2884,1308,1039,1285,2803
1782217746.1448,5.6680,1,lf,0.0986,0.0986,-0.1000,0,0.3312,0.3312,-0.1024,-0.0005,-0.0003,-0.0092,CLIMB,5,1,0,15.0,0.000,1.580,0,-1,0,0.0,-15.0,-1.0,0.0,0.0,0.0,2037,2826,1212,1912,1298,2788,2050,2901,1310,1039,1278,2804,2037,2811,1211,1909,1316,2791,2052,2884,1308,1039,1285,2803
1782217746.1649,5.6881,1,lf,0.0986,0.0986,-0.1000,0,0.3312,0.3312,-0.1024,-0.0005,-0.0003,-0.0092,CLIMB,5,1,0,15.0,0.000,1.600,0,-1,0,0.0,-15.0,-1.0,0.0,0.0,0.0,2037,2826,1212,1912,1298,2788,2050,2901,1310,1039,1278,2804,2037,2811,1211,1909,1316,2792,2052,2884,1308,1040,1285,2803
1782217746.1850,5.7082,1,lf,0.0986,0.0986,-0.1000,0,0.3312,0.3312,-0.1024,-0.0005,-0.0003,-0.0092,CLIMB,5,1,0,15.0,0.000,1.620,0,-1,0,0.0,-15.0,-1.0,0.0,0.0,0.0,2037,2826,1212,1912,1298,2788,2050,2901,1310,1039,1278,2804,2037,2811,1211,1909,1316,2792,2052,2884,1308,1040,1285,2803
1782217746.2050,5.7282,1,lf,0.0986,0.0986,-0.1000,0,0.3312,0.3312,-0.1024,-0.0005,-0.0003,-0.0092,CLIMB,5,1,0,15.0,0.000,1.640,0,-1,0,0.0,-15.0,-1.0,0.0,0.0,0.0,2037,2826,1212,1912,1298,2788,2050,2901,1310,1039,1278,2804,2037,2811,1211,1909,1316,2792,2052,2884,1308,1040,1285,2803
1782217746.2248,5.7480,1,lf,0.0986,0.0986,-0.1000,0,0.3312,0.3312,-0.1024,-0.0005,-0.0003,-0.0092,CLIMB,5,1,0,15.0,0.000,1.660,0,-1,0,0.0,-15.0,-1.0,0.0,0.0,0.0,2037,2826,1212,1912,1298,2788,2050,2901,1310,1039,1278,2804,2037,2811,1211,1909,1316,2792,2052,2884,1308,1039,1285,2803
1782217746.2448,5.7680,1,lf,0.0986,0.0986,-0.1000,0,0.3312,0.3312,-0.1024,-0.0005,-0.0003,-0.0092,CLIMB,5,1,0,15.0,0.000,1.680,0,-1,0,0.0,-15.0,-1.0,0.0,0.0,0.0,2037,2826,1212,1912,1298,2788,2050,2901,1310,1039,1278,2804,2037,2811,1211,1909,1316,2792,2052,2884,1308,1039,1285,2803
1782217746.2649,5.7881,1,lf,0.0986,0.0986,-0.1000,0,0.3312,0.3312,-0.1024,-0.0005,-0.0003,-0.0092,CLIMB,5,1,0,15.0,0.000,1.700,0,-1,0,0.0,-15.0,-1.0,0.0,0.0,0.0,2037,2826,1212,1912,1298,2788,2050,2901,1310,1039,1278,2804,2037,2811,1211,1909,1316,2791,2052,2884,1308,1040,1285,2803
1782217746.2850,5.8082,1,lf,0.0986,0.0986,-0.1000,0,0.3312,0.3312,-0.1024,-0.0005,-0.0003,-0.0092,CLIMB,5,1,0,15.0,0.000,1.720,0,-1,0,0.0,-15.0,-1.0,0.0,0.0,0.0,2037,2826,1212,1912,1298,2788,2050,2901,1310,1039,1278,2804,2037,2811,1211,1909,1316,2791,2052,2884,1308,1040,1285,2803
1782217746.3049,5.8281,1,lf,0.0986,0.0986,-0.1000,0,0.3312,0.3312,-0.1024,-0.0005,-0.0003,-0.0092,CLIMB,5,1,0,15.0,0.000,1.740,0,-1,0,0.0,-15.0,-1.0,0.0,0.0,0.0,2037,2826,1212,1912,1298,2788,2050,2901,1310,1039,1278,2804,2037,2811,1211,1909,1316,2791,2052,2884,1308,1040,1285,2803
1782217746.3249,5.8481,1,lf,0.0986,0.0986,-0.1000,0,0.3312,0.3312,-0.1024,-0.0005,-0.0003,-0.0092,CLIMB,5,1,0,15.0,0.000,1.760,0,-1,0,0.0,-15.0,-1.0,0.0,0.0,0.0,2037,2826,1212,1912,1298,2788,2050,2901,1310,1039,1278,2804,2037,2811,1211,1909,1316,2791,2052,2884,1308,1040,1285,2803
1782217746.3449,5.8681,1,lf,0.0986,0.0986,-0.1000,0,0.3312,0.3312,-0.1024,-0.0005,-0.0003,-0.0092,CLIMB,5,1,0,15.0,0.000,1.780,0,-1,0,0.0,-15.0,-1.0,0.0,0.0,0.0,2037,2826,1212,1912,1298,2788,2050,2901,1310,1039,1278,2804,2037,2811,1211,1909,1316,2791,2052,2884,1308,1040,1285,2803
1782217746.3648,5.8880,1,lf,0.0986,0.0986,-0.1000,0,0.3312,0.3312,-0.1024,-0.0005,-0.0003,-0.0091,CLIMB,5,1,0,15.0,0.000,1.800,0,-1,0,0.0,-15.0,-1.0,0.0,0.0,0.0,2037,2826,1212,1912,1298,2788,2050,2901,1310,1039,1278,2804,2037,2811,1211,1909,1316,2792,2052,2884,1308,1040,1285,2803
1782217746.3849,5.9081,1,lf,0.0986,0.0986,-0.1000,0,0.3312,0.3312,-0.1024,-0.0005,-0.0003,-0.0091,CLIMB,5,1,0,15.0,0.000,1.820,0,-1,0,0.0,-15.0,-1.0,0.0,0.0,0.0,2037,2826,1212,1912,1298,2788,2050,2901,1310,1039,1278,2804,2037,2811,1211,1909,1316,2792,2052,2884,1308,1040,1285,2803
1782217746.4049,5.9281,1,lf,0.0986,0.0986,-0.1000,0,0.3312,0.3312,-0.1024,-0.0005,-0.0003,-0.0091,CLIMB,5,1,0,15.0,0.000,1.840,0,-1,0,0.0,-15.0,-1.0,0.0,0.0,0.0,2037,2826,1212,1912,1298,2788,2050,2901,1310,1039,1278,2804,2037,2811,1211,1909,1316,2792,2052,2884,1308,1040,1285,2803
1782217746.4248,5.9480,1,lf,0.0986,0.0986,-0.1000,0,0.3312,0.3312,-0.1024,-0.0005,-0.0003,-0.0091,CLIMB,5,1,0,15.0,0.000,1.860,0,-1,0,0.0,-15.0,-1.0,0.0,0.0,0.0,2037,2826,1212,1912,1298,2788,2050,2901,1310,1039,1278,2804,2037,2811,1211,1909,1316,2791,2052,2884,1308,1040,1285,2803
1782217746.4448,5.9680,1,lf,0.0986,0.0986,-0.1000,0,0.3312,0.3312,-0.1024,-0.0005,-0.0003,-0.0091,CLIMB,5,1,0,15.0,0.000,1.880,0,-1,0,0.0,-15.0,-1.0,0.0,0.0,0.0,2037,2826,1212,1912,1298,2788,2050,2901,1310,1039,1278,2804,2037,2811,1211,1909,1316,2791,2052,2884,1308,1040,1285,2803
1782217746.4649,5.9882,1,lf,0.0986,0.0986,-0.1000,0,0.3312,0.3312,-0.1024,-0.0005,-0.0003,-0.0091,CLIMB,5,1,0,15.0,0.000,1.900,0,-1,0,0.0,-15.0,-1.0,0.0,0.0,0.0,2037,2826,1212,1912,1298,2788,2050,2901,1310,1039,1278,2804,2037,2811,1211,1909,1316,2791,2052,2884,1308,1040,1285,2803
1782217746.4849,6.0082,1,lf,0.0986,0.0986,-0.1000,0,0.3312,0.3312,-0.1024,-0.0005,-0.0003,-0.0091,CLIMB,5,1,0,15.0,0.000,1.920,0,-1,0,0.0,-15.0,-1.0,0.0,0.0,0.0,2037,2826,1212,1912,1298,2788,2050,2901,1310,1039,1278,2804,2037,2811,1211,1909,1316,2791,2052,2884,1308,1040,1285,2803
1782217746.5048,6.0281,1,lf,0.0986,0.0986,-0.1000,0,0.3312,0.3312,-0.1024,-0.0005,-0.0003,-0.0091,CLIMB,5,1,0,15.0,0.000,1.940,0,-1,0,1.0,-15.0,-1.0,0.0,0.0,0.0,2037,2826,1212,1912,1298,2788,2050,2901,1310,1039,1278,2804,2037,2811,1211,1909,1316,2791,2052,2884,1308,1040,1285,2803
1782217746.5248,6.0480,1,lf,0.0986,0.0986,-0.1000,0,0.3312,0.3312,-0.1024,-0.0005,-0.0003,-0.0091,CLIMB,5,1,0,15.0,0.000,1.960,0,-1,0,1.0,-15.0,-1.0,0.0,0.0,0.0,2037,2826,1212,1912,1298,2788,2050,2901,1310,1039,1278,2804,2038,2811,1211,1909,1316,2791,2052,2884,1308,1039,1285,2803
1782217746.5448,6.0681,1,lf,0.0986,0.0986,-0.1000,0,0.3314,0.3309,-0.1024,-0.0006,-0.0002,-0.0091,CLIMB,5,1,0,15.0,0.000,1.980,0,-1,0,0.0,-15.0,-1.0,0.0,0.0,0.0,2037,2826,1212,1912,1298,2788,2050,2901,1310,1039,1278,2804,2038,2811,1211,1909,1316,2791,2052,2884,1308,1039,1285,2803
1782217746.5649,6.0881,1,lf,0.0986,0.0986,-0.1000,0,0.3314,0.3309,-0.1024,-0.0006,-0.0001,-0.0091,CLIMB,5,1,0,15.0,0.000,2.000,0,-1,0,0.0,-15.0,-1.0,0.0,0.0,0.0,2037,2826,1212,1912,1298,2788,2050,2901,1310,1039,1278,2804,2037,2811,1211,1909,1316,2792,2052,2884,1308,1039,1285,2802
1782217746.5850,6.1083,1,lf,0.0986,0.0986,-0.1000,0,0.3312,0.3312,-0.1024,-0.0005,-0.0002,-0.0091,CLIMB,5,1,0,15.0,0.000,2.020,0,-1,0,0.0,-15.0,-1.0,0.0,0.0,0.0,2037,2826,1212,1912,1298,2788,2050,2901,1310,1039,1278,2804,2037,2811,1211,1909,1316,2792,2052,2884,1308,1039,1285,2802
1782217746.6049,6.1281,1,lf,0.0986,0.0986,-0.1000,0,0.3312,0.3312,-0.1024,-0.0005,-0.0003,-0.0091,CLIMB,5,1,0,15.0,0.000,2.040,0,-1,0,0.0,-15.0,-1.0,0.0,0.0,0.0,2037,2826,1212,1912,1298,2788,2050,2901,1310,1039,1278,2804,2037,2811,1211,1909,1316,2792,2052,2884,1308,1039,1285,2802
1782217746.6248,6.1481,1,lf,0.0986,0.0986,-0.1000,0,0.3312,0.3312,-0.1024,-0.0005,-0.0003,-0.0091,CLIMB,5,1,0,15.0,0.000,2.060,0,-1,0,0.0,-15.0,-1.0,0.0,0.0,0.0,2037,2826,1212,1912,1298,2788,2050,2901,1310,1039,1278,2804,2037,2811,1211,1909,1316,2792,2052,2884,1308,1040,1285,2803
1782217746.6448,6.1680,1,lf,0.0986,0.0986,-0.1000,0,0.3312,0.3312,-0.1024,-0.0005,-0.0003,-0.0091,CLIMB,5,1,0,15.0,0.000,2.080,0,-1,0,0.0,-15.0,-1.0,0.0,0.0,0.0,2037,2826,1212,1912,1298,2788,2050,2901,1310,1039,1278,2804,2037,2811,1211,1909,1316,2792,2052,2884,1308,1040,1285,2803
1782217746.6649,6.1881,1,lf,0.0986,0.0986,-0.1000,0,0.3312,0.3312,-0.1024,-0.0005,-0.0003,-0.0091,CLIMB,5,1,0,15.0,0.000,2.100,0,-1,0,0.0,-15.0,-1.0,0.0,0.0,0.0,2037,2826,1212,1912,1298,2788,2050,2901,1310,1039,1278,2804,2037,2811,1211,1909,1316,2791,2052,2884,1308,1040,1285,2803
1782217746.6850,6.2082,1,lf,0.0986,0.0986,-0.1000,0,0.3312,0.3312,-0.1024,-0.0005,-0.0003,-0.0091,CLIMB,5,1,0,15.0,0.000,2.120,0,-1,0,0.0,-15.0,-1.0,0.0,0.0,0.0,2037,2826,1212,1912,1298,2788,2050,2901,1310,1039,1278,2804,2037,2811,1211,1909,1316,2791,2052,2884,1308,1040,1285,2803
1782217746.7049,6.2281,1,lf,0.0986,0.0986,-0.1000,0,0.3312,0.3312,-0.1024,-0.0005,-0.0003,-0.0091,CLIMB,5,1,0,15.0,0.000,2.140,0,-1,0,0.0,-15.0,-1.0,0.0,0.0,0.0,2037,2826,1212,1912,1298,2788,2050,2901,1310,1039,1278,2804,2037,2811,1211,1909,1316,2791,2052,2884,1308,1040,1285,2803
1782217746.7248,6.2481,1,lf,0.0986,0.0986,-0.1000,0,0.3312,0.3312,-0.1024,-0.0005,-0.0003,-0.0091,CLIMB,5,1,0,15.0,0.000,2.160,0,-1,0,0.0,-15.0,-1.0,0.0,0.0,0.0,2037,2826,1212,1912,1298,2788,2050,2901,1310,1039,1278,2804,2037,2811,1211,1909,1316,2791,2052,2884,1308,1039,1285,2803
1782217746.7449,6.2682,1,lf,0.0986,0.0986,-0.1000,0,0.3312,0.3312,-0.1024,-0.0004,-0.0003,-0.0091,CLIMB,5,1,0,15.0,0.000,2.180,0,-1,0,0.0,-15.0,-1.0,0.0,0.0,0.0,2037,2826,1212,1912,1298,2788,2050,2901,1310,1039,1278,2804,2037,2811,1211,1909,1316,2791,2052,2884,1308,1039,1285,2803
1782217746.7650,6.2882,1,lf,0.0986,0.0986,-0.1000,0,0.3312,0.3312,-0.1024,-0.0004,-0.0003,-0.0090,CLIMB,5,1,0,15.0,0.000,2.200,0,-1,0,0.0,-15.0,-1.0,0.0,0.0,0.0,2037,2826,1212,1912,1298,2788,2050,2901,1310,1039,1278,2804,2037,2811,1211,1909,1316,2792,2052,2884,1308,1040,1285,2803
1782217746.7850,6.3082,1,lf,0.0986,0.0986,-0.1000,0,0.3312,0.3312,-0.1024,-0.0004,-0.0003,-0.0090,CLIMB,5,1,0,15.0,0.000,2.220,0,-1,0,0.0,-15.0,-1.0,0.0,0.0,0.0,2037,2826,1212,1912,1298,2788,2050,2901,1310,1039,1278,2804,2037,2811,1211,1909,1316,2792,2052,2884,1308,1040,1285,2803
1782217746.8049,6.3282,1,lf,0.0986,0.0986,-0.1000,0,0.3312,0.3312,-0.1024,-0.0004,-0.0003,-0.0090,CLIMB,5,1,0,15.0,0.000,2.240,0,-1,0,0.0,-15.0,-1.0,0.0,0.0,0.0,2037,2826,1212,1912,1298,2788,2050,2901,1310,1039,1278,2804,2037,2811,1211,1909,1316,2792,2052,2884,1308,1040,1285,2803
1782217746.8248,6.3481,1,lf,0.0986,0.0986,-0.1000,0,0.3312,0.3312,-0.1024,-0.0004,-0.0003,-0.0090,CLIMB,5,1,0,15.0,0.000,2.260,0,-1,0,0.0,-15.0,-1.0,0.0,0.0,0.0,2037,2826,1212,1912,1298,2788,2050,2901,1310,1039,1278,2804,2037,2811,1211,1909,1316,2791,2052,2884,1308,1039,1285,2803
1782217746.8450,6.3682,1,lf,0.0986,0.0986,-0.1000,0,0.3312,0.3312,-0.1024,-0.0004,-0.0003,-0.0090,CLIMB,5,1,0,15.0,0.000,2.280,0,-1,0,0.0,-15.0,-1.0,0.0,0.0,0.0,2037,2826,1212,1912,1298,2788,2050,2901,1310,1039,1278,2804,2037,2811,1211,1909,1316,2791,2052,2884,1308,1039,1285,2803
1782217746.8651,6.3883,1,lf,0.0986,0.0986,-0.1000,0,0.3312,0.3312,-0.1024,-0.0004,-0.0003,-0.0090,CLIMB,5,1,0,15.0,0.000,2.300,0,-1,0,0.0,-15.0,-1.0,0.0,0.0,0.0,2037,2826,1212,1912,1298,2788,2050,2901,1310,1039,1278,2804,2037,2811,1211,1909,1316,2791,2052,2884,1308,1040,1285,2802
1782217746.8849,6.4081,1,lf,0.0986,0.0986,-0.1000,0,0.3312,0.3312,-0.1024,-0.0004,-0.0003,-0.0090,CLIMB,5,1,0,15.0,0.000,2.320,0,-1,0,0.0,-15.0,-1.0,0.0,0.0,0.0,2037,2826,1212,1912,1298,2788,2050,2901,1310,1039,1278,2804,2037,2811,1211,1909,1316,2791,2052,2884,1308,1040,1285,2802
1782217746.9050,6.4282,1,lf,0.0986,0.0986,-0.1000,0,0.3312,0.3312,-0.1024,-0.0004,-0.0003,-0.0090,CLIMB,5,1,0,15.0,0.000,2.340,0,-1,0,0.0,-15.0,-1.0,0.0,0.0,0.0,2037,2826,1212,1912,1298,2788,2050,2901,1310,1039,1278,2804,2037,2811,1211,1909,1316,2791,2052,2884,1308,1040,1285,2802
1782217746.9248,6.4480,1,lf,0.0986,0.0986,-0.1000,0,0.3312,0.3312,-0.1024,-0.0004,-0.0003,-0.0090,CLIMB,5,1,0,15.0,0.000,2.360,0,-1,0,0.0,-15.0,-1.0,0.0,0.0,0.0,2037,2826,1212,1912,1298,2788,2050,2901,1310,1039,1278,2804,2037,2811,1211,1909,1315,2791,2052,2884,1308,1039,1285,2803
1782217746.9450,6.4682,1,lf,0.0986,0.0986,-0.1000,0,0.3312,0.3312,-0.1024,-0.0004,-0.0003,-0.0090,CLIMB,5,1,0,15.0,0.000,2.380,0,-1,0,0.0,-15.0,-1.0,0.0,0.0,0.0,2037,2826,1212,1912,1298,2788,2050,2901,1310,1039,1278,2804,2037,2811,1211,1909,1315,2791,2052,2884,1308,1039,1285,2803
1782217746.9650,6.4883,1,lf,0.0986,0.0986,-0.1000,0,0.3312,0.3312,-0.1024,-0.0004,-0.0003,-0.0090,CLIMB,5,1,0,15.0,0.000,2.400,0,-1,0,0.0,-15.0,-1.0,0.0,0.0,0.0,2037,2826,1212,1912,1298,2788,2050,2901,1310,1039,1278,2804,2037,2811,1211,1909,1316,2792,2052,2884,1308,1039,1285,2803
1782217746.9849,6.5081,1,lf,0.0986,0.0986,-0.1000,0,0.3312,0.3312,-0.1024,-0.0004,-0.0003,-0.0090,CLIMB,5,1,0,15.0,0.000,2.420,0,-1,0,0.0,-15.0,-1.0,0.0,0.0,0.0,2037,2826,1212,1912,1298,2788,2050,2901,1310,1039,1278,2804,2037,2811,1211,1909,1316,2792,2052,2884,1308,1039,1285,2803
1782217747.0049,6.5282,1,lf,0.0986,0.0986,-0.1000,0,0.3312,0.3312,-0.1024,-0.0004,-0.0003,-0.0090,CLIMB,5,1,0,15.0,0.000,2.440,0,-1,0,0.0,-15.0,-1.0,0.0,0.0,0.0,2037,2826,1212,1912,1298,2788,2050,2901,1310,1039,1278,2804,2037,2811,1211,1909,1316,2792,2052,2884,1308,1039,1285,2803
1782217747.0249,6.5481,1,lf,0.0986,0.0986,-0.1000,0,0.3312,0.3312,-0.1024,-0.0004,-0.0003,-0.0090,CLIMB,5,1,0,15.0,0.000,2.460,0,-1,0,0.0,-15.0,-1.0,0.0,0.0,0.0,2037,2826,1212,1912,1298,2788,2050,2901,1310,1039,1278,2804,2037,2811,1211,1909,1316,2791,2052,2884,1309,1040,1285,2803
1782217747.0449,6.5682,1,lf,0.0986,0.0986,-0.1000,0,0.3312,0.3312,-0.1024,-0.0004,-0.0003,-0.0090,CLIMB,5,1,0,15.0,0.000,2.480,0,-1,0,0.0,-15.0,-1.0,0.0,0.0,0.0,2037,2826,1212,1912,1298,2788,2050,2901,1310,1039,1278,2804,2037,2811,1211,1909,1316,2791,2052,2884,1309,1040,1285,2803
1782217747.0648,6.5880,1,lf,0.0986,0.0986,-0.1000,0,0.3312,0.3312,-0.1024,-0.0004,-0.0003,-0.0090,CLIMB,5,1,0,15.0,0.000,2.500,0,-1,0,0.0,-15.0,-1.0,0.0,0.0,0.0,2037,2826,1212,1912,1298,2788,2050,2901,1310,1039,1278,2804,2037,2811,1211,1909,1316,2791,2052,2884,1308,1040,1285,2803
1782217747.0849,6.6081,1,lf,0.0986,0.0986,-0.1000,0,0.3312,0.3312,-0.1024,-0.0004,-0.0003,-0.0090,CLIMB,5,1,0,15.0,0.000,2.520,0,-1,0,0.0,-15.0,-1.0,0.0,0.0,0.0,2037,2826,1212,1912,1298,2788,2050,2901,1310,1039,1278,2804,2037,2811,1211,1909,1316,2791,2052,2884,1308,1040,1285,2803
1782217747.1050,6.6282,1,lf,0.0986,0.0986,-0.1000,0,0.3312,0.3312,-0.1024,-0.0004,-0.0003,-0.0090,CLIMB,5,1,0,15.0,0.000,2.540,0,-1,0,0.0,-15.0,-1.0,0.0,0.0,0.0,2037,2826,1212,1912,1298,2788,2050,2901,1310,1039,1278,2804,2037,2811,1211,1909,1316,2791,2052,2884,1308,1040,1285,2803
1782217747.1249,6.6481,1,lf,0.0986,0.0986,-0.1000,0,0.3312,0.3312,-0.1024,-0.0004,-0.0003,-0.0090,CLIMB,5,1,0,15.0,0.000,2.560,0,-1,0,0.0,-15.0,-1.0,0.0,0.0,0.0,2037,2826,1212,1912,1298,2788,2050,2901,1310,1039,1278,2804,2037,2811,1211,1909,1316,2791,2052,2884,1308,1039,1285,2803
1782217747.1448,6.6680,1,lf,0.0986,0.0986,-0.1000,0,0.3312,0.3312,-0.1024,-0.0004,-0.0003,-0.0090,CLIMB,5,1,0,15.0,0.000,2.580,0,-1,0,0.0,-15.0,-1.0,0.0,0.0,0.0,2037,2826,1212,1912,1298,2788,2050,2901,1310,1039,1278,2804,2037,2811,1211,1909,1316,2791,2052,2884,1308,1039,1285,2803
1782217747.1649,6.6881,1,lf,0.0986,0.0986,-0.1000,0,0.3312,0.3312,-0.1024,-0.0004,-0.0003,-0.0090,CLIMB,5,1,0,15.0,0.000,2.600,0,-1,0,0.0,-15.0,-1.0,0.0,0.0,0.0,2037,2826,1212,1912,1298,2788,2050,2901,1310,1039,1278,2804,2037,2811,1211,1909,1316,2791,2052,2884,1308,1040,1285,2803
1782217747.1848,6.7081,1,lf,0.0986,0.0986,-0.1000,0,0.3312,0.3312,-0.1024,-0.0004,-0.0003,-0.0090,CLIMB,5,1,0,15.0,0.000,2.620,0,-1,0,0.0,-15.0,-1.0,0.0,0.0,0.0,2037,2826,1212,1912,1298,2788,2050,2901,1310,1039,1278,2804,2037,2811,1211,1909,1316,2791,2052,2884,1308,1040,1285,2803
1782217747.2048,6.7280,1,lf,0.0986,0.0986,-0.1000,0,0.3312,0.3312,-0.1024,-0.0004,-0.0003,-0.0090,CLIMB,5,1,0,15.0,0.000,2.640,0,-1,0,0.0,-15.0,-1.0,0.0,0.0,0.0,2037,2826,1212,1912,1298,2788,2050,2901,1310,1039,1278,2804,2037,2811,1211,1909,1316,2791,2052,2884,1308,1040,1285,2803
1782217747.2249,6.7481,1,lf,0.0986,0.0986,-0.1000,0,0.3312,0.3312,-0.1024,-0.0004,-0.0003,-0.0090,CLIMB,5,1,0,15.0,0.000,2.660,0,-1,0,0.0,-15.0,-1.0,0.0,0.0,0.0,2037,2826,1212,1912,1298,2788,2050,2901,1310,1039,1278,2804,2037,2811,1211,1909,1316,2791,2052,2884,1308,1040,1285,2802
1782217747.2448,6.7680,1,lf,0.0986,0.0986,-0.1000,0,0.3312,0.3312,-0.1024,-0.0004,-0.0003,-0.0090,CLIMB,5,1,0,15.0,0.000,2.680,0,-1,0,0.0,-15.0,-1.0,0.0,0.0,0.0,2037,2826,1212,1912,1298,2788,2050,2901,1310,1039,1278,2804,2037,2811,1211,1909,1316,2791,2052,2884,1308,1040,1285,2802
1782217747.2648,6.7880,1,lf,0.0986,0.0986,-0.1000,0,0.3312,0.3312,-0.1024,-0.0004,-0.0003,-0.0090,CLIMB,5,1,0,15.0,0.000,2.700,0,-1,0,0.0,-15.0,-1.0,0.0,0.0,0.0,2037,2826,1212,1912,1298,2788,2050,2901,1310,1039,1278,2804,2037,2811,1211,1909,1316,2791,2052,2884,1308,1040,1285,2802
1782217747.2848,6.8081,1,lf,0.0986,0.0986,-0.1000,0,0.3312,0.3312,-0.1024,-0.0004,-0.0003,-0.0090,CLIMB,5,1,0,15.0,0.000,2.720,0,-1,0,0.0,-15.0,-1.0,0.0,0.0,0.0,2037,2826,1212,1912,1298,2788,2050,2901,1310,1039,1278,2804,2037,2811,1211,1909,1316,2792,2052,2884,1308,1040,1285,2803
1782217747.3048,6.8280,1,lf,0.0986,0.0986,-0.1000,0,0.3312,0.3312,-0.1024,-0.0004,-0.0003,-0.0090,CLIMB,5,1,0,15.0,0.000,2.740,0,-1,0,0.0,-15.0,-1.0,0.0,0.0,0.0,2037,2826,1212,1912,1298,2788,2050,2901,1310,1039,1278,2804,2037,2811,1211,1909,1316,2792,2052,2884,1308,1040,1285,2803
1782217747.3248,6.8480,1,lf,0.0986,0.0986,-0.1000,0,0.3312,0.3312,-0.1024,-0.0004,-0.0003,-0.0090,CLIMB,5,1,0,15.0,0.000,2.760,0,-1,0,0.0,-15.0,-1.0,0.0,0.0,0.0,2037,2826,1212,1912,1298,2788,2050,2901,1310,1039,1278,2804,2037,2811,1211,1909,1316,2791,2052,2884,1308,1039,1285,2803
1782217747.3450,6.8682,1,lf,0.0986,0.0986,-0.1000,0,0.3312,0.3312,-0.1024,-0.0004,-0.0003,-0.0090,CLIMB,5,1,0,16.0,0.000,2.780,0,-1,0,0.0,-16.0,-1.0,0.0,0.0,0.0,2037,2826,1212,1912,1298,2788,2050,2901,1310,1039,1278,2804,2037,2811,1211,1909,1316,2791,2052,2884,1308,1039,1285,2803
1782217747.3650,6.8882,1,lf,0.0986,0.0986,-0.1000,0,0.3312,0.3312,-0.1024,-0.0004,-0.0003,-0.0090,CLIMB,5,1,0,15.0,0.000,2.800,0,-1,0,0.0,-15.0,-1.0,0.0,0.0,0.0,2037,2826,1212,1912,1298,2788,2050,2901,1310,1039,1278,2804,2037,2811,1211,1909,1316,2791,2052,2884,1308,1039,1285,2803
1782217747.3850,6.9082,1,lf,0.0986,0.0986,-0.1000,0,0.3312,0.3312,-0.1024,-0.0004,-0.0003,-0.0090,CLIMB,5,1,0,15.0,0.000,2.820,0,-1,0,0.0,-15.0,-1.0,0.0,0.0,0.0,2037,2826,1212,1912,1298,2788,2050,2901,1310,1039,1278,2804,2037,2811,1211,1909,1316,2791,2052,2884,1308,1039,1285,2803
1782217747.4053,6.9285,1,lf,0.0986,0.0986,-0.1000,0,0.3312,0.3312,-0.1024,-0.0004,-0.0003,-0.0090,CLIMB,5,1,0,15.0,0.000,2.840,0,-1,0,0.0,-15.0,-1.0,0.0,0.0,0.0,2037,2826,1212,1912,1298,2788,2050,2901,1310,1039,1278,2804,2037,2811,1211,1909,1316,2791,2052,2884,1308,1039,1285,2803
1782217747.4250,6.9482,1,lf,0.0986,0.0986,-0.1000,0,0.3312,0.3312,-0.1024,-0.0004,-0.0003,-0.0090,CLIMB,5,1,0,15.0,0.000,2.860,0,-1,0,0.0,-15.0,-1.0,0.0,0.0,0.0,2037,2826,1212,1912,1298,2788,2050,2901,1310,1039,1278,2804,2037,2811,1211,1909,1315,2792,2052,2884,1308,1040,1285,2803
1782217747.4450,6.9682,1,lf,0.0986,0.0986,-0.1000,0,0.3312,0.3312,-0.1024,-0.0004,-0.0003,-0.0090,CLIMB,5,1,0,15.0,0.000,2.880,0,-1,0,0.0,-15.0,-1.0,0.0,0.0,0.0,2037,2826,1212,1912,1298,2788,2050,2901,1310,1039,1278,2804,2037,2811,1211,1909,1315,2792,2052,2884,1308,1040,1285,2803
1782217747.4649,6.9881,1,lf,0.0986,0.0986,-0.1000,0,0.3312,0.3312,-0.1024,-0.0005,-0.0003,-0.0090,CLIMB,5,1,0,15.0,0.000,2.900,0,-1,0,0.0,-15.0,-1.0,0.0,0.0,0.0,2037,2826,1212,1912,1298,2788,2050,2901,1310,1039,1278,2804,2037,2811,1211,1909,1316,2792,2052,2884,1308,1039,1285,2803
1782217747.4850,7.0082,1,lf,0.0986,0.0986,-0.1000,0,0.3312,0.3312,-0.1024,-0.0005,-0.0003,-0.0090,CLIMB,5,1,0,15.0,0.000,2.920,0,-1,0,0.0,-15.0,-1.0,0.0,0.0,0.0,2037,2826,1212,1912,1298,2788,2050,2901,1310,1039,1278,2804,2037,2811,1211,1909,1316,2792,2052,2884,1308,1039,1285,2803
1782217747.5050,7.0282,1,lf,0.0986,0.0986,-0.1000,0,0.3312,0.3312,-0.1024,-0.0005,-0.0003,-0.0090,CLIMB,5,1,0,15.0,0.000,2.940,0,-1,0,0.0,-15.0,-1.0,0.0,0.0,0.0,2037,2826,1212,1912,1298,2788,2050,2901,1310,1039,1278,2804,2037,2811,1211,1909,1316,2792,2052,2884,1308,1039,1285,2803
1782217747.5250,7.0482,1,lf,0.0986,0.0986,-0.1000,0,0.3312,0.3312,-0.1024,-0.0005,-0.0003,-0.0090,CLIMB,5,1,0,16.0,0.000,2.960,0,-1,0,0.0,-16.0,-1.0,0.0,0.0,0.0,2037,2826,1212,1912,1298,2788,2050,2901,1310,1039,1278,2804,2037,2811,1211,1909,1316,2791,2052,2884,1308,1039,1285,2803
1782217747.5450,7.0682,1,lf,0.0986,0.0986,-0.1000,0,0.3312,0.3312,-0.1024,-0.0005,-0.0003,-0.0090,CLIMB,5,1,0,16.0,0.000,2.980,0,-1,0,0.0,-16.0,-1.0,0.0,0.0,0.0,2037,2826,1212,1912,1298,2788,2050,2901,1310,1039,1278,2804,2037,2811,1211,1909,1316,2791,2052,2884,1308,1039,1285,2803
1782217747.5650,7.0882,1,lf,0.0986,0.0986,-0.1000,0,0.3312,0.3312,-0.1024,-0.0005,-0.0003,-0.0090,CLIMB,5,1,0,15.0,0.000,3.000,0,-1,0,0.0,-15.0,-1.0,0.0,0.0,0.0,2037,2826,1212,1912,1298,2788,2050,2901,1310,1039,1278,2804,2037,2811,1211,1909,1316,2791,2052,2884,1308,1040,1285,2803
1782217747.5849,7.1081,1,lf,0.0986,0.0986,-0.1000,0,0.3312,0.3312,-0.1024,-0.0005,-0.0003,-0.0090,CLIMB,5,1,0,15.0,0.000,3.000,0,-1,0,0.0,-15.0,-1.0,0.0,0.0,0.0,2037,2826,1212,1912,1298,2788,2050,2901,1310,1039,1278,2804,2037,2811,1211,1909,1316,2791,2052,2884,1308,1040,1285,2803
1782217747.6049,7.1281,1,lf,0.0986,0.0986,-0.1000,0,0.3312,0.3312,-0.1024,-0.0005,-0.0003,-0.0090,CLIMB,5,1,0,15.0,0.000,3.040,1,-1,0,0.0,-15.0,-1.0,0.0,0.0,0.0,2037,2826,1212,1912,1298,2788,2050,2901,1310,1039,1278,2804,2037,2811,1211,1909,1316,2791,2052,2884,1308,1040,1285,2803
1782217747.6248,7.1480,1,lf,0.0986,0.0986,-0.1000,0,0.3312,0.3312,-0.1024,-0.0005,-0.0003,-0.0090,CLIMB,5,1,0,16.0,0.000,3.060,1,-1,0,0.0,-16.0,-1.0,0.0,0.0,0.0,2037,2826,1212,1912,1298,2788,2050,2901,1310,1039,1278,2804,2037,2811,1211,1909,1316,2791,2052,2884,1308,1039,1285,2803
1782217747.6449,7.1681,1,lf,0.0986,0.0986,-0.1000,0,0.3312,0.3312,-0.1024,-0.0005,-0.0003,-0.0090,CLIMB,5,1,0,16.0,0.000,3.080,1,-1,0,0.0,-16.0,-1.0,0.0,0.0,0.0,2037,2826,1212,1912,1298,2788,2050,2901,1310,1039,1278,2804,2037,2811,1211,1909,1316,2791,2052,2884,1308,1039,1285,2803
1782217747.6649,7.1881,1,lf,0.0986,0.0986,-0.1000,0,0.3312,0.3312,-0.1024,-0.0005,-0.0003,-0.0090,CLIMB,5,1,0,15.0,0.000,3.100,1,-1,0,0.0,-15.0,-1.0,0.0,0.0,0.0,2037,2826,1212,1912,1298,2788,2050,2901,1310,1039,1278,2804,2037,2811,1211,1909,1316,2792,2052,2884,1308,1039,1285,2803
1782217747.6848,7.2081,1,lf,0.0986,0.0986,-0.1000,0,0.3312,0.3312,-0.1024,-0.0005,-0.0003,-0.0090,CLIMB,5,1,0,15.0,0.000,3.120,1,-1,0,0.0,-15.0,-1.0,0.0,0.0,0.0,2037,2826,1212,1912,1298,2788,2050,2901,1310,1039,1278,2804,2037,2811,1211,1909,1316,2792,2052,2884,1308,1039,1285,2803
1782217747.7049,7.2281,1,lf,0.0986,0.0986,-0.1000,0,0.3312,0.3312,-0.1024,-0.0005,-0.0003,-0.0090,CLIMB,5,1,0,15.0,0.000,3.140,1,-1,0,0.0,-15.0,-1.0,0.0,0.0,0.0,2037,2826,1212,1912,1298,2788,2050,2901,1310,1039,1278,2804,2037,2811,1211,1909,1316,2792,2052,2884,1308,1039,1285,2803
1782217747.7248,7.2480,1,lf,0.0986,0.0986,-0.1000,0,0.3312,0.3312,-0.1024,-0.0004,-0.0003,-0.0090,CLIMB,5,1,0,15.0,0.000,3.160,1,-1,0,0.0,-15.0,-1.0,0.0,0.0,0.0,2037,2826,1212,1912,1298,2788,2050,2901,1310,1039,1278,2804,2037,2811,1211,1909,1316,2792,2052,2884,1308,1039,1285,2803
1782217747.7449,7.2681,1,lf,0.0986,0.0986,-0.1000,0,0.3312,0.3312,-0.1024,-0.0004,-0.0003,-0.0090,CLIMB,5,1,0,15.0,0.000,3.180,1,-1,0,0.0,-15.0,-1.0,0.0,0.0,0.0,2037,2826,1212,1912,1298,2788,2050,2901,1310,1039,1278,2804,2037,2811,1211,1909,1316,2792,2052,2884,1308,1039,1285,2803
1782217747.7649,7.2881,1,lf,0.0986,0.0986,-0.1000,0,0.3312,0.3312,-0.1024,-0.0004,-0.0003,-0.0090,CLIMB,5,1,0,15.0,0.000,3.200,1,-1,0,0.0,-15.0,-1.0,0.0,0.0,0.0,2037,2826,1212,1912,1298,2788,2050,2901,1310,1039,1278,2804,2037,2811,1211,1909,1316,2792,2052,2884,1308,1039,1285,2803
1782217747.7848,7.3080,1,lf,0.0986,0.0986,-0.1000,0,0.3312,0.3312,-0.1024,-0.0004,-0.0003,-0.0090,CLIMB,5,1,0,15.0,0.000,3.220,1,-1,0,0.0,-15.0,-1.0,0.0,0.0,0.0,2037,2826,1212,1912,1298,2788,2050,2901,1310,1039,1278,2804,2037,2811,1211,1909,1316,2792,2052,2884,1308,1039,1285,2803
1782217747.8049,7.3281,1,lf,0.0986,0.0986,-0.1000,0,0.3312,0.3312,-0.1024,-0.0004,-0.0003,-0.0090,CLIMB,5,1,0,15.0,0.000,3.240,1,-1,0,0.0,-15.0,-1.0,0.0,0.0,0.0,2037,2826,1212,1912,1298,2788,2050,2901,1310,1039,1278,2804,2037,2811,1211,1909,1316,2792,2052,2884,1308,1039,1285,2803
1782217747.8249,7.3481,1,lf,0.0986,0.0986,-0.1000,0,0.3312,0.3312,-0.1024,-0.0004,-0.0003,-0.0090,CLIMB,5,1,0,15.0,0.000,3.260,1,-1,0,0.0,-15.0,-1.0,0.0,0.0,0.0,2037,2826,1212,1912,1298,2788,2050,2901,1310,1039,1278,2804,2037,2811,1211,1909,1316,2791,2052,2884,1308,1040,1285,2803
1782217747.8451,7.3683,1,lf,0.0986,0.0986,-0.1000,0,0.3312,0.3312,-0.1024,-0.0004,-0.0003,-0.0090,CLIMB,5,1,0,15.0,0.000,3.280,1,-1,0,0.0,-15.0,-1.0,0.0,0.0,0.0,2037,2826,1212,1912,1298,2788,2050,2901,1310,1039,1278,2804,2037,2811,1211,1909,1316,2791,2052,2884,1308,1040,1285,2803
1782217747.8649,7.3881,1,lf,0.0986,0.0986,-0.1000,0,0.3312,0.3312,-0.1024,-0.0004,-0.0003,-0.0090,CLIMB,5,1,0,15.0,0.000,3.300,1,-1,0,0.0,-15.0,-1.0,0.0,0.0,0.0,2037,2826,1212,1912,1298,2788,2050,2901,1310,1039,1278,2804,2037,2811,1211,1909,1316,2792,2052,2884,1308,1040,1285,2802
1782217747.8849,7.4081,1,lf,0.0986,0.0986,-0.1000,0,0.3312,0.3312,-0.1024,-0.0004,-0.0003,-0.0090,CLIMB,5,1,0,15.0,0.000,3.320,1,-1,0,0.0,-15.0,-1.0,0.0,0.0,0.0,2037,2826,1212,1912,1298,2788,2050,2901,1310,1039,1278,2804,2037,2811,1211,1909,1316,2792,2052,2884,1308,1040,1285,2802
1782217747.9049,7.4281,1,lf,0.0986,0.0986,-0.1000,0,0.3312,0.3312,-0.1024,-0.0004,-0.0003,-0.0090,CLIMB,5,1,0,15.0,0.000,3.340,1,-1,0,0.0,-15.0,-1.0,0.0,0.0,0.0,2037,2826,1212,1912,1298,2788,2050,2901,1310,1039,1278,2804,2037,2811,1211,1909,1316,2792,2052,2884,1308,1040,1285,2802
1782217747.9253,7.4485,1,lf,0.0986,0.0986,-0.1000,0,0.3312,0.3312,-0.1024,-0.0004,-0.0003,-0.0090,CLIMB,5,1,0,15.0,0.000,3.360,1,-1,0,0.0,-15.0,-1.0,0.0,0.0,0.0,2037,2826,1212,1912,1298,2788,2050,2901,1310,1039,1278,2804,2037,2811,1211,1909,1316,2792,2052,2884,1308,1040,1285,2803
1782217747.9449,7.4682,1,lf,0.0986,0.0986,-0.1000,0,0.3312,0.3312,-0.1024,-0.0004,-0.0003,-0.0090,CLIMB,5,1,0,15.0,0.000,3.380,1,-1,0,0.0,-15.0,-1.0,0.0,0.0,0.0,2037,2826,1212,1912,1298,2788,2050,2901,1310,1039,1278,2804,2037,2811,1211,1909,1316,2792,2052,2884,1308,1040,1285,2803
1782217747.9649,7.4881,1,lf,0.0986,0.0986,-0.1000,0,0.3312,0.3312,-0.1024,-0.0004,-0.0003,-0.0090,CLIMB,5,1,0,15.0,0.000,3.400,1,-1,0,0.0,-15.0,-1.0,0.0,0.0,0.0,2037,2826,1212,1912,1298,2788,2050,2901,1310,1039,1278,2804,2037,2811,1211,1909,1316,2791,2052,2884,1308,1040,1285,2803
1782217747.9854,7.5086,1,lf,0.0986,0.0986,-0.1000,0,0.3312,0.3312,-0.1024,-0.0004,-0.0003,-0.0090,CLIMB,5,1,0,15.0,0.000,3.420,1,-1,0,0.0,-15.0,-1.0,0.0,0.0,0.0,2037,2826,1212,1912,1298,2788,2050,2901,1310,1039,1278,2804,2037,2811,1211,1909,1316,2791,2052,2884,1308,1040,1285,2803
1782217748.0049,7.5281,1,lf,0.0986,0.0986,-0.1000,0,0.3312,0.3312,-0.1024,-0.0004,-0.0003,-0.0090,CLIMB,5,1,0,15.0,0.000,3.440,1,-1,0,0.0,-15.0,-1.0,0.0,0.0,0.0,2037,2826,1212,1912,1298,2788,2050,2901,1310,1039,1278,2804,2037,2811,1211,1909,1316,2791,2052,2884,1308,1040,1285,2803
1782217748.0248,7.5480,1,lf,0.0986,0.0986,-0.1000,0,0.3312,0.3312,-0.1024,-0.0004,-0.0003,-0.0090,CLIMB,5,1,0,15.0,0.000,3.460,1,-1,0,0.0,-15.0,-1.0,0.0,0.0,0.0,2037,2826,1212,1912,1298,2788,2050,2901,1310,1039,1278,2804,2037,2811,1211,1909,1316,2791,2052,2884,1308,1039,1285,2803
1782217748.0449,7.5681,1,lf,0.0986,0.0986,-0.1000,0,0.3312,0.3312,-0.1024,-0.0004,-0.0003,-0.0090,CLIMB,5,1,0,15.0,0.000,3.480,1,-1,0,0.0,-15.0,-1.0,0.0,0.0,0.0,2037,2826,1212,1912,1298,2788,2050,2901,1310,1039,1278,2804,2037,2811,1211,1909,1316,2791,2052,2884,1308,1039,1285,2803
1782217748.0650,7.5882,1,lf,0.0986,0.0986,-0.1000,0,0.3312,0.3312,-0.1024,-0.0004,-0.0003,-0.0090,CLIMB,5,1,0,15.0,0.000,3.500,1,-1,0,0.0,-15.0,-1.0,0.0,0.0,0.0,2037,2826,1212,1912,1298,2788,2050,2901,1310,1039,1278,2804,2037,2811,1211,1909,1316,2791,2052,2884,1308,1040,1285,2802
1782217748.0849,7.6081,1,lf,0.0986,0.0986,-0.1000,0,0.3312,0.3312,-0.1024,-0.0004,-0.0003,-0.0090,CLIMB,5,1,0,15.0,0.000,3.520,1,-1,0,0.0,-15.0,-1.0,0.0,0.0,0.0,2037,2826,1212,1912,1298,2788,2050,2901,1310,1039,1278,2804,2037,2811,1211,1909,1316,2791,2052,2884,1308,1040,1285,2802
1782217748.1049,7.6281,1,lf,0.0986,0.0986,-0.1000,0,0.3312,0.3312,-0.1024,-0.0004,-0.0003,-0.0090,CLIMB,5,1,0,15.0,0.000,3.540,1,-1,0,0.0,-15.0,-1.0,0.0,0.0,0.0,2037,2826,1212,1912,1298,2788,2050,2901,1310,1039,1278,2804,2037,2811,1211,1909,1316,2791,2052,2884,1308,1040,1285,2802
1782217748.1249,7.6482,1,lf,0.0986,0.0986,-0.1000,0,0.3312,0.3312,-0.1024,-0.0004,-0.0003,-0.0090,CLIMB,5,1,0,15.0,0.000,3.560,1,-1,0,0.0,-15.0,-1.0,0.0,0.0,0.0,2037,2826,1212,1912,1298,2788,2050,2901,1310,1039,1278,2804,2037,2811,1211,1909,1316,2792,2052,2884,1308,1040,1285,2803
1782217748.1449,7.6681,1,lf,0.0986,0.0986,-0.1000,0,0.3312,0.3312,-0.1024,-0.0004,-0.0003,-0.0090,CLIMB,5,1,0,15.0,0.000,3.580,1,-1,0,0.0,-15.0,-1.0,0.0,0.0,0.0,2037,2826,1212,1912,1298,2788,2050,2901,1310,1039,1278,2804,2037,2811,1211,1909,1316,2792,2052,2884,1308,1040,1285,2803
1782217748.1650,7.6882,1,lf,0.0986,0.0986,-0.1000,0,0.3312,0.3312,-0.1024,-0.0004,-0.0003,-0.0090,CLIMB,5,1,0,15.0,0.000,3.600,1,-1,0,0.0,-15.0,-1.0,0.0,0.0,0.0,2037,2826,1212,1912,1298,2788,2050,2901,1310,1039,1278,2804,2037,2811,1211,1909,1316,2792,2052,2884,1308,1040,1285,2803
1782217748.1849,7.7081,1,lf,0.0986,0.0986,-0.1000,0,0.3312,0.3312,-0.1024,-0.0004,-0.0003,-0.0089,CLIMB,5,1,0,15.0,0.000,3.620,1,-1,0,0.0,-15.0,-1.0,0.0,0.0,0.0,2037,2826,1212,1912,1298,2788,2050,2901,1310,1039,1278,2804,2037,2811,1211,1909,1316,2792,2052,2884,1308,1040,1285,2803
1782217748.2049,7.7281,1,lf,0.0986,0.0986,-0.1000,0,0.3312,0.3312,-0.1024,-0.0004,-0.0003,-0.0089,CLIMB,5,1,0,15.0,0.000,3.640,1,-1,0,0.0,-15.0,-1.0,0.0,0.0,0.0,2037,2826,1212,1912,1298,2788,2050,2901,1310,1039,1278,2804,2037,2811,1211,1909,1316,2792,2052,2884,1308,1040,1285,2803
1782217748.2249,7.7481,1,lf,0.0986,0.0986,-0.1000,0,0.3312,0.3312,-0.1024,-0.0004,-0.0003,-0.0090,CLIMB,5,1,0,15.0,0.000,3.660,1,-1,0,0.0,-15.0,-1.0,0.0,0.0,0.0,2037,2826,1212,1912,1298,2788,2050,2901,1310,1039,1278,2804,2037,2811,1211,1909,1316,2791,2052,2884,1308,1040,1285,2803
1782217748.2449,7.7681,1,lf,0.0986,0.0986,-0.1000,0,0.3312,0.3312,-0.1024,-0.0004,-0.0003,-0.0090,CLIMB,5,1,0,15.0,0.000,3.680,1,-1,0,0.0,-15.0,-1.0,0.0,0.0,0.0,2037,2826,1212,1912,1298,2788,2050,2901,1310,1039,1278,2804,2037,2811,1211,1909,1316,2791,2052,2884,1308,1040,1285,2803
1782217748.2649,7.7882,1,lf,0.0986,0.0986,-0.1000,0,0.3312,0.3312,-0.1024,-0.0004,-0.0003,-0.0090,CLIMB,5,1,0,15.0,0.000,3.700,1,-1,0,0.0,-15.0,-1.0,0.0,0.0,0.0,2037,2826,1212,1912,1298,2788,2050,2901,1310,1039,1278,2804,2037,2811,1211,1909,1316,2791,2052,2884,1309,1040,1285,2803
1782217748.2848,7.8081,1,lf,0.0986,0.0986,-0.1000,0,0.3312,0.3312,-0.1024,-0.0004,-0.0003,-0.0090,CLIMB,5,1,0,15.0,0.000,3.720,1,-1,0,0.0,-15.0,-1.0,0.0,0.0,0.0,2037,2826,1212,1912,1298,2788,2050,2901,1310,1039,1278,2804,2037,2811,1211,1909,1316,2791,2052,2884,1309,1040,1285,2803
1782217748.3049,7.8281,1,lf,0.0986,0.0986,-0.1000,0,0.3312,0.3312,-0.1024,-0.0004,-0.0003,-0.0090,CLIMB,5,1,0,15.0,0.000,3.740,1,-1,0,0.0,-15.0,-1.0,0.0,0.0,0.0,2037,2826,1212,1912,1298,2788,2050,2901,1310,1039,1278,2804,2037,2811,1211,1909,1316,2791,2052,2884,1309,1040,1285,2803
1782217748.3249,7.8481,1,lf,0.0986,0.0986,-0.1000,0,0.3312,0.3312,-0.1024,-0.0004,-0.0003,-0.0090,CLIMB,5,1,0,16.0,0.000,3.760,1,-1,0,0.0,-16.0,-1.0,0.0,0.0,0.0,2037,2826,1212,1912,1298,2788,2050,2901,1310,1039,1278,2804,2037,2811,1211,1909,1316,2791,2052,2884,1308,1040,1285,2803
1782217748.3449,7.8681,1,lf,0.0986,0.0986,-0.1000,0,0.3312,0.3312,-0.1024,-0.0004,-0.0003,-0.0089,CLIMB,5,1,0,16.0,0.000,3.780,1,-1,0,0.0,-16.0,-1.0,0.0,0.0,0.0,2037,2826,1212,1912,1298,2788,2050,2901,1310,1039,1278,2804,2037,2811,1211,1909,1316,2791,2052,2884,1308,1040,1285,2803
1782217748.3649,7.8881,1,lf,0.0986,0.0986,-0.1000,0,0.3312,0.3312,-0.1024,-0.0004,-0.0003,-0.0089,CLIMB,5,1,0,15.0,0.000,3.800,1,-1,0,0.0,-15.0,-1.0,0.0,0.0,0.0,2037,2826,1212,1912,1298,2788,2050,2901,1310,1039,1278,2804,2037,2811,1211,1909,1316,2791,2052,2884,1308,1039,1285,2803
1782217748.3849,7.9081,1,lf,0.0986,0.0986,-0.1000,0,0.3312,0.3312,-0.1024,-0.0004,-0.0003,-0.0089,CLIMB,5,1,0,15.0,0.000,3.820,1,-1,0,0.0,-15.0,-1.0,0.0,0.0,0.0,2037,2826,1212,1912,1298,2788,2050,2901,1310,1039,1278,2804,2037,2811,1211,1909,1316,2791,2052,2884,1308,1039,1285,2803
1782217748.4050,7.9282,1,lf,0.0986,0.0986,-0.1000,0,0.3312,0.3312,-0.1024,-0.0004,-0.0003,-0.0089,CLIMB,5,1,0,15.0,0.000,3.840,1,-1,0,0.0,-15.0,-1.0,0.0,0.0,0.0,2037,2826,1212,1912,1298,2788,2050,2901,1310,1039,1278,2804,2037,2811,1211,1909,1316,2791,2052,2884,1308,1039,1285,2803
1782217748.4249,7.9481,1,lf,0.0986,0.0986,-0.1000,0,0.3312,0.3312,-0.1024,-0.0004,-0.0003,-0.0089,CLIMB,5,1,0,15.0,0.000,3.860,1,-1,0,0.0,-15.0,-1.0,0.0,0.0,0.0,2037,2826,1212,1912,1298,2788,2050,2901,1310,1039,1278,2804,2037,2811,1211,1909,1316,2791,2052,2884,1308,1040,1285,2803
1782217748.4449,7.9681,1,lf,0.0986,0.0986,-0.1000,0,0.3312,0.3312,-0.1024,-0.0004,-0.0004,-0.0089,CLIMB,5,1,0,15.0,0.000,3.880,1,-1,0,0.0,-15.0,-1.0,0.0,0.0,0.0,2037,2826,1212,1912,1298,2788,2050,2901,1310,1039,1278,2804,2037,2811,1211,1909,1316,2791,2052,2884,1308,1040,1285,2803
1782217748.4649,7.9881,1,lf,0.0986,0.0986,-0.1000,0,0.3312,0.3312,-0.1024,-0.0004,-0.0004,-0.0089,CLIMB,5,1,0,15.0,0.000,3.900,1,-1,0,0.0,-15.0,-1.0,0.0,0.0,0.0,2037,2826,1212,1912,1298,2788,2050,2901,1310,1039,1278,2804,2037,2811,1211,1909,1316,2791,2052,2884,1308,1040,1285,2802
1782217748.4849,8.0081,1,lf,0.0986,0.0986,-0.1000,0,0.3312,0.3312,-0.1024,-0.0004,-0.0003,-0.0089,CLIMB,5,1,0,15.0,0.000,3.920,1,-1,0,0.0,-15.0,-1.0,0.0,0.0,0.0,2037,2826,1212,1912,1298,2788,2050,2901,1310,1039,1278,2804,2037,2811,1211,1909,1316,2791,2052,2884,1308,1040,1285,2802
1782217748.5049,8.0281,1,lf,0.0986,0.0986,-0.1000,0,0.3312,0.3312,-0.1024,-0.0004,-0.0003,-0.0089,CLIMB,5,1,0,15.0,0.000,3.940,1,-1,0,0.0,-15.0,-1.0,0.0,0.0,0.0,2037,2826,1212,1912,1298,2788,2050,2901,1310,1039,1278,2804,2037,2811,1211,1909,1316,2791,2052,2884,1308,1040,1285,2802
1782217748.5248,8.0480,1,lf,0.0986,0.0986,-0.1000,0,0.3312,0.3312,-0.1024,-0.0004,-0.0003,-0.0089,CLIMB,5,1,0,15.0,0.000,3.960,1,-1,0,0.0,-15.0,-1.0,0.0,0.0,0.0,2037,2826,1212,1912,1298,2788,2050,2901,1310,1039,1278,2804,2037,2811,1211,1909,1316,2791,2052,2884,1308,1040,1285,2803
1782217748.5449,8.0682,1,lf,0.0986,0.0986,-0.1000,0,0.3312,0.3312,-0.1024,-0.0004,-0.0003,-0.0090,CLIMB,5,1,0,15.0,0.000,3.980,1,-1,0,0.0,-15.0,-1.0,0.0,0.0,0.0,2037,2826,1212,1912,1298,2788,2050,2901,1310,1039,1278,2804,2037,2811,1211,1909,1316,2791,2052,2884,1308,1040,1285,2803
1782217748.5649,8.0882,1,lf,0.0986,0.0986,-0.1000,0,0.3312,0.3312,-0.1024,-0.0004,-0.0003,-0.0090,CLIMB,5,1,0,15.0,0.000,4.000,1,-1,0,0.0,-15.0,-1.0,0.0,0.0,0.0,2037,2826,1212,1912,1298,2788,2050,2901,1310,1039,1278,2804,2037,2811,1211,1909,1316,2792,2052,2884,1308,1040,1285,2802
1782217748.5849,8.1081,1,lf,0.0986,0.0986,-0.1000,0,0.3312,0.3312,-0.1024,-0.0004,-0.0003,-0.0090,CLIMB,5,1,0,15.0,0.000,4.020,1,-1,0,0.0,-15.0,-1.0,0.0,0.0,0.0,2037,2826,1212,1912,1298,2788,2050,2901,1310,1039,1278,2804,2037,2811,1211,1909,1316,2792,2052,2884,1308,1040,1285,2802
1782217748.6048,8.1281,1,lf,0.0986,0.0986,-0.1000,0,0.3312,0.3312,-0.1024,-0.0004,-0.0003,-0.0090,CLIMB,5,1,0,15.0,0.000,4.040,1,-1,0,0.0,-15.0,-1.0,0.0,0.0,0.0,2037,2826,1212,1912,1298,2788,2050,2901,1310,1039,1278,2804,2037,2811,1211,1909,1316,2792,2052,2884,1308,1040,1285,2802
1782217748.6249,8.1481,1,lf,0.0986,0.0986,-0.1000,0,0.3312,0.3312,-0.1024,-0.0005,-0.0003,-0.0090,CLIMB,5,1,0,15.0,0.000,4.060,1,-1,0,0.0,-15.0,-1.0,0.0,0.0,0.0,2037,2826,1212,1912,1298,2788,2050,2901,1310,1039,1278,2804,2037,2811,1211,1909,1316,2792,2052,2884,1308,1039,1285,2803
1782217748.6449,8.1681,1,lf,0.0986,0.0986,-0.1000,0,0.3312,0.3312,-0.1024,-0.0005,-0.0003,-0.0090,CLIMB,5,1,0,15.0,0.000,4.080,1,-1,0,0.0,-15.0,-1.0,0.0,0.0,0.0,2037,2826,1212,1912,1298,2788,2050,2901,1310,1039,1278,2804,2037,2811,1211,1909,1316,2792,2052,2884,1308,1039,1285,2803
1782217748.6649,8.1881,1,lf,0.0986,0.0986,-0.1000,0,0.3312,0.3312,-0.1024,-0.0005,-0.0003,-0.0090,CLIMB,5,1,0,15.0,0.000,4.100,1,-1,0,0.0,-15.0,-1.0,0.0,0.0,0.0,2037,2826,1212,1912,1298,2788,2050,2901,1310,1039,1278,2804,2037,2811,1211,1909,1316,2791,2052,2884,1308,1039,1285,2803
1782217748.6848,8.2080,1,lf,0.0986,0.0986,-0.1000,0,0.3312,0.3312,-0.1024,-0.0005,-0.0003,-0.0090,CLIMB,5,1,0,15.0,0.000,4.120,1,-1,0,0.0,-15.0,-1.0,0.0,0.0,0.0,2037,2826,1212,1912,1298,2788,2050,2901,1310,1039,1278,2804,2037,2811,1211,1909,1316,2791,2052,2884,1308,1039,1285,2803
1782217748.7050,8.2282,1,lf,0.0986,0.0986,-0.1000,0,0.3312,0.3312,-0.1024,-0.0005,-0.0003,-0.0090,CLIMB,5,1,0,15.0,0.000,4.140,1,-1,0,0.0,-15.0,-1.0,0.0,0.0,0.0,2037,2826,1212,1912,1298,2788,2050,2901,1310,1039,1278,2804,2037,2811,1211,1909,1316,2791,2052,2884,1308,1039,1285,2803
1782217748.7249,8.2481,1,lf,0.0986,0.0986,-0.1000,0,0.3312,0.3312,-0.1024,-0.0005,-0.0003,-0.0090,CLIMB,5,1,0,15.0,0.000,4.160,1,-1,0,0.0,-15.0,-1.0,0.0,0.0,0.0,2037,2826,1212,1912,1298,2788,2050,2901,1310,1039,1278,2804,2037,2811,1211,1909,1316,2791,2052,2884,1308,1040,1285,2802
1782217748.7450,8.2682,1,lf,0.0986,0.0986,-0.1000,0,0.3312,0.3312,-0.1024,-0.0005,-0.0003,-0.0090,CLIMB,5,1,0,15.0,0.000,4.180,1,-1,0,0.0,-15.0,0.0,0.0,0.0,0.0,2037,2826,1212,1912,1298,2788,2050,2901,1310,1039,1278,2804,2037,2811,1211,1909,1316,2791,2052,2884,1308,1040,1285,2802
1782217748.7649,8.2881,1,lf,0.0986,0.0986,-0.1000,0,0.3312,0.3312,-0.1024,-0.0005,-0.0003,-0.0090,CLIMB,5,1,0,15.0,0.000,4.200,1,-1,0,0.0,-15.0,0.0,0.0,0.0,0.0,2037,2826,1212,1912,1298,2788,2050,2901,1310,1039,1278,2804,2037,2811,1212,1909,1316,2791,2052,2884,1308,1040,1285,2803
1782217748.7850,8.3082,1,lf,0.0986,0.0986,-0.1000,0,0.3312,0.3312,-0.1024,-0.0005,-0.0003,-0.0089,CLIMB,5,1,0,15.0,0.000,4.220,1,-1,0,0.0,-15.0,-1.0,0.0,0.0,0.0,2037,2826,1212,1912,1298,2788,2050,2901,1310,1039,1278,2804,2037,2811,1212,1909,1316,2791,2052,2884,1308,1040,1285,2803
1782217748.8049,8.3281,1,lf,0.0986,0.0986,-0.1000,0,0.3312,0.3312,-0.1024,-0.0005,-0.0003,-0.0089,CLIMB,5,1,0,15.0,0.000,4.240,1,-1,0,0.0,-15.0,-1.0,0.0,0.0,0.0,2037,2826,1212,1912,1298,2788,2050,2901,1310,1039,1278,2804,2037,2811,1212,1909,1316,2791,2052,2884,1308,1040,1285,2803
1782217748.8249,8.3481,1,lf,0.0986,0.0986,-0.1000,0,0.3312,0.3312,-0.1024,-0.0005,-0.0003,-0.0089,CLIMB,5,1,0,15.0,0.000,4.260,1,-1,0,0.0,-15.0,-1.0,0.0,0.0,0.0,2037,2826,1212,1912,1298,2788,2050,2901,1310,1039,1278,2804,2037,2811,1211,1909,1316,2791,2052,2884,1308,1039,1285,2803
1782217748.8449,8.3681,1,lf,0.0986,0.0986,-0.1000,0,0.3312,0.3312,-0.1024,-0.0005,-0.0003,-0.0090,CLIMB,5,1,0,15.0,0.000,4.280,1,-1,0,0.0,-15.0,-1.0,0.0,0.0,0.0,2037,2826,1212,1912,1298,2788,2050,2901,1310,1039,1278,2804,2037,2811,1211,1909,1316,2791,2052,2884,1308,1039,1285,2803
1782217748.8649,8.3881,1,lf,0.0986,0.0986,-0.1000,0,0.3312,0.3312,-0.1024,-0.0005,-0.0003,-0.0090,CLIMB,5,1,0,15.0,0.000,4.300,1,-1,0,0.0,-15.0,-1.0,0.0,0.0,0.0,2037,2826,1212,1912,1298,2788,2050,2901,1310,1039,1278,2804,2037,2811,1211,1909,1316,2791,2052,2884,1308,1040,1285,2803
1782217748.8850,8.4082,1,lf,0.0986,0.0986,-0.1000,0,0.3312,0.3312,-0.1024,-0.0005,-0.0003,-0.0090,CLIMB,5,1,0,15.0,0.000,4.320,1,-1,0,0.0,-15.0,-1.0,0.0,0.0,0.0,2037,2826,1212,1912,1298,2788,2050,2901,1310,1039,1278,2804,2037,2811,1211,1909,1316,2791,2052,2884,1308,1040,1285,2803
1782217748.9049,8.4281,1,lf,0.0986,0.0986,-0.1000,0,0.3312,0.3312,-0.1024,-0.0005,-0.0003,-0.0090,CLIMB,5,1,0,15.0,0.000,4.340,1,-1,0,0.0,-15.0,-1.0,0.0,0.0,0.0,2037,2826,1212,1912,1298,2788,2050,2901,1310,1039,1278,2804,2037,2811,1211,1909,1316,2791,2052,2884,1308,1040,1285,2803
1782217748.9249,8.4481,1,lf,0.0986,0.0986,-0.1000,0,0.3312,0.3312,-0.1024,-0.0005,-0.0003,-0.0090,CLIMB,5,1,0,15.0,0.000,4.360,1,-1,0,0.0,-15.0,-1.0,0.0,0.0,0.0,2037,2826,1212,1912,1298,2788,2050,2901,1310,1039,1278,2804,2037,2811,1211,1909,1316,2791,2052,2884,1308,1040,1285,2803
1782217748.9448,8.4681,1,lf,0.0986,0.0986,-0.1000,0,0.3312,0.3312,-0.1024,-0.0005,-0.0003,-0.0090,CLIMB,5,1,0,15.0,0.000,4.380,1,-1,0,0.0,-15.0,-1.0,0.0,0.0,0.0,2037,2826,1212,1912,1298,2788,2050,2901,1310,1039,1278,2804,2037,2811,1211,1909,1316,2791,2052,2884,1308,1040,1285,2803
1782217748.9649,8.4881,1,lf,0.0986,0.0986,-0.1000,0,0.3312,0.3312,-0.1024,-0.0005,-0.0003,-0.0090,CLIMB,5,1,0,15.0,0.000,4.400,1,-1,0,0.0,-15.0,-1.0,0.0,0.0,0.0,2037,2826,1212,1912,1298,2788,2050,2901,1310,1039,1278,2804,2037,2811,1211,1909,1316,2791,2052,2884,1308,1040,1285,2803
1782217748.9850,8.5082,1,lf,0.0986,0.0986,-0.1000,0,0.3312,0.3312,-0.1024,-0.0005,-0.0003,-0.0090,CLIMB,5,1,0,15.0,0.000,4.420,1,-1,0,0.0,-15.0,-1.0,0.0,0.0,0.0,2037,2826,1212,1912,1298,2788,2050,2901,1310,1039,1278,2804,2037,2811,1211,1909,1316,2791,2052,2884,1308,1040,1285,2803
1782217749.0048,8.5280,1,lf,0.0986,0.0986,-0.1000,0,0.3312,0.3312,-0.1024,-0.0005,-0.0003,-0.0090,CLIMB,5,1,0,15.0,0.000,4.440,1,-1,0,0.0,-15.0,-1.0,0.0,0.0,0.0,2037,2826,1212,1912,1298,2788,2050,2901,1310,1039,1278,2804,2037,2811,1211,1909,1316,2791,2052,2884,1308,1040,1285,2803
1782217749.0248,8.5480,1,lf,0.0986,0.0986,-0.1000,0,0.3312,0.3312,-0.1024,-0.0005,-0.0003,-0.0090,CLIMB,5,1,0,15.0,0.000,4.460,1,-1,0,0.0,-15.0,-1.0,0.0,0.0,0.0,2037,2826,1212,1912,1298,2788,2050,2901,1310,1039,1278,2804,2037,2811,1211,1909,1316,2791,2052,2884,1308,1040,1285,2803
1782217749.0448,8.5680,1,lf,0.0986,0.0986,-0.1000,0,0.3312,0.3312,-0.1024,-0.0005,-0.0003,-0.0090,CLIMB,5,1,0,15.0,0.000,4.480,1,-1,0,0.0,-15.0,-1.0,0.0,0.0,0.0,2037,2826,1212,1912,1298,2788,2050,2901,1310,1039,1278,2804,2037,2811,1211,1909,1316,2791,2052,2884,1308,1040,1285,2803
1782217749.0648,8.5880,1,lf,0.0986,0.0986,-0.1000,0,0.3312,0.3312,-0.1024,-0.0005,-0.0003,-0.0090,CLIMB,5,1,0,15.0,0.000,4.500,1,-1,0,0.0,-15.0,-1.0,0.0,0.0,0.0,2037,2826,1212,1912,1298,2788,2050,2901,1310,1039,1278,2804,2037,2811,1211,1909,1316,2791,2052,2884,1308,1040,1285,2803
1782217749.0848,8.6080,1,lf,0.0986,0.0986,-0.1000,0,0.3312,0.3312,-0.1024,-0.0005,-0.0003,-0.0090,CLIMB,5,1,0,15.0,0.000,4.520,1,-1,0,0.0,-15.0,-1.0,0.0,0.0,0.0,2037,2826,1212,1912,1298,2788,2050,2901,1310,1039,1278,2804,2037,2811,1211,1909,1316,2791,2052,2884,1308,1040,1285,2803
1782217749.1048,8.6280,1,lf,0.0986,0.0986,-0.1000,0,0.3312,0.3312,-0.1024,-0.0005,-0.0003,-0.0090,CLIMB,5,1,0,15.0,0.000,4.540,1,-1,0,0.0,-15.0,-1.0,0.0,0.0,0.0,2037,2826,1212,1912,1298,2788,2050,2901,1310,1039,1278,2804,2037,2811,1211,1909,1316,2791,2052,2884,1308,1040,1285,2803
1782217749.1249,8.6481,1,lf,0.0986,0.0986,-0.1000,0,0.3312,0.3312,-0.1024,-0.0005,-0.0003,-0.0090,CLIMB,5,1,0,15.0,0.000,4.560,1,-1,0,0.0,-15.0,-1.0,0.0,0.0,0.0,2037,2826,1212,1912,1298,2788,2050,2901,1310,1039,1278,2804,2037,2811,1211,1909,1316,2791,2052,2884,1308,1040,1285,2803
1782217749.1448,8.6681,1,lf,0.0986,0.0986,-0.1000,0,0.3312,0.3312,-0.1024,-0.0005,-0.0003,-0.0090,CLIMB,5,1,0,15.0,0.000,4.580,1,-1,0,0.0,-15.0,-1.0,0.0,0.0,0.0,2037,2826,1212,1912,1298,2788,2050,2901,1310,1039,1278,2804,2037,2811,1211,1909,1316,2791,2052,2884,1308,1040,1285,2803
1782217749.1650,8.6882,1,lf,0.0986,0.0986,-0.1000,0,0.3312,0.3312,-0.1024,-0.0005,-0.0003,-0.0090,CLIMB,5,1,0,15.0,0.000,4.600,1,-1,0,0.0,-15.0,-1.0,0.0,0.0,0.0,2037,2826,1212,1912,1298,2788,2050,2901,1310,1039,1278,2804,2037,2811,1211,1909,1316,2791,2052,2884,1308,1040,1285,2803
1782217749.1848,8.7081,1,lf,0.0986,0.0986,-0.1000,0,0.3312,0.3312,-0.1024,-0.0005,-0.0003,-0.0090,CLIMB,5,1,0,15.0,0.000,4.620,1,-1,0,0.0,-15.0,-1.0,0.0,0.0,0.0,2037,2826,1212,1912,1298,2788,2050,2901,1310,1039,1278,2804,2037,2811,1211,1909,1316,2791,2052,2884,1308,1040,1285,2803
1782217749.2049,8.7281,1,lf,0.0986,0.0986,-0.1000,0,0.3312,0.3312,-0.1024,-0.0005,-0.0003,-0.0090,CLIMB,5,1,0,15.0,0.000,4.640,1,-1,0,0.0,-15.0,-1.0,0.0,0.0,0.0,2037,2826,1212,1912,1298,2788,2050,2901,1310,1039,1278,2804,2037,2811,1211,1909,1316,2791,2052,2884,1308,1040,1285,2803
1782217749.2249,8.7481,1,lf,0.0986,0.0986,-0.1000,0,0.3312,0.3312,-0.1024,-0.0005,-0.0003,-0.0090,CLIMB,5,1,0,15.0,0.000,4.660,1,-1,0,0.0,-15.0,-1.0,0.0,0.0,0.0,2037,2826,1212,1912,1298,2788,2050,2901,1310,1039,1278,2804,2037,2811,1211,1909,1316,2791,2052,2884,1308,1040,1285,2803
1782217749.2450,8.7682,1,lf,0.0986,0.0986,-0.1000,0,0.3312,0.3312,-0.1024,-0.0005,-0.0003,-0.0090,CLIMB,5,1,0,15.0,0.000,4.680,1,-1,0,0.0,-15.0,-1.0,0.0,0.0,0.0,2037,2826,1212,1912,1298,2788,2050,2901,1310,1039,1278,2804,2037,2811,1211,1909,1316,2791,2052,2884,1308,1040,1285,2803
1782217749.2649,8.7881,1,lf,0.0986,0.0986,-0.1000,0,0.3312,0.3312,-0.1024,-0.0005,-0.0003,-0.0090,CLIMB,5,1,0,15.0,0.000,4.700,1,-1,0,0.0,-15.0,-1.0,0.0,0.0,0.0,2037,2826,1212,1912,1298,2788,2050,2901,1310,1039,1278,2804,2037,2811,1211,1909,1316,2791,2052,2884,1308,1039,1285,2803
1782217749.2848,8.8080,1,lf,0.0986,0.0986,-0.1000,0,0.3312,0.3312,-0.1024,-0.0005,-0.0003,-0.0090,CLIMB,5,1,0,15.0,0.000,4.720,1,-1,0,0.0,-15.0,-1.0,0.0,0.0,0.0,2037,2826,1212,1912,1298,2788,2050,2901,1310,1039,1278,2804,2037,2811,1211,1909,1316,2791,2052,2884,1308,1039,1285,2803
1782217749.3050,8.8282,1,lf,0.0986,0.0986,-0.1000,0,0.3312,0.3312,-0.1024,-0.0005,-0.0003,-0.0090,CLIMB,5,1,0,15.0,0.000,4.740,1,-1,0,0.0,-15.0,-1.0,0.0,0.0,0.0,2037,2826,1212,1912,1298,2788,2050,2901,1310,1039,1278,2804,2037,2811,1211,1909,1316,2791,2052,2884,1308,1039,1285,2803
1782217749.3249,8.8481,1,lf,0.0986,0.0986,-0.1000,0,0.3312,0.3312,-0.1024,-0.0005,-0.0003,-0.0090,CLIMB,5,1,0,15.0,0.000,4.760,1,-1,0,0.0,-15.0,-1.0,0.0,0.0,0.0,2037,2826,1212,1912,1298,2788,2050,2901,1310,1039,1278,2804,2037,2811,1211,1909,1316,2791,2052,2884,1308,1040,1285,2802
1782217749.3449,8.8682,1,lf,0.0986,0.0986,-0.1000,0,0.3312,0.3312,-0.1024,-0.0005,-0.0003,-0.0090,CLIMB,5,1,0,15.0,0.000,4.780,1,-1,0,0.0,-15.0,-1.0,0.0,0.0,0.0,2037,2826,1212,1912,1298,2788,2050,2901,1310,1039,1278,2804,2037,2811,1211,1909,1316,2791,2052,2884,1308,1040,1285,2802
1782217749.3649,8.8881,1,lf,0.0986,0.0986,-0.1000,0,0.3312,0.3312,-0.1024,-0.0005,-0.0003,-0.0090,CLIMB,5,1,0,15.0,0.000,4.800,1,-1,0,0.0,-15.0,-1.0,0.0,0.0,0.0,2037,2826,1212,1912,1298,2788,2050,2901,1310,1039,1278,2804,2037,2811,1211,1909,1316,2792,2052,2884,1308,1040,1285,2803
1782217749.3849,8.9081,1,lf,0.0986,0.0986,-0.1000,0,0.3312,0.3312,-0.1024,-0.0005,-0.0003,-0.0090,CLIMB,5,1,0,15.0,0.000,4.820,1,-1,0,0.0,-15.0,-1.0,0.0,0.0,0.0,2037,2826,1212,1912,1298,2788,2050,2901,1310,1039,1278,2804,2037,2811,1211,1909,1316,2792,2052,2884,1308,1040,1285,2803
1782217749.4048,8.9280,1,lf,0.0986,0.0986,-0.1000,0,0.3312,0.3312,-0.1024,-0.0005,-0.0003,-0.0090,CLIMB,5,1,0,15.0,0.000,4.840,1,-1,0,0.0,-15.0,-1.0,0.0,0.0,0.0,2037,2826,1212,1912,1298,2788,2050,2901,1310,1039,1278,2804,2037,2811,1211,1909,1316,2792,2052,2884,1308,1040,1285,2803
1782217749.4248,8.9480,1,lf,0.0986,0.0986,-0.1000,0,0.3312,0.3312,-0.1024,-0.0005,-0.0003,-0.0090,CLIMB,5,1,0,15.0,0.000,4.860,1,-1,0,0.0,-15.0,-1.0,0.0,0.0,0.0,2037,2826,1212,1912,1298,2788,2050,2901,1310,1039,1278,2804,2037,2811,1211,1909,1316,2791,2052,2884,1308,1039,1285,2803
1782217749.4450,8.9682,1,lf,0.0986,0.0986,-0.1000,0,0.3312,0.3312,-0.1024,-0.0005,-0.0003,-0.0090,CLIMB,5,1,0,15.0,0.000,4.880,1,-1,0,0.0,-15.0,-1.0,0.0,0.0,0.0,2037,2826,1212,1912,1298,2788,2050,2901,1310,1039,1278,2804,2037,2811,1211,1909,1316,2791,2052,2884,1308,1039,1285,2803
1782217749.4650,8.9882,1,lf,0.0986,0.0986,-0.1000,0,0.3312,0.3312,-0.1024,-0.0005,-0.0003,-0.0090,CLIMB,5,1,0,15.0,0.000,4.900,1,-1,0,0.0,-15.0,-1.0,0.0,0.0,0.0,2037,2826,1212,1912,1298,2788,2050,2901,1310,1039,1278,2804,2037,2811,1211,1909,1316,2791,2052,2884,1308,1039,1285,2803
1782217749.4849,9.0081,1,lf,0.0986,0.0986,-0.1000,0,0.3312,0.3312,-0.1024,-0.0005,-0.0003,-0.0090,CLIMB,5,1,0,15.0,0.000,4.920,1,-1,0,0.0,-15.0,-1.0,0.0,0.0,0.0,2037,2826,1212,1912,1298,2788,2050,2901,1310,1039,1278,2804,2037,2811,1211,1909,1316,2791,2052,2884,1308,1039,1285,2803
1782217749.5050,9.0282,1,lf,0.0986,0.0986,-0.1000,0,0.3312,0.3312,-0.1024,-0.0005,-0.0003,-0.0090,CLIMB,5,1,0,15.0,0.000,4.940,1,-1,0,0.0,-15.0,-1.0,0.0,0.0,0.0,2037,2826,1212,1912,1298,2788,2050,2901,1310,1039,1278,2804,2037,2811,1211,1909,1316,2791,2052,2884,1308,1039,1285,2803
1782217749.5249,9.0481,1,lf,0.0986,0.0986,-0.1000,0,0.3312,0.3312,-0.1024,-0.0005,-0.0003,-0.0090,CLIMB,5,1,0,15.0,0.000,4.960,1,-1,0,0.0,-15.0,-1.0,0.0,0.0,0.0,2037,2826,1212,1912,1298,2788,2050,2901,1310,1039,1278,2804,2037,2811,1211,1909,1316,2791,2052,2884,1308,1040,1285,2803
1782217749.5450,9.0682,1,lf,0.0986,0.0986,-0.1000,0,0.3312,0.3312,-0.1024,-0.0005,-0.0003,-0.0090,CLIMB,5,1,0,15.0,0.000,4.980,1,-1,0,0.0,-15.0,-1.0,0.0,0.0,0.0,2037,2826,1212,1912,1298,2788,2050,2901,1310,1039,1278,2804,2037,2811,1211,1909,1316,2791,2052,2884,1308,1040,1285,2803
1782217749.5651,9.0883,1,lf,0.0986,0.0986,-0.1000,0,0.3312,0.3312,-0.1024,-0.0005,-0.0003,-0.0090,CLIMB,5,1,0,15.0,0.000,5.000,1,-1,0,0.0,-15.0,-1.0,0.0,0.0,0.0,2037,2826,1212,1912,1298,2788,2050,2901,1310,1039,1278,2804,2037,2811,1211,1909,1316,2792,2052,2884,1308,1040,1285,2803
1782217749.5850,9.1082,1,lf,0.0986,0.0986,-0.1000,0,0.3312,0.3312,-0.1024,-0.0005,-0.0003,-0.0090,CLIMB,5,1,0,15.0,0.000,5.020,1,-1,0,0.0,-15.0,-1.0,0.0,0.0,0.0,2037,2826,1212,1912,1298,2788,2050,2901,1310,1039,1278,2804,2037,2811,1211,1909,1316,2792,2052,2884,1308,1040,1285,2803
1782217749.6050,9.1282,1,lf,0.0986,0.0986,-0.1000,0,0.3312,0.3312,-0.1024,-0.0005,-0.0003,-0.0090,CLIMB,5,1,0,15.0,0.000,5.040,1,-1,0,0.0,-15.0,-1.0,0.0,0.0,0.0,2037,2826,1212,1912,1298,2788,2050,2901,1310,1039,1278,2804,2037,2811,1211,1909,1316,2792,2052,2884,1308,1040,1285,2803
1782217749.6249,9.1481,1,lf,0.0986,0.0986,-0.1000,0,0.3312,0.3312,-0.1024,-0.0005,-0.0003,-0.0090,CLIMB,5,1,0,15.0,0.000,5.060,1,-1,0,0.0,-15.0,-1.0,0.0,0.0,0.0,2037,2826,1212,1912,1298,2788,2050,2901,1310,1039,1278,2804,2037,2811,1211,1909,1316,2792,2052,2884,1308,1040,1285,2803
1782217749.6450,9.1682,1,lf,0.0986,0.0986,-0.1000,0,0.3312,0.3312,-0.1024,-0.0005,-0.0003,-0.0090,CLIMB,5,1,0,15.0,0.000,5.080,1,-1,0,0.0,-15.0,-1.0,0.0,0.0,0.0,2037,2826,1212,1912,1298,2788,2050,2901,1310,1039,1278,2804,2037,2811,1211,1909,1316,2792,2052,2884,1308,1040,1285,2803
1782217749.6652,9.1884,1,lf,0.0986,0.0986,-0.1000,0,0.3312,0.3312,-0.1024,-0.0005,-0.0003,-0.0090,CLIMB,5,1,0,15.0,0.000,5.100,1,-1,0,0.0,-15.0,-1.0,0.0,0.0,0.0,2037,2826,1212,1912,1298,2788,2050,2901,1310,1039,1278,2804,2037,2811,1211,1909,1316,2791,2052,2884,1308,1040,1285,2803
1782217749.6850,9.2082,1,lf,0.0986,0.0986,-0.1000,0,0.3312,0.3312,-0.1024,-0.0005,-0.0003,-0.0090,CLIMB,5,1,0,15.0,0.000,5.120,1,-1,0,0.0,-15.0,-1.0,0.0,0.0,0.0,2037,2826,1212,1912,1298,2788,2050,2901,1310,1039,1278,2804,2037,2811,1211,1909,1316,2791,2052,2884,1308,1040,1285,2803
1782217749.7049,9.2281,1,lf,0.0986,0.0986,-0.1000,0,0.3312,0.3312,-0.1024,-0.0005,-0.0003,-0.0090,CLIMB,5,1,0,15.0,0.000,5.140,1,-1,0,0.0,-15.0,-1.0,0.0,0.0,0.0,2037,2826,1212,1912,1298,2788,2050,2901,1310,1039,1278,2804,2037,2811,1211,1909,1316,2791,2052,2884,1308,1040,1285,2803
1782217749.7249,9.2481,1,lf,0.0986,0.0986,-0.1000,0,0.3312,0.3312,-0.1024,-0.0005,-0.0003,-0.0090,CLIMB,5,1,0,15.0,0.000,5.160,1,-1,0,0.0,-15.0,-1.0,0.0,0.0,0.0,2037,2826,1212,1912,1298,2788,2050,2901,1310,1039,1278,2804,2037,2811,1211,1909,1316,2791,2052,2884,1308,1039,1285,2803
1782217749.7450,9.2682,1,lf,0.0986,0.0986,-0.1000,0,0.3312,0.3312,-0.1024,-0.0005,-0.0003,-0.0090,CLIMB,5,1,0,15.0,0.000,5.180,1,-1,0,0.0,-15.0,-1.0,0.0,0.0,0.0,2037,2826,1212,1912,1298,2788,2050,2901,1310,1039,1278,2804,2037,2811,1211,1909,1316,2791,2052,2884,1308,1039,1285,2803
1782217749.7649,9.2881,1,lf,0.0986,0.0986,-0.1000,0,0.3312,0.3312,-0.1024,-0.0005,-0.0003,-0.0090,CLIMB,5,1,0,15.0,0.000,5.200,1,-1,0,0.0,-15.0,-1.0,0.0,0.0,0.0,2037,2826,1212,1912,1298,2788,2050,2901,1310,1039,1278,2804,2037,2811,1211,1909,1316,2792,2052,2884,1308,1040,1285,2803
1782217749.7849,9.3082,1,lf,0.0986,0.0986,-0.1000,0,0.3312,0.3312,-0.1024,-0.0005,-0.0003,-0.0090,CLIMB,5,1,0,15.0,0.000,5.220,1,-1,0,0.0,-15.0,-1.0,0.0,0.0,0.0,2037,2826,1212,1912,1298,2788,2050,2901,1310,1039,1278,2804,2037,2811,1211,1909,1316,2792,2052,2884,1308,1040,1285,2803
1782217749.8049,9.3282,1,lf,0.0986,0.0986,-0.1000,0,0.3312,0.3312,-0.1024,-0.0005,-0.0003,-0.0090,CLIMB,5,1,0,15.0,0.000,5.240,1,-1,0,0.0,-15.0,-1.0,0.0,0.0,0.0,2037,2826,1212,1912,1298,2788,2050,2901,1310,1039,1278,2804,2037,2811,1211,1909,1316,2792,2052,2884,1308,1040,1285,2803
1782217749.8248,9.3480,1,lf,0.0986,0.0986,-0.1000,0,0.3312,0.3312,-0.1024,-0.0005,-0.0003,-0.0090,CLIMB,5,1,0,15.0,0.000,5.260,1,-1,0,0.0,-15.0,-1.0,0.0,0.0,0.0,2037,2826,1212,1912,1298,2788,2050,2901,1310,1039,1278,2804,2037,2811,1211,1909,1316,2792,2052,2884,1308,1039,1285,2803
1782217749.8449,9.3682,1,lf,0.0986,0.0986,-0.1000,0,0.3312,0.3312,-0.1024,-0.0005,-0.0003,-0.0090,CLIMB,5,1,0,15.0,0.000,5.280,1,-1,0,0.0,-15.0,-1.0,0.0,0.0,0.0,2037,2826,1212,1912,1298,2788,2050,2901,1310,1039,1278,2804,2037,2811,1211,1909,1316,2792,2052,2884,1308,1039,1285,2803
1782217749.8650,9.3882,1,lf,0.0986,0.0986,-0.1000,0,0.3312,0.3312,-0.1024,-0.0005,-0.0003,-0.0090,CLIMB,5,1,0,15.0,0.000,5.300,1,-1,0,0.0,-15.0,-1.0,0.0,0.0,0.0,2037,2826,1212,1912,1298,2788,2050,2901,1310,1039,1278,2804,2037,2811,1211,1909,1316,2791,2052,2884,1308,1040,1285,2803
1782217749.8850,9.4082,1,lf,0.0986,0.0986,-0.1000,0,0.3312,0.3312,-0.1024,-0.0005,-0.0003,-0.0090,CLIMB,5,1,0,15.0,0.000,5.320,1,-1,0,0.0,-15.0,-1.0,0.0,0.0,0.0,2037,2826,1212,1912,1298,2788,2050,2901,1310,1039,1278,2804,2037,2811,1211,1909,1316,2791,2052,2884,1308,1040,1285,2803
1782217749.9050,9.4282,1,lf,0.0986,0.0986,-0.1000,0,0.3312,0.3312,-0.1024,-0.0005,-0.0003,-0.0090,CLIMB,5,1,0,15.0,0.000,5.340,1,-1,0,0.0,-15.0,-1.0,0.0,0.0,0.0,2037,2826,1212,1912,1298,2788,2050,2901,1310,1039,1278,2804,2037,2811,1211,1909,1316,2791,2052,2884,1308,1040,1285,2803
1782217749.9249,9.4481,1,lf,0.0986,0.0986,-0.1000,0,0.3312,0.3312,-0.1024,-0.0005,-0.0003,-0.0090,CLIMB,5,1,0,15.0,0.000,5.360,1,-1,0,0.0,-15.0,-1.0,0.0,0.0,0.0,2037,2826,1212,1912,1298,2788,2050,2901,1310,1039,1278,2804,2037,2811,1211,1909,1315,2792,2052,2884,1308,1039,1285,2803
1782217749.9449,9.4681,1,lf,0.0986,0.0986,-0.1000,0,0.3312,0.3312,-0.1024,-0.0005,-0.0003,-0.0090,CLIMB,5,1,0,15.0,0.000,5.380,1,-1,0,0.0,-15.0,-1.0,0.0,0.0,0.0,2037,2826,1212,1912,1298,2788,2050,2901,1310,1039,1278,2804,2037,2811,1211,1909,1315,2792,2052,2884,1308,1039,1285,2803
1782217749.9649,9.4882,1,lf,0.0986,0.0986,-0.1000,0,0.3312,0.3312,-0.1024,-0.0005,-0.0003,-0.0090,CLIMB,5,1,0,15.0,0.000,5.400,1,-1,0,0.0,-15.0,-1.0,0.0,0.0,0.0,2037,2826,1212,1912,1298,2788,2050,2901,1310,1039,1278,2804,2037,2811,1211,1909,1316,2791,2052,2884,1308,1040,1285,2803
1782217749.9850,9.5082,1,lf,0.0986,0.0986,-0.1000,0,0.3312,0.3312,-0.1024,-0.0005,-0.0003,-0.0090,CLIMB,5,1,0,15.0,0.000,5.420,1,-1,0,0.0,-15.0,-1.0,0.0,0.0,0.0,2037,2826,1212,1912,1298,2788,2050,2901,1310,1039,1278,2804,2037,2811,1211,1909,1316,2791,2052,2884,1308,1040,1285,2803
1782217750.0050,9.5282,1,lf,0.0986,0.0986,-0.1000,0,0.3312,0.3312,-0.1024,-0.0005,-0.0003,-0.0090,CLIMB,5,1,0,15.0,0.000,5.440,1,-1,0,0.0,-15.0,-1.0,0.0,0.0,0.0,2037,2826,1212,1912,1298,2788,2050,2901,1310,1039,1278,2804,2037,2811,1211,1909,1316,2791,2052,2884,1308,1040,1285,2803
1782217750.0249,9.5481,1,lf,0.0986,0.0986,-0.1000,0,0.3312,0.3312,-0.1024,-0.0005,-0.0003,-0.0090,CLIMB,5,1,0,15.0,0.000,5.460,1,-1,0,0.0,-15.0,-1.0,0.0,0.0,0.0,2037,2826,1212,1912,1298,2788,2050,2901,1310,1039,1278,2804,2037,2811,1211,1909,1316,2792,2052,2884,1308,1039,1285,2803
1782217750.0450,9.5682,1,lf,0.0986,0.0986,-0.1000,0,0.3312,0.3312,-0.1024,-0.0005,-0.0003,-0.0090,CLIMB,5,1,0,15.0,0.000,5.480,1,-1,0,0.0,-15.0,-1.0,0.0,0.0,0.0,2037,2826,1212,1912,1298,2788,2050,2901,1310,1039,1278,2804,2037,2811,1211,1909,1316,2792,2052,2884,1308,1039,1285,2803
1782217750.0649,9.5881,1,lf,0.0986,0.0986,-0.1000,0,0.3312,0.3312,-0.1024,-0.0005,-0.0003,-0.0090,CLIMB,5,1,0,15.0,0.000,5.500,1,-1,0,0.0,-15.0,-1.0,0.0,0.0,0.0,2037,2826,1212,1912,1298,2788,2050,2901,1310,1039,1278,2804,2037,2811,1211,1909,1316,2792,2052,2884,1308,1039,1285,2803
1782217750.0850,9.6082,1,lf,0.0986,0.0986,-0.1000,0,0.3312,0.3312,-0.1024,-0.0005,-0.0003,-0.0090,CLIMB,5,1,0,15.0,0.000,5.520,1,-1,0,0.0,-15.0,-1.0,0.0,0.0,0.0,2037,2826,1212,1912,1298,2788,2050,2901,1310,1039,1278,2804,2037,2811,1211,1909,1316,2792,2052,2884,1308,1039,1285,2803
1782217750.1050,9.6282,1,lf,0.0986,0.0986,-0.1000,0,0.3312,0.3312,-0.1024,-0.0005,-0.0003,-0.0090,CLIMB,5,1,0,15.0,0.000,5.540,1,-1,0,0.0,-15.0,-1.0,0.0,0.0,0.0,2037,2826,1212,1912,1298,2788,2050,2901,1310,1039,1278,2804,2037,2811,1211,1909,1316,2792,2052,2884,1308,1039,1285,2803
1782217750.1249,9.6481,1,lf,0.0986,0.0986,-0.1000,0,0.3312,0.3312,-0.1024,-0.0005,-0.0003,-0.0089,CLIMB,5,1,0,15.0,0.000,5.560,1,-1,0,0.0,-15.0,-1.0,0.0,0.0,0.0,2037,2826,1212,1912,1298,2788,2050,2901,1310,1039,1278,2804,2037,2811,1211,1909,1316,2791,2052,2884,1308,1040,1285,2803
1782217750.1449,9.6682,1,lf,0.0986,0.0986,-0.1000,0,0.3312,0.3312,-0.1024,-0.0005,-0.0003,-0.0089,CLIMB,5,1,0,15.0,0.000,5.580,1,-1,0,0.0,-15.0,-1.0,0.0,0.0,0.0,2037,2826,1212,1912,1298,2788,2050,2901,1310,1039,1278,2804,2037,2811,1211,1909,1316,2791,2052,2884,1308,1040,1285,2803
1782217750.1649,9.6882,1,lf,0.0986,0.0986,-0.1000,0,0.3312,0.3312,-0.1024,-0.0005,-0.0003,-0.0089,CLIMB,5,1,0,15.0,0.000,5.600,1,-1,0,0.0,-15.0,-1.0,0.0,0.0,0.0,2037,2826,1212,1912,1298,2788,2050,2901,1310,1039,1278,2804,2037,2811,1211,1909,1316,2792,2052,2884,1308,1039,1285,2803
1782217750.1849,9.7081,1,lf,0.0986,0.0986,-0.1000,0,0.3312,0.3312,-0.1024,-0.0005,-0.0003,-0.0089,CLIMB,5,1,0,15.0,0.000,5.620,1,-1,0,0.0,-15.0,-1.0,0.0,0.0,0.0,2037,2826,1212,1912,1298,2788,2050,2901,1310,1039,1278,2804,2037,2811,1211,1909,1316,2792,2052,2884,1308,1039,1285,2803
1782217750.2049,9.7281,1,lf,0.0986,0.0986,-0.1000,0,0.3312,0.3312,-0.1024,-0.0005,-0.0003,-0.0089,CLIMB,5,1,0,15.0,0.000,5.640,1,-1,0,0.0,-15.0,-1.0,0.0,0.0,0.0,2037,2826,1212,1912,1298,2788,2050,2901,1310,1039,1278,2804,2037,2811,1211,1909,1316,2792,2052,2884,1308,1039,1285,2803
1782217750.2249,9.7481,1,lf,0.0986,0.0986,-0.1000,0,0.3312,0.3312,-0.1024,-0.0005,-0.0003,-0.0089,CLIMB,5,1,0,15.0,0.000,5.660,1,-1,0,0.0,-15.0,-1.0,0.0,0.0,0.0,2037,2826,1212,1912,1298,2788,2050,2901,1310,1039,1278,2804,2037,2811,1211,1909,1316,2791,2052,2884,1308,1039,1285,2803
1782217750.2449,9.7681,1,lf,0.0986,0.0986,-0.1000,0,0.3312,0.3312,-0.1024,-0.0005,-0.0003,-0.0090,CLIMB,5,1,0,15.0,0.000,5.680,1,-1,0,0.0,-15.0,-1.0,0.0,0.0,0.0,2037,2826,1212,1912,1298,2788,2050,2901,1310,1039,1278,2804,2037,2811,1211,1909,1316,2791,2052,2884,1308,1039,1285,2803
1782217750.2650,9.7882,1,lf,0.0986,0.0986,-0.1000,0,0.3312,0.3312,-0.1024,-0.0005,-0.0003,-0.0090,CLIMB,5,1,0,15.0,0.000,5.700,1,-1,0,0.0,-15.0,-1.0,0.0,0.0,0.0,2037,2826,1212,1912,1298,2788,2050,2901,1310,1039,1278,2804,2037,2811,1211,1909,1316,2791,2052,2884,1308,1039,1285,2803
