DreamSnakecc/climbing_ws/test_logs/dxl_autotune_20260623_205243/leg_endpoint/baseline/single_swing_lf_20260623_205251.csv
wall_time,elapsed_s,cycle,leg,cmd_x,cmd_y,cmd_z,cmd_support,ujc_x,ujc_y,ujc_z,body_x,body_y,body_z,mission_state,servo_phase_id,servo_gate_enabled,servo_ready,servo_max_abs_error_tick,servo_within_tolerance_s,servo_wait_s,servo_timed_out,servo_last_pass_phase_id,servo_last_pass_sequence,servo_error_joint1_tick,servo_error_joint2_tick,servo_error_joint3_tick,servo_last_pass_error_joint1_tick,servo_last_pass_error_joint2_tick,servo_last_pass_error_joint3_tick,ticks_cmd_11,ticks_cmd_1,ticks_cmd_2,ticks_cmd_12,ticks_cmd_3,ticks_cmd_4,ticks_cmd_13,ticks_cmd_5,ticks_cmd_6,ticks_cmd_14,ticks_cmd_7,ticks_cmd_8,ticks_act_11,ticks_act_1,ticks_act_2,ticks_act_12,ticks_act_3,ticks_act_4,ticks_act_13,ticks_act_5,ticks_act_6,ticks_act_14,ticks_act_7,ticks_act_8
1782219174.1066,2.7677,1,lf,0.0986,0.0986,-0.1100,0,0.3303,0.3312,-0.1124,0.0004,0.0008,0.0024,CLIMB,4,1,0,0.0,0.000,0.000,0,-1,0,0.0,0.0,0.0,0.0,0.0,0.0,2037,2781,1318,1912,1298,2788,2050,2901,1310,1039,1278,2804,2035,2766,1311,1912,1316,2793,2052,2884,1308,1040,1297,2806
1782219174.1121,2.7732,1,lf,0.0986,0.0986,-0.1100,0,0.3303,0.3312,-0.1124,0.0003,0.0009,0.0024,CLIMB,4,1,0,0.0,0.000,0.000,0,-1,0,0.0,0.0,0.0,0.0,0.0,0.0,2037,2781,1318,1912,1298,2788,2050,2901,1310,1039,1278,2804,2035,2766,1311,1912,1316,2793,2052,2884,1308,1040,1297,2806
1782219174.1322,2.7933,1,lf,0.0986,0.0986,-0.1100,0,0.3303,0.3312,-0.1124,0.0003,0.0009,0.0024,CLIMB,4,1,0,0.0,0.000,0.000,0,-1,0,0.0,0.0,0.0,0.0,0.0,0.0,2037,2781,1318,1912,1298,2788,2050,2901,1310,1039,1278,2804,2035,2766,1311,1912,1316,2793,2052,2884,1308,1040,1297,2806
1782219174.1523,2.8134,1,lf,0.0986,0.0986,-0.1100,0,0.3303,0.3312,-0.1124,0.0003,0.0009,0.0024,CLIMB,4,1,0,0.0,0.000,0.000,0,-1,0,0.0,0.0,0.0,0.0,0.0,0.0,2037,2781,1318,1912,1298,2788,2050,2901,1310,1039,1278,2804,2035,2766,1311,1912,1316,2793,2052,2884,1308,1040,1297,2806
1782219174.1723,2.8334,1,lf,0.0986,0.0986,-0.1100,0,0.3303,0.3312,-0.1124,0.0003,0.0009,0.0024,CLIMB,4,1,0,0.0,0.000,0.000,0,-1,0,0.0,0.0,0.0,0.0,0.0,0.0,2037,2781,1318,1912,1298,2788,2050,2901,1310,1039,1278,2804,2035,2766,1311,1912,1316,2793,2052,2884,1308,1040,1297,2806
1782219174.1923,2.8534,1,lf,0.0986,0.0986,-0.1100,0,0.3303,0.3312,-0.1124,0.0003,0.0008,0.0024,CLIMB,4,1,0,0.0,0.000,0.000,0,-1,0,0.0,0.0,0.0,0.0,0.0,0.0,2037,2781,1318,1912,1298,2788,2050,2901,1310,1039,1278,2804,2035,2766,1311,1912,1316,2793,2052,2884,1308,1040,1297,2806
1782219174.2123,2.8734,1,lf,0.0986,0.0986,-0.1100,0,0.3303,0.3312,-0.1124,0.0003,0.0008,0.0024,CLIMB,4,1,0,0.0,0.000,0.000,0,-1,0,0.0,0.0,0.0,0.0,0.0,0.0,2037,2781,1318,1912,1298,2788,2050,2901,1310,1039,1278,2804,2035,2766,1311,1912,1316,2793,2052,2884,1308,1040,1297,2806
1782219174.2322,2.8933,1,lf,0.0986,0.0986,-0.1100,0,0.3303,0.3312,-0.1124,0.0003,0.0009,0.0024,CLIMB,4,1,0,0.0,0.000,0.000,0,-1,0,0.0,0.0,0.0,0.0,0.0,0.0,2037,2781,1318,1912,1298,2788,2050,2901,1310,1039,1278,2804,2035,2766,1311,1912,1316,2793,2052,2884,1308,1040,1297,2806
1782219174.2523,2.9134,1,lf,0.0986,0.0986,-0.1100,0,0.3303,0.3312,-0.1124,0.0003,0.0009,0.0024,CLIMB,4,1,0,0.0,0.000,0.000,0,-1,0,0.0,0.0,0.0,0.0,0.0,0.0,2037,2781,1318,1912,1298,2788,2050,2901,1310,1039,1278,2804,2035,2766,1311,1912,1316,2793,2052,2884,1308,1040,1297,2806
1782219174.2723,2.9334,1,lf,0.0986,0.0986,-0.1100,0,0.3303,0.3312,-0.1124,0.0003,0.0009,0.0024,CLIMB,4,1,0,0.0,0.000,0.000,0,-1,0,0.0,0.0,0.0,0.0,0.0,0.0,2037,2781,1318,1912,1298,2788,2050,2901,1310,1039,1278,2804,2035,2766,1311,1912,1316,2793,2052,2884,1308,1040,1297,2806
1782219174.2923,2.9533,1,lf,0.0986,0.0986,-0.1100,0,0.3303,0.3312,-0.1124,0.0003,0.0009,0.0024,CLIMB,4,1,0,0.0,0.000,0.000,0,-1,0,0.0,0.0,0.0,0.0,0.0,0.0,2037,2781,1318,1912,1298,2788,2050,2901,1310,1039,1278,2804,2035,2766,1311,1912,1316,2793,2052,2884,1308,1040,1297,2806
1782219174.3123,2.9734,1,lf,0.0986,0.0986,-0.1100,0,0.3303,0.3312,-0.1124,0.0003,0.0009,0.0024,CLIMB,4,1,0,0.0,0.000,0.000,0,-1,0,0.0,0.0,0.0,0.0,0.0,0.0,2037,2781,1318,1912,1298,2788,2050,2901,1310,1039,1278,2804,2035,2766,1311,1912,1316,2793,2052,2884,1308,1040,1297,2806
1782219174.3323,2.9934,1,lf,0.0986,0.0986,-0.1100,0,0.3303,0.3312,-0.1124,0.0003,0.0009,0.0024,CLIMB,4,1,0,0.0,0.000,0.000,0,-1,0,0.0,0.0,0.0,0.0,0.0,0.0,2037,2781,1318,1912,1298,2788,2050,2901,1310,1039,1278,2804,2035,2766,1311,1912,1316,2793,2052,2884,1308,1040,1297,2806
1782219174.3523,3.0133,1,lf,0.0986,0.0986,-0.1100,0,0.3303,0.3312,-0.1124,0.0003,0.0009,0.0024,CLIMB,4,1,0,0.0,0.000,0.000,0,-1,0,0.0,0.0,0.0,0.0,0.0,0.0,2037,2781,1318,1912,1298,2788,2050,2901,1310,1039,1278,2804,2035,2766,1311,1912,1316,2793,2052,2884,1308,1040,1297,2806
1782219174.3723,3.0333,1,lf,0.0986,0.0986,-0.1100,0,0.3303,0.3312,-0.1124,0.0003,0.0009,0.0024,CLIMB,4,1,0,0.0,0.000,0.000,0,-1,0,0.0,0.0,0.0,0.0,0.0,0.0,2037,2781,1318,1912,1298,2788,2050,2901,1310,1039,1278,2804,2035,2766,1311,1912,1316,2793,2052,2884,1308,1040,1297,2806
1782219174.3923,3.0533,1,lf,0.0986,0.0986,-0.1100,0,0.3303,0.3312,-0.1124,0.0003,0.0009,0.0024,CLIMB,4,1,0,0.0,0.000,0.000,0,-1,0,0.0,0.0,0.0,0.0,0.0,0.0,2037,2781,1318,1912,1298,2788,2050,2901,1310,1039,1278,2804,2035,2766,1311,1912,1316,2793,2052,2884,1308,1040,1297,2806
1782219174.4122,3.0733,1,lf,0.0986,0.0986,-0.1100,0,0.3303,0.3312,-0.1124,0.0003,0.0009,0.0024,CLIMB,4,1,0,0.0,0.000,0.000,0,-1,0,0.0,0.0,0.0,0.0,0.0,0.0,2037,2781,1318,1912,1298,2788,2050,2901,1310,1039,1278,2804,2035,2766,1311,1912,1316,2793,2052,2884,1308,1040,1297,2806
1782219174.4323,3.0934,1,lf,0.0986,0.0986,-0.1100,0,0.3303,0.3312,-0.1124,0.0003,0.0009,0.0025,CLIMB,4,1,0,0.0,0.000,0.000,0,-1,0,0.0,0.0,0.0,0.0,0.0,0.0,2037,2781,1318,1912,1298,2788,2050,2901,1310,1039,1278,2804,2035,2766,1311,1912,1316,2793,2052,2884,1308,1040,1297,2806
1782219174.4523,3.1134,1,lf,0.0986,0.0986,-0.1100,0,0.3303,0.3312,-0.1124,0.0003,0.0009,0.0025,CLIMB,4,1,0,0.0,0.000,0.000,0,-1,0,0.0,0.0,0.0,0.0,0.0,0.0,2037,2781,1318,1912,1298,2788,2050,2901,1310,1039,1278,2804,2035,2766,1311,1912,1316,2793,2052,2884,1308,1040,1297,2806
1782219174.4723,3.1334,1,lf,0.0986,0.0986,-0.1100,0,0.3303,0.3312,-0.1124,0.0003,0.0009,0.0025,CLIMB,4,1,0,0.0,0.000,0.000,0,-1,0,0.0,0.0,0.0,0.0,0.0,0.0,2037,2781,1318,1912,1298,2788,2050,2901,1310,1039,1278,2804,2035,2766,1311,1912,1316,2793,2052,2884,1308,1040,1297,2806
1782219174.4923,3.1534,1,lf,0.0986,0.0986,-0.1100,0,0.3303,0.3312,-0.1124,0.0003,0.0009,0.0025,CLIMB,4,1,0,0.0,0.000,0.000,0,-1,0,0.0,0.0,0.0,0.0,0.0,0.0,2037,2781,1318,1912,1298,2788,2050,2901,1310,1039,1278,2804,2035,2766,1311,1912,1316,2793,2052,2884,1308,1040,1297,2806
1782219174.5123,3.1734,1,lf,0.0986,0.0986,-0.1100,0,0.3303,0.3312,-0.1124,0.0003,0.0009,0.0025,CLIMB,4,1,0,0.0,0.000,0.000,0,-1,0,0.0,0.0,0.0,0.0,0.0,0.0,2037,2781,1318,1912,1298,2788,2050,2901,1310,1039,1278,2804,2035,2766,1311,1912,1316,2793,2052,2884,1308,1040,1297,2806
1782219174.5323,3.1934,1,lf,0.0986,0.0986,-0.1100,0,0.3303,0.3312,-0.1124,0.0003,0.0009,0.0025,CLIMB,4,1,0,0.0,0.000,0.000,0,-1,0,0.0,0.0,0.0,0.0,0.0,0.0,2037,2781,1318,1912,1298,2788,2050,2901,1310,1039,1278,2804,2035,2766,1311,1912,1316,2793,2052,2884,1308,1040,1297,2806
1782219174.5524,3.2134,1,lf,0.0986,0.0986,-0.1100,0,0.3303,0.3312,-0.1124,0.0003,0.0009,0.0025,CLIMB,4,1,0,0.0,0.000,0.000,0,-1,0,0.0,0.0,0.0,0.0,0.0,0.0,2037,2781,1318,1912,1298,2788,2050,2901,1310,1039,1278,2804,2035,2766,1311,1912,1316,2793,2052,2884,1308,1040,1297,2806
1782219174.5723,3.2334,1,lf,0.0986,0.0986,-0.1100,0,0.3305,0.3310,-0.1124,0.0002,0.0010,0.0025,CLIMB,4,1,0,0.0,0.000,0.000,0,-1,0,0.0,0.0,0.0,0.0,0.0,0.0,2037,2781,1318,1912,1298,2788,2050,2901,1310,1039,1278,2804,2036,2766,1311,1912,1316,2794,2052,2884,1308,1040,1297,2806
1782219174.5923,3.2534,1,lf,0.0986,0.0986,-0.1100,0,0.3305,0.3310,-0.1124,0.0002,0.0011,0.0025,CLIMB,4,1,0,0.0,0.000,0.000,0,-1,0,0.0,0.0,0.0,0.0,0.0,0.0,2037,2781,1318,1912,1298,2788,2050,2901,1310,1039,1278,2804,2036,2766,1311,1912,1316,2794,2052,2884,1308,1040,1297,2806
1782219174.6124,3.2734,1,lf,0.0986,0.0986,-0.1100,0,0.3305,0.3310,-0.1124,0.0002,0.0012,0.0025,CLIMB,4,1,0,0.0,0.000,0.000,0,-1,0,0.0,0.0,0.0,0.0,0.0,0.0,2037,2781,1318,1912,1298,2788,2050,2901,1310,1039,1278,2804,2036,2766,1311,1912,1316,2793,2052,2884,1308,1040,1297,2806
1782219174.6324,3.2934,1,lf,0.0986,0.0986,-0.1100,0,0.3305,0.3310,-0.1124,0.0001,0.0012,0.0025,CLIMB,4,1,0,0.0,0.000,0.000,0,-1,0,0.0,0.0,0.0,0.0,0.0,0.0,2037,2781,1318,1912,1298,2788,2050,2901,1310,1039,1278,2804,2036,2766,1311,1912,1316,2793,2052,2884,1308,1040,1297,2806
1782219174.6523,3.3134,1,lf,0.0986,0.0986,-0.1100,0,0.3305,0.3310,-0.1124,0.0001,0.0012,0.0025,CLIMB,4,1,0,0.0,0.000,0.000,0,-1,0,0.0,0.0,0.0,0.0,0.0,0.0,2037,2781,1318,1912,1298,2788,2050,2901,1310,1039,1278,2804,2036,2766,1311,1912,1316,2793,2052,2884,1308,1040,1297,2806
1782219174.6722,3.3332,1,lf,0.0986,0.0986,-0.1100,0,0.3305,0.3310,-0.1124,0.0001,0.0012,0.0025,CLIMB,4,1,0,0.0,0.000,0.000,0,-1,0,0.0,0.0,0.0,0.0,0.0,0.0,2037,2781,1318,1912,1298,2788,2050,2901,1310,1039,1278,2804,2036,2766,1311,1912,1316,2794,2052,2884,1308,1040,1297,2806
1782219174.6922,3.3533,1,lf,0.0986,0.0986,-0.1100,0,0.3305,0.3310,-0.1124,0.0001,0.0012,0.0025,CLIMB,4,1,0,0.0,0.000,0.000,0,-1,0,0.0,0.0,0.0,0.0,0.0,0.0,2037,2781,1318,1912,1298,2788,2050,2901,1310,1039,1278,2804,2036,2766,1311,1912,1316,2794,2052,2884,1308,1040,1297,2806
1782219174.7124,3.3735,1,lf,0.0986,0.0986,-0.1100,0,0.3303,0.3312,-0.1124,0.0002,0.0010,0.0025,CLIMB,4,1,0,0.0,0.000,0.000,0,-1,0,0.0,0.0,0.0,0.0,0.0,0.0,2037,2781,1318,1912,1298,2788,2050,2901,1310,1039,1278,2804,2035,2766,1311,1912,1316,2793,2052,2884,1308,1040,1297,2806
1782219174.7324,3.3934,1,lf,0.0986,0.0986,-0.1100,0,0.3303,0.3312,-0.1124,0.0003,0.0010,0.0025,CLIMB,4,1,0,0.0,0.000,0.000,0,-1,0,0.0,0.0,0.0,0.0,0.0,0.0,2037,2781,1318,1912,1298,2788,2050,2901,1310,1039,1278,2804,2035,2766,1311,1912,1316,2793,2052,2884,1308,1040,1297,2806
1782219174.7523,3.4133,1,lf,0.0986,0.0986,-0.1100,0,0.3303,0.3312,-0.1124,0.0003,0.0009,0.0025,CLIMB,4,1,0,0.0,0.000,0.000,0,-1,0,0.0,0.0,0.0,0.0,0.0,0.0,2037,2781,1318,1912,1298,2788,2050,2901,1310,1039,1278,2804,2035,2766,1311,1912,1316,2793,2052,2884,1308,1040,1297,2806
1782219174.7723,3.4334,1,lf,0.0986,0.0986,-0.1100,0,0.3303,0.3312,-0.1124,0.0003,0.0009,0.0025,CLIMB,4,1,0,0.0,0.000,0.000,0,-1,0,0.0,0.0,0.0,0.0,0.0,0.0,2037,2781,1318,1912,1298,2788,2050,2901,1310,1039,1278,2804,2035,2766,1311,1912,1316,2793,2052,2884,1308,1040,1297,2806
1782219174.7923,3.4534,1,lf,0.0986,0.0986,-0.1100,0,0.3303,0.3312,-0.1124,0.0003,0.0009,0.0025,CLIMB,4,1,0,0.0,0.000,0.000,0,-1,0,0.0,0.0,0.0,0.0,0.0,0.0,2037,2781,1318,1912,1298,2788,2050,2901,1310,1039,1278,2804,2035,2766,1311,1912,1316,2793,2052,2884,1308,1040,1297,2806
1782219174.8123,3.4733,1,lf,0.0986,0.0986,-0.1100,0,0.3305,0.3310,-0.1124,0.0002,0.0010,0.0025,CLIMB,4,1,0,0.0,0.000,0.000,0,-1,0,0.0,0.0,0.0,0.0,0.0,0.0,2037,2781,1318,1912,1298,2788,2050,2901,1310,1039,1278,2804,2036,2766,1311,1912,1316,2794,2052,2884,1308,1040,1297,2806
1782219174.8322,3.4933,1,lf,0.0986,0.0986,-0.1100,0,0.3305,0.3310,-0.1124,0.0002,0.0011,0.0025,CLIMB,4,1,0,0.0,0.000,0.000,0,-1,0,0.0,0.0,0.0,0.0,0.0,0.0,2037,2781,1318,1912,1298,2788,2050,2901,1310,1039,1278,2804,2036,2766,1311,1912,1316,2794,2052,2884,1308,1040,1297,2806
1782219174.8523,3.5134,1,lf,0.0986,0.0986,-0.1100,0,0.3305,0.3310,-0.1124,0.0002,0.0011,0.0025,CLIMB,4,1,0,0.0,0.000,0.000,0,-1,0,0.0,0.0,0.0,0.0,0.0,0.0,2037,2781,1318,1912,1298,2788,2050,2901,1310,1039,1278,2804,2036,2766,1311,1912,1316,2794,2052,2884,1308,1040,1297,2806
1782219174.8723,3.5334,1,lf,0.0986,0.0986,-0.1100,0,0.3305,0.3310,-0.1124,0.0002,0.0012,0.0026,CLIMB,4,1,0,0.0,0.000,0.000,0,-1,0,0.0,0.0,0.0,0.0,0.0,0.0,2037,2781,1318,1912,1298,2788,2050,2901,1310,1039,1278,2804,2036,2766,1311,1912,1316,2793,2052,2884,1308,1040,1297,2806
1782219174.8923,3.5534,1,lf,0.0986,0.0986,-0.1100,0,0.3305,0.3310,-0.1124,0.0002,0.0012,0.0026,CLIMB,4,1,0,0.0,0.000,0.000,0,-1,0,0.0,0.0,0.0,0.0,0.0,0.0,2037,2781,1318,1912,1298,2788,2050,2901,1310,1039,1278,2804,2036,2766,1311,1912,1316,2793,2052,2884,1308,1040,1297,2806
1782219174.9123,3.5734,1,lf,0.0986,0.0986,-0.1100,0,0.3303,0.3312,-0.1124,0.0002,0.0010,0.0026,CLIMB,4,1,0,0.0,0.000,0.000,0,-1,0,0.0,0.0,0.0,0.0,0.0,0.0,2037,2781,1318,1912,1298,2788,2050,2901,1310,1039,1278,2804,2035,2766,1311,1912,1316,2793,2052,2884,1308,1040,1297,2806
1782219174.9323,3.5934,1,lf,0.0986,0.0986,-0.1100,0,0.3303,0.3312,-0.1124,0.0003,0.0010,0.0026,CLIMB,4,1,0,0.0,0.000,0.000,0,-1,0,0.0,0.0,0.0,0.0,0.0,0.0,2037,2781,1318,1912,1298,2788,2050,2901,1310,1039,1278,2804,2035,2766,1311,1912,1316,2793,2052,2884,1308,1040,1297,2806
1782219174.9523,3.6134,1,lf,0.0986,0.0986,-0.1100,0,0.3303,0.3312,-0.1124,0.0003,0.0009,0.0026,CLIMB,4,1,0,0.0,0.000,0.000,0,-1,0,0.0,0.0,0.0,0.0,0.0,0.0,2037,2781,1318,1912,1298,2788,2050,2901,1310,1039,1278,2804,2035,2766,1311,1912,1316,2793,2052,2884,1308,1040,1297,2806
1782219174.9723,3.6334,1,lf,0.0986,0.0986,-0.1100,0,0.3305,0.3310,-0.1124,0.0002,0.0011,0.0026,CLIMB,4,1,0,0.0,0.000,0.000,0,-1,0,0.0,0.0,0.0,0.0,0.0,0.0,2037,2781,1318,1912,1298,2788,2050,2901,1310,1039,1278,2804,2036,2766,1311,1912,1316,2793,2052,2884,1308,1040,1297,2806
1782219174.9922,3.6533,1,lf,0.0986,0.0986,-0.1100,0,0.3305,0.3310,-0.1124,0.0002,0.0011,0.0026,CLIMB,4,1,0,0.0,0.000,0.000,0,-1,0,0.0,0.0,0.0,0.0,0.0,0.0,2037,2781,1318,1912,1298,2788,2050,2901,1310,1039,1278,2804,2036,2766,1311,1912,1316,2793,2052,2884,1308,1040,1297,2806
1782219175.0123,3.6733,1,lf,0.0986,0.0986,-0.1100,0,0.3303,0.3312,-0.1124,0.0003,0.0010,0.0025,CLIMB,4,1,0,0.0,0.000,0.000,0,-1,0,0.0,0.0,0.0,0.0,0.0,0.0,2037,2781,1318,1912,1298,2788,2050,2901,1310,1039,1278,2804,2035,2766,1311,1912,1316,2793,2052,2884,1308,1040,1297,2806
1782219175.0322,3.6933,1,lf,0.0986,0.0986,-0.1100,0,0.3303,0.3312,-0.1124,0.0003,0.0009,0.0025,CLIMB,4,1,0,0.0,0.000,0.000,0,-1,0,0.0,0.0,0.0,0.0,0.0,0.0,2037,2781,1318,1912,1298,2788,2050,2901,1310,1039,1278,2804,2035,2766,1311,1912,1316,2793,2052,2884,1308,1040,1297,2806
1782219175.0523,3.7134,1,lf,0.0986,0.0986,-0.1100,0,0.3303,0.3312,-0.1124,0.0003,0.0009,0.0025,CLIMB,4,1,0,0.0,0.000,0.000,0,-1,0,0.0,0.0,0.0,0.0,0.0,0.0,2037,2781,1318,1912,1298,2788,2050,2901,1310,1039,1278,2804,2035,2766,1311,1912,1316,2793,2052,2884,1308,1040,1297,2806
1782219175.0723,3.7334,1,lf,0.0986,0.0986,-0.1100,0,0.3303,0.3312,-0.1124,0.0003,0.0009,0.0026,CLIMB,4,1,0,0.0,0.000,0.000,0,-1,0,0.0,0.0,0.0,0.0,0.0,0.0,2037,2781,1318,1912,1298,2788,2050,2901,1310,1039,1278,2804,2035,2766,1311,1912,1316,2793,2052,2884,1308,1040,1297,2806
1782219175.0923,3.7534,1,lf,0.0986,0.0986,-0.1100,0,0.3303,0.3312,-0.1124,0.0003,0.0009,0.0026,CLIMB,4,1,0,0.0,0.000,0.000,0,-1,0,0.0,0.0,0.0,0.0,0.0,0.0,2037,2781,1318,1912,1298,2788,2050,2901,1310,1039,1278,2804,2035,2766,1311,1912,1316,2793,2052,2884,1308,1040,1297,2806
1782219175.1123,3.7734,1,lf,0.0986,0.0986,-0.1100,0,0.3305,0.3310,-0.1124,0.0003,0.0010,0.0026,CLIMB,4,1,0,0.0,0.000,0.000,0,-1,0,0.0,0.0,0.0,0.0,0.0,0.0,2037,2781,1318,1912,1298,2788,2050,2901,1310,1039,1278,2804,2036,2766,1311,1912,1316,2793,2052,2884,1308,1040,1297,2806
1782219175.1323,3.7934,1,lf,0.0986,0.0986,-0.1100,0,0.3305,0.3310,-0.1124,0.0002,0.0011,0.0026,CLIMB,4,1,0,0.0,0.000,0.000,0,-1,0,0.0,0.0,0.0,0.0,0.0,0.0,2037,2781,1318,1912,1298,2788,2050,2901,1310,1039,1278,2804,2036,2766,1311,1912,1316,2793,2052,2884,1308,1040,1297,2806
1782219175.1523,3.8134,1,lf,0.0986,0.0986,-0.1100,0,0.3305,0.3310,-0.1124,0.0002,0.0011,0.0026,CLIMB,5,1,0,0.0,0.000,0.000,0,-1,0,0.0,0.0,0.0,0.0,0.0,0.0,2037,2781,1318,1912,1298,2788,2050,2901,1310,1039,1278,2804,2036,2766,1311,1912,1316,2793,2052,2884,1308,1040,1297,2806
1782219175.1722,3.8333,1,lf,0.0986,0.0986,-0.1100,0,0.3303,0.3312,-0.1124,0.0003,0.0010,0.0026,CLIMB,5,1,0,0.0,0.000,0.000,0,-1,0,0.0,0.0,0.0,0.0,0.0,0.0,2037,2781,1318,1912,1298,2788,2050,2901,1310,1039,1278,2804,2035,2766,1311,1912,1316,2793,2052,2884,1308,1040,1297,2806
1782219175.1923,3.8534,1,lf,0.0986,0.0986,-0.1097,0,0.3303,0.3312,-0.1124,0.0003,0.0010,0.0026,CLIMB,5,1,0,0.0,0.000,0.000,0,-1,0,0.0,0.0,0.0,0.0,0.0,0.0,2037,2782,1315,1912,1298,2788,2050,2901,1310,1039,1278,2804,2035,2766,1311,1912,1316,2793,2052,2884,1308,1040,1297,2806
1782219175.2123,3.8734,1,lf,0.0986,0.0986,-0.1091,0,0.3303,0.3312,-0.1124,0.0003,0.0009,0.0026,CLIMB,5,1,0,0.0,0.000,0.000,0,-1,0,0.0,0.0,0.0,0.0,0.0,0.0,2037,2785,1308,1912,1298,2788,2050,2901,1310,1039,1278,2804,2035,2766,1311,1912,1316,2793,2052,2884,1308,1040,1297,2806
1782219175.2324,3.8934,1,lf,0.0986,0.0986,-0.1081,0,0.3303,0.3312,-0.1124,0.0003,0.0009,0.0026,CLIMB,5,1,0,0.0,0.000,0.000,0,-1,0,0.0,0.0,0.0,0.0,0.0,0.0,2037,2789,1297,1912,1298,2788,2050,2901,1310,1039,1278,2804,2035,2766,1311,1912,1316,2793,2052,2884,1308,1040,1297,2806
1782219175.2523,3.9134,1,lf,0.0986,0.0986,-0.1068,0,0.3303,0.3312,-0.1124,0.0003,0.0009,0.0026,CLIMB,5,1,0,0.0,0.000,0.000,0,-1,0,0.0,0.0,0.0,0.0,0.0,0.0,2037,2795,1283,1912,1298,2788,2050,2901,1310,1039,1278,2804,2035,2766,1311,1912,1316,2793,2052,2884,1308,1040,1297,2806
1782219175.2723,3.9334,1,lf,0.0986,0.0986,-0.1054,0,0.3303,0.3312,-0.1124,0.0004,0.0009,0.0026,CLIMB,5,1,0,0.0,0.000,0.000,0,-1,0,0.0,0.0,0.0,0.0,0.0,0.0,2037,2802,1267,1912,1298,2788,2050,2901,1310,1039,1278,2804,2035,2766,1311,1912,1316,2793,2052,2884,1308,1040,1297,2806
1782219175.2923,3.9534,1,lf,0.0986,0.0986,-0.1039,0,0.3303,0.3312,-0.1124,0.0004,0.0009,0.0026,CLIMB,5,1,0,0.0,0.000,0.000,0,-1,0,0.0,0.0,0.0,0.0,0.0,0.0,2037,2809,1251,1912,1298,2788,2050,2901,1310,1039,1278,2804,2035,2766,1311,1912,1316,2793,2052,2884,1308,1040,1297,2806
1782219175.3123,3.9734,1,lf,0.0986,0.0986,-0.1025,0,0.3303,0.3312,-0.1124,0.0003,0.0009,0.0026,CLIMB,5,1,0,0.0,0.000,0.000,0,-1,0,0.0,0.0,0.0,0.0,0.0,0.0,2037,2815,1237,1912,1298,2788,2050,2901,1310,1039,1278,2804,2035,2766,1311,1912,1316,2793,2052,2884,1308,1039,1297,2806
1782219175.3323,3.9933,1,lf,0.0986,0.0986,-0.1014,0,0.3303,0.3312,-0.1124,0.0003,0.0009,0.0026,CLIMB,5,1,0,0.0,0.000,0.000,0,-1,0,0.0,0.0,0.0,0.0,0.0,0.0,2037,2820,1225,1912,1298,2788,2050,2901,1310,1039,1278,2804,2035,2766,1311,1912,1316,2793,2052,2884,1308,1039,1297,2806
1782219175.3523,4.0134,1,lf,0.0986,0.0986,-0.1006,0,0.3303,0.3312,-0.1124,0.0003,0.0009,0.0026,CLIMB,5,1,0,0.0,0.000,0.000,0,-1,0,0.0,0.0,0.0,0.0,0.0,0.0,2037,2823,1217,1912,1298,2788,2050,2901,1310,1039,1278,2804,2035,2766,1311,1912,1316,2793,2052,2884,1308,1039,1297,2806
1782219175.3723,4.0334,1,lf,0.0986,0.0986,-0.1001,0,0.3305,0.3310,-0.1124,0.0003,0.0010,0.0026,CLIMB,5,1,0,0.0,0.000,0.000,0,-1,0,0.0,0.0,0.0,0.0,0.0,0.0,2037,2825,1213,1912,1298,2788,2050,2901,1310,1039,1278,2804,2036,2766,1311,1912,1316,2794,2052,2884,1308,1040,1297,2806
1782219175.3923,4.0534,1,lf,0.0986,0.0986,-0.1000,0,0.3305,0.3310,-0.1124,0.0002,0.0011,0.0026,CLIMB,5,1,0,0.0,0.000,0.000,0,-1,0,0.0,0.0,0.0,0.0,0.0,0.0,2037,2826,1212,1912,1298,2788,2050,2901,1310,1039,1278,2804,2036,2766,1311,1912,1316,2794,2052,2884,1308,1040,1297,2806
1782219175.4123,4.0734,1,lf,0.0986,0.0986,-0.1000,0,0.3305,0.3315,-0.1115,0.0001,0.0009,0.0021,CLIMB,5,1,0,94.0,0.000,0.000,0,-1,0,-2.0,-56.0,94.0,0.0,0.0,0.0,2037,2826,1212,1912,1298,2788,2050,2901,1310,1039,1278,2804,2035,2770,1306,1912,1316,2793,2052,2884,1308,1040,1297,2806
1782219175.4323,4.0934,1,lf,0.0986,0.0986,-0.1000,0,0.3305,0.3315,-0.1115,0.0001,0.0008,0.0019,CLIMB,5,1,0,94.0,0.000,0.020,0,-1,0,-2.0,-56.0,94.0,0.0,0.0,0.0,2037,2826,1212,1912,1298,2788,2050,2901,1310,1039,1278,2804,2035,2770,1306,1912,1316,2793,2052,2884,1308,1040,1297,2806
1782219175.4524,4.1134,1,lf,0.0986,0.0986,-0.1000,0,0.3305,0.3315,-0.1115,0.0001,0.0007,0.0018,CLIMB,5,1,0,85.0,0.000,0.040,0,-1,0,-2.0,-52.0,85.0,0.0,0.0,0.0,2037,2826,1212,1912,1298,2788,2050,2901,1310,1039,1278,2804,2035,2770,1306,1912,1316,2793,2052,2884,1308,1040,1297,2806
1782219175.4723,4.1334,1,lf,0.0986,0.0986,-0.1000,0,0.3306,0.3315,-0.1107,0.0000,0.0007,0.0013,CLIMB,5,1,0,85.0,0.000,0.060,0,-1,0,-2.0,-52.0,85.0,0.0,0.0,0.0,2037,2826,1212,1912,1298,2788,2050,2901,1310,1039,1278,2804,2035,2774,1297,1912,1316,2793,2052,2884,1308,1040,1297,2806
1782219175.4923,4.1534,1,lf,0.0986,0.0986,-0.1000,0,0.3306,0.3315,-0.1107,-0.0000,0.0007,0.0011,CLIMB,5,1,0,73.0,0.000,0.080,0,-1,0,-1.0,-46.0,73.0,0.0,0.0,0.0,2037,2826,1212,1912,1298,2788,2050,2901,1310,1039,1278,2804,2035,2774,1297,1912,1316,2793,2052,2884,1308,1040,1297,2806
1782219175.5123,4.1734,1,lf,0.0986,0.0986,-0.1000,0,0.3308,0.3318,-0.1078,-0.0002,0.0005,-0.0006,CLIMB,5,1,0,58.0,0.000,0.100,0,-1,0,-2.0,-39.0,58.0,0.0,0.0,0.0,2037,2826,1212,1912,1298,2788,2050,2901,1310,1039,1278,2804,2035,2787,1270,1912,1316,2793,2052,2884,1308,1040,1297,2806
1782219175.5323,4.1934,1,lf,0.0986,0.0986,-0.1000,0,0.3308,0.3318,-0.1078,-0.0003,0.0005,-0.0014,CLIMB,5,1,0,58.0,0.000,0.120,0,-1,0,-2.0,-39.0,58.0,0.0,0.0,0.0,2037,2826,1212,1912,1298,2788,2050,2901,1310,1039,1278,2804,2035,2787,1270,1912,1316,2793,2052,2884,1308,1040,1297,2806
1782219175.5523,4.2134,1,lf,0.0986,0.0986,-0.1000,0,0.3308,0.3318,-0.1078,-0.0003,0.0004,-0.0018,CLIMB,5,1,0,45.0,0.000,0.140,0,-1,0,-2.0,-34.0,45.0,0.0,0.0,0.0,2037,2826,1212,1912,1298,2788,2050,2901,1310,1039,1278,2804,2035,2787,1270,1912,1316,2793,2052,2884,1308,1040,1297,2806
1782219175.5723,4.2334,1,lf,0.0986,0.0986,-0.1000,0,0.3308,0.3317,-0.1067,-0.0003,0.0004,-0.0026,CLIMB,5,1,0,31.0,0.000,0.160,0,-1,0,-2.0,-28.0,31.0,0.0,0.0,0.0,2037,2826,1212,1912,1298,2788,2050,2901,1310,1039,1278,2804,2035,2792,1257,1912,1316,2793,2052,2884,1308,1040,1297,2806
1782219175.5923,4.2534,1,lf,0.0986,0.0986,-0.1000,0,0.3308,0.3317,-0.1067,-0.0003,0.0004,-0.0029,CLIMB,5,1,0,31.0,0.000,0.180,0,-1,0,-2.0,-28.0,31.0,0.0,0.0,0.0,2037,2826,1212,1912,1298,2788,2050,2901,1310,1039,1278,2804,2035,2792,1257,1912,1316,2793,2052,2884,1308,1040,1297,2806
1782219175.6123,4.2734,1,lf,0.0986,0.0986,-0.1000,0,0.3307,0.3317,-0.1045,-0.0002,0.0004,-0.0043,CLIMB,5,1,0,24.0,0.000,0.200,0,-1,0,-2.0,-24.0,20.0,0.0,0.0,0.0,2037,2826,1212,1912,1298,2788,2050,2901,1310,1039,1278,2804,2035,2802,1232,1912,1316,2793,2052,2884,1308,1040,1297,2806
1782219175.6323,4.2934,1,lf,0.0986,0.0986,-0.1000,0,0.3307,0.3317,-0.1045,-0.0002,0.0004,-0.0050,CLIMB,5,1,0,24.0,0.000,0.220,0,-1,0,-2.0,-24.0,20.0,0.0,0.0,0.0,2037,2826,1212,1912,1298,2788,2050,2901,1310,1039,1278,2804,2035,2802,1232,1912,1316,2793,2052,2884,1308,1040,1297,2806
1782219175.6523,4.3134,1,lf,0.0986,0.0986,-0.1000,0,0.3307,0.3317,-0.1045,-0.0002,0.0005,-0.0053,CLIMB,5,1,0,20.0,0.000,0.240,0,-1,0,-1.0,-20.0,12.0,0.0,0.0,0.0,2037,2826,1212,1912,1298,2788,2050,2901,1310,1039,1278,2804,2035,2802,1232,1912,1316,2793,2052,2884,1308,1040,1297,2806
1782219175.6723,4.3334,1,lf,0.0986,0.0986,-0.1000,0,0.3307,0.3317,-0.1029,-0.0002,0.0005,-0.0063,CLIMB,5,1,0,17.0,0.000,0.260,0,-1,0,-2.0,-17.0,4.0,0.0,0.0,0.0,2037,2826,1212,1912,1298,2788,2050,2901,1310,1039,1278,2804,2035,2809,1216,1912,1316,2793,2052,2884,1308,1040,1297,2806
1782219175.6923,4.3534,1,lf,0.0986,0.0986,-0.1000,0,0.3307,0.3317,-0.1029,-0.0002,0.0004,-0.0067,CLIMB,5,1,0,17.0,0.000,0.280,0,-1,0,-2.0,-17.0,4.0,0.0,0.0,0.0,2037,2826,1212,1912,1298,2788,2050,2901,1310,1039,1278,2804,2035,2809,1216,1912,1316,2793,2052,2884,1308,1040,1297,2806
1782219175.7123,4.3734,1,lf,0.0986,0.0986,-0.1000,0,0.3310,0.3315,-0.1024,-0.0004,0.0005,-0.0072,CLIMB,5,1,0,15.0,0.000,0.300,0,-1,0,-1.0,-15.0,1.0,0.0,0.0,0.0,2037,2826,1212,1912,1298,2788,2050,2901,1310,1039,1278,2804,2036,2811,1213,1912,1316,2793,2052,2884,1308,1040,1297,2806
1782219175.7323,4.3933,1,lf,0.0986,0.0986,-0.1000,0,0.3310,0.3315,-0.1024,-0.0004,0.0006,-0.0074,CLIMB,5,1,0,15.0,0.000,0.320,0,-1,0,-2.0,-15.0,0.0,0.0,0.0,0.0,2037,2826,1212,1912,1298,2788,2050,2901,1310,1039,1278,2804,2036,2811,1213,1912,1316,2793,2052,2884,1308,1040,1297,2806
1782219175.7524,4.4135,1,lf,0.0986,0.0986,-0.1000,0,0.3310,0.3315,-0.1024,-0.0005,0.0006,-0.0075,CLIMB,5,1,0,15.0,0.000,0.340,0,-1,0,-2.0,-15.0,0.0,0.0,0.0,0.0,2037,2826,1212,1912,1298,2788,2050,2901,1310,1039,1278,2804,2036,2811,1213,1912,1316,2793,2052,2884,1308,1040,1297,2806
1782219175.7723,4.4334,1,lf,0.0986,0.0986,-0.1000,0,0.3308,0.3317,-0.1024,-0.0004,0.0005,-0.0075,CLIMB,5,1,0,15.0,0.000,0.360,0,-1,0,-2.0,-15.0,0.0,0.0,0.0,0.0,2037,2826,1212,1912,1298,2788,2050,2901,1310,1039,1278,2804,2035,2811,1212,1912,1316,2793,2052,2884,1308,1040,1297,2806
1782219175.7923,4.4534,1,lf,0.0986,0.0986,-0.1000,0,0.3308,0.3317,-0.1024,-0.0003,0.0004,-0.0075,CLIMB,5,1,0,15.0,0.000,0.380,0,-1,0,-2.0,-15.0,0.0,0.0,0.0,0.0,2037,2826,1212,1912,1298,2788,2050,2901,1310,1039,1278,2804,2035,2811,1212,1912,1316,2793,2052,2884,1308,1040,1297,2806
1782219175.8123,4.4734,1,lf,0.0986,0.0986,-0.1000,0,0.3310,0.3315,-0.1024,-0.0004,0.0006,-0.0074,CLIMB,5,1,0,15.0,0.000,0.400,0,-1,0,-1.0,-15.0,0.0,0.0,0.0,0.0,2037,2826,1212,1912,1298,2788,2050,2901,1310,1039,1278,2804,2036,2811,1212,1912,1316,2794,2052,2884,1308,1040,1297,2806
1782219175.8323,4.4934,1,lf,0.0986,0.0986,-0.1000,0,0.3310,0.3315,-0.1024,-0.0004,0.0006,-0.0074,CLIMB,5,1,0,15.0,0.000,0.420,0,-1,0,-2.0,-15.0,-1.0,0.0,0.0,0.0,2037,2826,1212,1912,1298,2788,2050,2901,1310,1039,1278,2804,2036,2811,1212,1912,1316,2794,2052,2884,1308,1040,1297,2806
1782219175.8523,4.5134,1,lf,0.0986,0.0986,-0.1000,0,0.3310,0.3315,-0.1024,-0.0004,0.0007,-0.0073,CLIMB,5,1,0,15.0,0.000,0.440,0,-1,0,-2.0,-15.0,-1.0,0.0,0.0,0.0,2037,2826,1212,1912,1298,2788,2050,2901,1310,1039,1278,2804,2036,2811,1212,1912,1316,2794,2052,2884,1308,1040,1297,2806
1782219175.8723,4.5334,1,lf,0.0986,0.0986,-0.1000,0,0.3307,0.3317,-0.1024,-0.0003,0.0006,-0.0073,CLIMB,5,1,0,15.0,0.000,0.460,0,-1,0,-2.0,-15.0,-1.0,0.0,0.0,0.0,2037,2826,1212,1912,1298,2788,2050,2901,1310,1039,1278,2804,2035,2811,1211,1912,1316,2793,2052,2884,1308,1040,1297,2806
1782219175.8923,4.5534,1,lf,0.0986,0.0986,-0.1000,0,0.3307,0.3317,-0.1024,-0.0002,0.0005,-0.0073,CLIMB,5,1,0,15.0,0.000,0.480,0,-1,0,-1.0,-15.0,-1.0,0.0,0.0,0.0,2037,2826,1212,1912,1298,2788,2050,2901,1310,1039,1278,2804,2035,2811,1211,1912,1316,2793,2052,2884,1308,1040,1297,2806
1782219175.9123,4.5734,1,lf,0.0986,0.0986,-0.1000,0,0.3309,0.3314,-0.1024,-0.0003,0.0006,-0.0072,CLIMB,5,1,0,15.0,0.000,0.500,0,-1,0,-1.0,-15.0,-1.0,0.0,0.0,0.0,2037,2826,1212,1912,1298,2788,2050,2901,1310,1039,1278,2804,2036,2811,1211,1912,1316,2793,2052,2884,1308,1040,1297,2806
1782219175.9323,4.5934,1,lf,0.0986,0.0986,-0.1000,0,0.3309,0.3314,-0.1024,-0.0003,0.0007,-0.0072,CLIMB,5,1,0,16.0,0.000,0.520,0,-1,0,-2.0,-16.0,0.0,0.0,0.0,0.0,2037,2826,1212,1912,1298,2788,2050,2901,1310,1039,1278,2804,2036,2811,1211,1912,1316,2793,2052,2884,1308,1040,1297,2806
1782219175.9523,4.6134,1,lf,0.0986,0.0986,-0.1000,0,0.3309,0.3314,-0.1024,-0.0004,0.0007,-0.0072,CLIMB,5,1,0,16.0,0.000,0.540,0,-1,0,-2.0,-16.0,0.0,0.0,0.0,0.0,2037,2826,1212,1912,1298,2788,2050,2901,1310,1039,1278,2804,2036,2811,1211,1912,1316,2793,2052,2884,1308,1040,1297,2806
1782219175.9723,4.6333,1,lf,0.0986,0.0986,-0.1000,0,0.3309,0.3314,-0.1024,-0.0004,0.0007,-0.0071,CLIMB,5,1,0,15.0,0.000,0.560,0,-1,0,-1.0,-15.0,-1.0,0.0,0.0,0.0,2037,2826,1212,1912,1298,2788,2050,2901,1310,1039,1278,2804,2036,2811,1211,1912,1316,2794,2052,2884,1308,1040,1297,2806
1782219175.9923,4.6533,1,lf,0.0986,0.0986,-0.1000,0,0.3309,0.3314,-0.1024,-0.0004,0.0007,-0.0071,CLIMB,5,1,0,15.0,0.000,0.580,0,-1,0,-2.0,-15.0,-1.0,0.0,0.0,0.0,2037,2826,1212,1912,1298,2788,2050,2901,1310,1039,1278,2804,2036,2811,1211,1912,1316,2794,2052,2884,1308,1040,1297,2806
1782219176.0123,4.6734,1,lf,0.0986,0.0986,-0.1000,0,0.3308,0.3317,-0.1024,-0.0003,0.0005,-0.0071,CLIMB,5,1,0,15.0,0.000,0.600,0,-1,0,-2.0,-15.0,-1.0,0.0,0.0,0.0,2037,2826,1212,1912,1298,2788,2050,2901,1310,1039,1278,2804,2035,2811,1212,1912,1316,2793,2052,2884,1308,1040,1297,2806
1782219176.0324,4.6935,1,lf,0.0986,0.0986,-0.1000,0,0.3308,0.3317,-0.1024,-0.0003,0.0005,-0.0071,CLIMB,5,1,0,15.0,0.000,0.620,0,-1,0,-2.0,-15.0,0.0,0.0,0.0,0.0,2037,2826,1212,1912,1298,2788,2050,2901,1310,1039,1278,2804,2035,2811,1212,1912,1316,2793,2052,2884,1308,1040,1297,2806
1782219176.0524,4.7135,1,lf,0.0986,0.0986,-0.1000,0,0.3308,0.3317,-0.1024,-0.0003,0.0004,-0.0070,CLIMB,5,1,0,15.0,0.000,0.640,0,-1,0,-1.0,-15.0,0.0,0.0,0.0,0.0,2037,2826,1212,1912,1298,2788,2050,2901,1310,1039,1278,2804,2035,2811,1212,1912,1316,2793,2052,2884,1308,1040,1297,2806
1782219176.0723,4.7334,1,lf,0.0986,0.0986,-0.1000,0,0.3310,0.3315,-0.1024,-0.0003,0.0006,-0.0070,CLIMB,5,1,0,15.0,0.000,0.660,0,-1,0,-1.0,-15.0,0.0,0.0,0.0,0.0,2037,2826,1212,1912,1298,2788,2050,2901,1310,1039,1278,2804,2036,2811,1212,1912,1316,2793,2052,2884,1308,1040,1297,2806
1782219176.0924,4.7535,1,lf,0.0986,0.0986,-0.1000,0,0.3310,0.3315,-0.1024,-0.0004,0.0006,-0.0070,CLIMB,5,1,0,15.0,0.000,0.680,0,-1,0,-1.0,-15.0,-1.0,0.0,0.0,0.0,2037,2826,1212,1912,1298,2788,2050,2901,1310,1039,1278,2804,2036,2811,1212,1912,1316,2793,2052,2884,1308,1040,1297,2806
1782219176.1123,4.7734,1,lf,0.0986,0.0986,-0.1000,0,0.3307,0.3317,-0.1024,-0.0003,0.0005,-0.0070,CLIMB,5,1,0,15.0,0.000,0.700,0,-1,0,-1.0,-15.0,-1.0,0.0,0.0,0.0,2037,2826,1212,1912,1298,2788,2050,2901,1310,1039,1278,2804,2035,2811,1211,1912,1316,2793,2052,2884,1308,1040,1297,2806
1782219176.1323,4.7934,1,lf,0.0986,0.0986,-0.1000,0,0.3307,0.3317,-0.1024,-0.0002,0.0005,-0.0070,CLIMB,5,1,0,15.0,0.000,0.720,0,-1,0,-2.0,-15.0,-1.0,0.0,0.0,0.0,2037,2826,1212,1912,1298,2788,2050,2901,1310,1039,1278,2804,2035,2811,1211,1912,1316,2793,2052,2884,1308,1040,1297,2806
1782219176.1523,4.8134,1,lf,0.0986,0.0986,-0.1000,0,0.3307,0.3317,-0.1024,-0.0002,0.0004,-0.0070,CLIMB,5,1,0,15.0,0.000,0.740,0,-1,0,-2.0,-15.0,-1.0,0.0,0.0,0.0,2037,2826,1212,1912,1298,2788,2050,2901,1310,1039,1278,2804,2035,2811,1211,1912,1316,2793,2052,2884,1308,1040,1297,2806
1782219176.1723,4.8334,1,lf,0.0986,0.0986,-0.1000,0,0.3307,0.3317,-0.1024,-0.0002,0.0004,-0.0070,CLIMB,5,1,0,15.0,0.000,0.760,0,-1,0,-2.0,-15.0,-1.0,0.0,0.0,0.0,2037,2826,1212,1912,1298,2788,2050,2901,1310,1039,1278,2804,2035,2811,1211,1912,1316,2793,2052,2885,1308,1040,1297,2806
1782219176.1923,4.8534,1,lf,0.0986,0.0986,-0.1000,0,0.3307,0.3317,-0.1024,-0.0002,0.0004,-0.0069,CLIMB,5,1,0,15.0,0.000,0.780,0,-1,0,-2.0,-15.0,-1.0,0.0,0.0,0.0,2037,2826,1212,1912,1298,2788,2050,2901,1310,1039,1278,2804,2035,2811,1211,1912,1316,2793,2052,2885,1308,1040,1297,2806
1782219176.2123,4.8734,1,lf,0.0986,0.0986,-0.1000,0,0.3308,0.3317,-0.1024,-0.0002,0.0004,-0.0069,CLIMB,5,1,0,15.0,0.000,0.800,0,-1,0,-2.0,-15.0,0.0,0.0,0.0,0.0,2037,2826,1212,1912,1298,2788,2050,2901,1310,1039,1278,2804,2035,2811,1212,1912,1316,2793,2052,2884,1308,1040,1297,2806
1782219176.2323,4.8934,1,lf,0.0986,0.0986,-0.1000,0,0.3308,0.3317,-0.1024,-0.0002,0.0004,-0.0069,CLIMB,5,1,0,15.0,0.000,0.820,0,-1,0,-2.0,-15.0,0.0,0.0,0.0,0.0,2037,2826,1212,1912,1298,2788,2050,2901,1310,1039,1278,2804,2035,2811,1212,1912,1316,2793,2052,2884,1308,1040,1297,2806
1782219176.2523,4.9134,1,lf,0.0986,0.0986,-0.1000,0,0.3308,0.3317,-0.1024,-0.0002,0.0004,-0.0069,CLIMB,5,1,0,15.0,0.000,0.840,0,-1,0,-2.0,-15.0,-1.0,0.0,0.0,0.0,2037,2826,1212,1912,1298,2788,2050,2901,1310,1039,1278,2804,2035,2811,1212,1912,1316,2793,2052,2884,1308,1040,1297,2806
1782219176.2723,4.9334,1,lf,0.0986,0.0986,-0.1000,0,0.3307,0.3317,-0.1024,-0.0002,0.0004,-0.0069,CLIMB,5,1,0,15.0,0.000,0.860,0,-1,0,-2.0,-15.0,-1.0,0.0,0.0,0.0,2037,2826,1212,1912,1298,2788,2050,2901,1310,1039,1278,2804,2035,2811,1211,1912,1316,2793,2052,2884,1308,1040,1297,2806
1782219176.2923,4.9534,1,lf,0.0986,0.0986,-0.1000,0,0.3307,0.3317,-0.1024,-0.0002,0.0004,-0.0069,CLIMB,5,1,0,15.0,0.000,0.880,0,-1,0,-2.0,-15.0,0.0,0.0,0.0,0.0,2037,2826,1212,1912,1298,2788,2050,2901,1310,1039,1278,2804,2035,2811,1211,1912,1316,2793,2052,2884,1308,1040,1297,2806
1782219176.3122,4.9733,1,lf,0.0986,0.0986,-0.1000,0,0.3307,0.3317,-0.1024,-0.0002,0.0004,-0.0069,CLIMB,5,1,0,15.0,0.000,0.900,0,-1,0,-2.0,-15.0,-1.0,0.0,0.0,0.0,2037,2826,1212,1912,1298,2788,2050,2901,1310,1039,1278,2804,2035,2811,1211,1912,1316,2793,2052,2884,1308,1040,1297,2806
1782219176.3323,4.9934,1,lf,0.0986,0.0986,-0.1000,0,0.3307,0.3317,-0.1024,-0.0002,0.0004,-0.0068,CLIMB,5,1,0,15.0,0.000,0.920,0,-1,0,-2.0,-15.0,-1.0,0.0,0.0,0.0,2037,2826,1212,1912,1298,2788,2050,2901,1310,1039,1278,2804,2035,2811,1211,1912,1316,2793,2052,2884,1308,1040,1297,2806
1782219176.3523,5.0134,1,lf,0.0986,0.0986,-0.1000,0,0.3307,0.3317,-0.1024,-0.0002,0.0004,-0.0068,CLIMB,5,1,0,15.0,0.000,0.940,0,-1,0,-1.0,-15.0,-1.0,0.0,0.0,0.0,2037,2826,1212,1912,1298,2788,2050,2901,1310,1039,1278,2804,2035,2811,1211,1912,1316,2793,2052,2884,1308,1040,1297,2806
1782219176.3723,5.0334,1,lf,0.0986,0.0986,-0.1000,0,0.3309,0.3314,-0.1024,-0.0003,0.0006,-0.0068,CLIMB,5,1,0,15.0,0.000,0.960,0,-1,0,-2.0,-15.0,-1.0,0.0,0.0,0.0,2037,2826,1212,1912,1298,2788,2050,2901,1310,1039,1278,2804,2036,2811,1211,1912,1316,2793,2052,2884,1308,1040,1297,2806
1782219176.3924,5.0535,1,lf,0.0986,0.0986,-0.1000,0,0.3309,0.3314,-0.1024,-0.0003,0.0007,-0.0068,CLIMB,5,1,0,15.0,0.000,0.980,0,-1,0,-2.0,-15.0,-1.0,0.0,0.0,0.0,2037,2826,1212,1912,1298,2788,2050,2901,1310,1039,1278,2804,2036,2811,1211,1912,1316,2793,2052,2884,1308,1040,1297,2806
1782219176.4123,5.0734,1,lf,0.0986,0.0986,-0.1000,0,0.3307,0.3317,-0.1024,-0.0003,0.0006,-0.0068,CLIMB,5,1,0,15.0,0.000,1.000,0,-1,0,-2.0,-15.0,-1.0,0.0,0.0,0.0,2037,2826,1212,1912,1298,2788,2050,2901,1310,1039,1278,2804,2035,2811,1211,1912,1316,2793,2052,2884,1308,1040,1297,2806
1782219176.4323,5.0934,1,lf,0.0986,0.0986,-0.1000,0,0.3307,0.3317,-0.1024,-0.0002,0.0005,-0.0068,CLIMB,5,1,0,15.0,0.000,1.020,0,-1,0,-2.0,-15.0,-1.0,0.0,0.0,0.0,2037,2826,1212,1912,1298,2788,2050,2901,1310,1039,1278,2804,2035,2811,1211,1912,1316,2793,2052,2884,1308,1040,1297,2806
1782219176.4523,5.1134,1,lf,0.0986,0.0986,-0.1000,0,0.3307,0.3317,-0.1024,-0.0002,0.0005,-0.0068,CLIMB,5,1,0,15.0,0.000,1.040,0,-1,0,-1.0,-15.0,-1.0,0.0,0.0,0.0,2037,2826,1212,1912,1298,2788,2050,2901,1310,1039,1278,2804,2035,2811,1211,1912,1316,2793,2052,2884,1308,1040,1297,2806
1782219176.4723,5.1334,1,lf,0.0986,0.0986,-0.1000,0,0.3307,0.3317,-0.1024,-0.0002,0.0005,-0.0068,CLIMB,5,1,0,15.0,0.000,1.060,0,-1,0,-2.0,-15.0,-1.0,0.0,0.0,0.0,2037,2826,1212,1912,1298,2788,2050,2901,1310,1039,1278,2804,2035,2811,1211,1912,1316,2794,2052,2884,1308,1040,1297,2806
1782219176.4923,5.1534,1,lf,0.0986,0.0986,-0.1000,0,0.3307,0.3317,-0.1024,-0.0002,0.0005,-0.0068,CLIMB,5,1,0,15.0,0.000,1.080,0,-1,0,-2.0,-15.0,-1.0,0.0,0.0,0.0,2037,2826,1212,1912,1298,2788,2050,2901,1310,1039,1278,2804,2035,2811,1211,1912,1316,2794,2052,2884,1308,1040,1297,2806
1782219176.5123,5.1734,1,lf,0.0986,0.0986,-0.1000,0,0.3309,0.3314,-0.1024,-0.0003,0.0006,-0.0067,CLIMB,5,1,0,15.0,0.000,1.100,0,-1,0,-1.0,-15.0,-1.0,0.0,0.0,0.0,2037,2826,1212,1912,1298,2788,2050,2901,1310,1039,1278,2804,2036,2811,1211,1912,1316,2793,2052,2884,1308,1040,1297,2806
1782219176.5323,5.1934,1,lf,0.0986,0.0986,-0.1000,0,0.3309,0.3314,-0.1024,-0.0003,0.0007,-0.0067,CLIMB,5,1,0,15.0,0.000,1.120,0,-1,0,-1.0,-15.0,-1.0,0.0,0.0,0.0,2037,2826,1212,1912,1298,2788,2050,2901,1310,1039,1278,2804,2036,2811,1211,1912,1316,2793,2052,2884,1308,1040,1297,2806
1782219176.5523,5.2134,1,lf,0.0986,0.0986,-0.1000,0,0.3309,0.3314,-0.1024,-0.0003,0.0007,-0.0067,CLIMB,5,1,0,15.0,0.000,1.140,0,-1,0,-1.0,-15.0,-1.0,0.0,0.0,0.0,2037,2826,1212,1912,1298,2788,2050,2901,1310,1039,1278,2804,2036,2811,1211,1912,1316,2793,2052,2884,1308,1040,1297,2806
1782219176.5723,5.2334,1,lf,0.0986,0.0986,-0.1000,0,0.3307,0.3317,-0.1024,-0.0003,0.0006,-0.0067,CLIMB,5,1,0,15.0,0.000,1.160,0,-1,0,-2.0,-15.0,-1.0,0.0,0.0,0.0,2037,2826,1212,1912,1298,2788,2050,2901,1310,1039,1278,2804,2035,2811,1211,1912,1316,2793,2052,2884,1308,1040,1297,2806
1782219176.5923,5.2534,1,lf,0.0986,0.0986,-0.1000,0,0.3307,0.3317,-0.1024,-0.0002,0.0005,-0.0067,CLIMB,5,1,0,15.0,0.000,1.180,0,-1,0,-2.0,-15.0,-1.0,0.0,0.0,0.0,2037,2826,1212,1912,1298,2788,2050,2901,1310,1039,1278,2804,2035,2811,1211,1912,1316,2793,2052,2884,1308,1040,1297,2806
1782219176.6124,5.2735,1,lf,0.0986,0.0986,-0.1000,0,0.3307,0.3317,-0.1024,-0.0002,0.0005,-0.0067,CLIMB,5,1,0,15.0,0.000,1.200,0,-1,0,-2.0,-15.0,-1.0,0.0,0.0,0.0,2037,2826,1212,1912,1298,2788,2050,2901,1310,1039,1278,2804,2035,2811,1211,1912,1316,2793,2052,2884,1308,1040,1297,2806
1782219176.6324,5.2934,1,lf,0.0986,0.0986,-0.1000,0,0.3307,0.3317,-0.1024,-0.0002,0.0005,-0.0067,CLIMB,5,1,0,15.0,0.000,1.220,0,-1,0,-1.0,-15.0,-1.0,0.0,0.0,0.0,2037,2826,1212,1912,1298,2788,2050,2901,1310,1039,1278,2804,2035,2811,1211,1912,1316,2793,2052,2884,1308,1040,1297,2806
1782219176.6523,5.3134,1,lf,0.0986,0.0986,-0.1000,0,0.3307,0.3317,-0.1024,-0.0002,0.0005,-0.0067,CLIMB,5,1,0,15.0,0.000,1.240,0,-1,0,-1.0,-15.0,-1.0,0.0,0.0,0.0,2037,2826,1212,1912,1298,2788,2050,2901,1310,1039,1278,2804,2035,2811,1211,1912,1316,2793,2052,2884,1308,1040,1297,2806
1782219176.6723,5.3334,1,lf,0.0986,0.0986,-0.1000,0,0.3309,0.3314,-0.1024,-0.0003,0.0006,-0.0067,CLIMB,5,1,0,15.0,0.000,1.260,0,-1,0,-1.0,-15.0,-1.0,0.0,0.0,0.0,2037,2826,1212,1912,1298,2788,2050,2901,1310,1039,1278,2804,2036,2811,1211,1912,1316,2793,2052,2884,1308,1040,1297,2806
1782219176.6924,5.3534,1,lf,0.0986,0.0986,-0.1000,0,0.3309,0.3314,-0.1024,-0.0003,0.0007,-0.0067,CLIMB,5,1,0,15.0,0.000,1.280,0,-1,0,-2.0,-15.0,-1.0,0.0,0.0,0.0,2037,2826,1212,1912,1298,2788,2050,2901,1310,1039,1278,2804,2036,2811,1211,1912,1316,2793,2052,2884,1308,1040,1297,2806
1782219176.7123,5.3734,1,lf,0.0986,0.0986,-0.1000,0,0.3307,0.3317,-0.1024,-0.0002,0.0006,-0.0067,CLIMB,5,1,0,15.0,0.000,1.300,0,-1,0,-2.0,-15.0,-1.0,0.0,0.0,0.0,2037,2826,1212,1912,1298,2788,2050,2901,1310,1039,1278,2804,2035,2811,1211,1912,1316,2793,2052,2884,1308,1040,1297,2806
1782219176.7323,5.3934,1,lf,0.0986,0.0986,-0.1000,0,0.3307,0.3317,-0.1024,-0.0002,0.0005,-0.0067,CLIMB,5,1,0,15.0,0.000,1.320,0,-1,0,-2.0,-15.0,-1.0,0.0,0.0,0.0,2037,2826,1212,1912,1298,2788,2050,2901,1310,1039,1278,2804,2035,2811,1211,1912,1316,2793,2052,2884,1308,1040,1297,2806
1782219176.7522,5.4133,1,lf,0.0986,0.0986,-0.1000,0,0.3307,0.3317,-0.1024,-0.0002,0.0005,-0.0067,CLIMB,5,1,0,15.0,0.000,1.340,0,-1,0,-2.0,-15.0,-1.0,0.0,0.0,0.0,2037,2826,1212,1912,1298,2788,2050,2901,1310,1039,1278,2804,2035,2811,1211,1912,1316,2793,2052,2884,1308,1040,1297,2806
1782219176.7723,5.4333,1,lf,0.0986,0.0986,-0.1000,0,0.3307,0.3317,-0.1024,-0.0002,0.0005,-0.0067,CLIMB,5,1,0,15.0,0.000,1.360,0,-1,0,-2.0,-15.0,-1.0,0.0,0.0,0.0,2037,2826,1212,1912,1298,2788,2050,2901,1310,1039,1278,2804,2035,2811,1211,1912,1316,2793,2052,2884,1308,1040,1297,2806
1782219176.7923,5.4534,1,lf,0.0986,0.0986,-0.1000,0,0.3307,0.3317,-0.1024,-0.0002,0.0005,-0.0067,CLIMB,5,1,0,15.0,0.000,1.380,0,-1,0,-1.0,-15.0,-1.0,0.0,0.0,0.0,2037,2826,1212,1912,1298,2788,2050,2901,1310,1039,1278,2804,2035,2811,1211,1912,1316,2793,2052,2884,1308,1040,1297,2806
1782219176.8123,5.4734,1,lf,0.0986,0.0986,-0.1000,0,0.3307,0.3317,-0.1024,-0.0002,0.0005,-0.0067,CLIMB,5,1,0,15.0,0.000,1.400,0,-1,0,-1.0,-15.0,-1.0,0.0,0.0,0.0,2037,2826,1212,1912,1298,2788,2050,2901,1310,1039,1278,2804,2035,2811,1211,1912,1316,2793,2052,2884,1308,1040,1297,2806
1782219176.8323,5.4934,1,lf,0.0986,0.0986,-0.1000,0,0.3307,0.3317,-0.1024,-0.0002,0.0005,-0.0067,CLIMB,5,1,0,15.0,0.000,1.420,0,-1,0,-2.0,-15.0,-1.0,0.0,0.0,0.0,2037,2826,1212,1912,1298,2788,2050,2901,1310,1039,1278,2804,2035,2811,1211,1912,1316,2793,2052,2884,1308,1040,1297,2806
1782219176.8523,5.5134,1,lf,0.0986,0.0986,-0.1000,0,0.3307,0.3317,-0.1024,-0.0002,0.0005,-0.0066,CLIMB,5,1,0,15.0,0.000,1.440,0,-1,0,-1.0,-15.0,-1.0,0.0,0.0,0.0,2037,2826,1212,1912,1298,2788,2050,2901,1310,1039,1278,2804,2035,2811,1211,1912,1316,2793,2052,2884,1308,1040,1297,2806
1782219176.8723,5.5334,1,lf,0.0986,0.0986,-0.1000,0,0.3309,0.3314,-0.1024,-0.0003,0.0006,-0.0066,CLIMB,5,1,0,15.0,0.000,1.460,0,-1,0,-1.0,-15.0,-1.0,0.0,0.0,0.0,2037,2826,1212,1912,1298,2788,2050,2901,1310,1039,1278,2804,2036,2811,1211,1912,1316,2793,2052,2884,1308,1040,1297,2806
1782219176.8922,5.5532,1,lf,0.0986,0.0986,-0.1000,0,0.3309,0.3314,-0.1024,-0.0003,0.0007,-0.0066,CLIMB,5,1,0,15.0,0.000,1.480,0,-1,0,-2.0,-15.0,-1.0,0.0,0.0,0.0,2037,2826,1212,1912,1298,2788,2050,2901,1310,1039,1278,2804,2036,2811,1211,1912,1316,2793,2052,2884,1308,1040,1297,2806
1782219176.9123,5.5734,1,lf,0.0986,0.0986,-0.1000,0,0.3309,0.3314,-0.1024,-0.0004,0.0007,-0.0066,CLIMB,5,1,0,15.0,0.000,1.500,0,-1,0,-2.0,-15.0,-1.0,0.0,0.0,0.0,2037,2826,1212,1912,1298,2788,2050,2901,1310,1039,1278,2804,2036,2811,1211,1912,1316,2793,2052,2884,1308,1040,1297,2806
1782219176.9323,5.5934,1,lf,0.0986,0.0986,-0.1000,0,0.3309,0.3314,-0.1024,-0.0004,0.0008,-0.0066,CLIMB,5,1,0,15.0,0.000,1.520,0,-1,0,-1.0,-15.0,-1.0,0.0,0.0,0.0,2037,2826,1212,1912,1298,2788,2050,2901,1310,1039,1278,2804,2036,2811,1211,1912,1316,2793,2052,2884,1308,1040,1297,2806
1782219176.9523,5.6134,1,lf,0.0986,0.0986,-0.1000,0,0.3309,0.3314,-0.1024,-0.0004,0.0008,-0.0066,CLIMB,5,1,0,15.0,0.000,1.540,0,-1,0,-1.0,-15.0,-1.0,0.0,0.0,0.0,2037,2826,1212,1912,1298,2788,2050,2901,1310,1039,1278,2804,2036,2811,1211,1912,1316,2793,2052,2884,1308,1040,1297,2806
1782219176.9723,5.6334,1,lf,0.0986,0.0986,-0.1000,0,0.3309,0.3314,-0.1024,-0.0004,0.0008,-0.0066,CLIMB,5,1,0,15.0,0.000,1.560,0,-1,0,-1.0,-15.0,-1.0,0.0,0.0,0.0,2037,2826,1212,1912,1298,2788,2050,2901,1310,1039,1278,2804,2036,2811,1211,1912,1316,2794,2052,2884,1308,1040,1297,2806
1782219176.9923,5.6534,1,lf,0.0986,0.0986,-0.1000,0,0.3309,0.3314,-0.1024,-0.0004,0.0008,-0.0066,CLIMB,5,1,0,15.0,0.000,1.580,0,-1,0,-2.0,-15.0,-1.0,0.0,0.0,0.0,2037,2826,1212,1912,1298,2788,2050,2901,1310,1039,1278,2804,2036,2811,1211,1912,1316,2794,2052,2884,1308,1040,1297,2806
1782219177.0123,5.6734,1,lf,0.0986,0.0986,-0.1000,0,0.3307,0.3317,-0.1024,-0.0003,0.0006,-0.0066,CLIMB,5,1,0,15.0,0.000,1.600,0,-1,0,-2.0,-15.0,-1.0,0.0,0.0,0.0,2037,2826,1212,1912,1298,2788,2050,2901,1310,1039,1278,2804,2035,2811,1211,1912,1316,2793,2052,2884,1308,1040,1297,2806
1782219177.0322,5.6933,1,lf,0.0986,0.0986,-0.1000,0,0.3307,0.3317,-0.1024,-0.0002,0.0006,-0.0066,CLIMB,5,1,0,15.0,0.000,1.620,0,-1,0,-2.0,-15.0,-1.0,0.0,0.0,0.0,2037,2826,1212,1912,1298,2788,2050,2901,1310,1039,1278,2804,2035,2811,1211,1912,1316,2793,2052,2884,1308,1040,1297,2806
1782219177.0522,5.7133,1,lf,0.0986,0.0986,-0.1000,0,0.3307,0.3317,-0.1024,-0.0002,0.0005,-0.0066,CLIMB,5,1,0,15.0,0.000,1.640,0,-1,0,-2.0,-15.0,-1.0,0.0,0.0,0.0,2037,2826,1212,1912,1298,2788,2050,2901,1310,1039,1278,2804,2035,2811,1211,1912,1316,2793,2052,2884,1308,1040,1297,2806
1782219177.0722,5.7333,1,lf,0.0986,0.0986,-0.1000,0,0.3307,0.3317,-0.1024,-0.0002,0.0005,-0.0066,CLIMB,5,1,0,15.0,0.000,1.660,0,-1,0,-2.0,-15.0,-1.0,0.0,0.0,0.0,2037,2826,1212,1912,1298,2788,2050,2901,1310,1039,1278,2804,2035,2811,1211,1912,1316,2793,2052,2884,1308,1040,1297,2806
1782219177.0923,5.7534,1,lf,0.0986,0.0986,-0.1000,0,0.3307,0.3317,-0.1024,-0.0002,0.0005,-0.0066,CLIMB,5,1,0,15.0,0.000,1.680,0,-1,0,-1.0,-15.0,-1.0,0.0,0.0,0.0,2037,2826,1212,1912,1298,2788,2050,2901,1310,1039,1278,2804,2035,2811,1211,1912,1316,2793,2052,2884,1308,1040,1297,2806
1782219177.1124,5.7735,1,lf,0.0986,0.0986,-0.1000,0,0.3310,0.3315,-0.1024,-0.0003,0.0007,-0.0066,CLIMB,5,1,0,15.0,0.000,1.700,0,-1,0,-1.0,-15.0,0.0,0.0,0.0,0.0,2037,2826,1212,1912,1298,2788,2050,2901,1310,1039,1278,2804,2036,2811,1212,1912,1316,2793,2052,2884,1308,1040,1297,2806
1782219177.1323,5.7933,1,lf,0.0986,0.0986,-0.1000,0,0.3310,0.3315,-0.1024,-0.0004,0.0007,-0.0066,CLIMB,5,1,0,15.0,0.000,1.720,0,-1,0,-1.0,-15.0,0.0,0.0,0.0,0.0,2037,2826,1212,1912,1298,2788,2050,2901,1310,1039,1278,2804,2036,2811,1212,1912,1316,2793,2052,2884,1308,1040,1297,2806
1782219177.1523,5.8134,1,lf,0.0986,0.0986,-0.1000,0,0.3310,0.3315,-0.1024,-0.0004,0.0007,-0.0066,CLIMB,5,1,0,15.0,0.000,1.740,0,-1,0,-2.0,-15.0,-1.0,0.0,0.0,0.0,2037,2826,1212,1912,1298,2788,2050,2901,1310,1039,1278,2804,2036,2811,1212,1912,1316,2793,2052,2884,1308,1040,1297,2806
1782219177.1723,5.8334,1,lf,0.0986,0.0986,-0.1000,0,0.3307,0.3317,-0.1024,-0.0003,0.0006,-0.0066,CLIMB,5,1,0,15.0,0.000,1.760,0,-1,0,-1.0,-15.0,-1.0,0.0,0.0,0.0,2037,2826,1212,1912,1298,2788,2050,2901,1310,1039,1278,2804,2035,2811,1211,1912,1316,2793,2052,2884,1308,1040,1297,2806
1782219177.1923,5.8534,1,lf,0.0986,0.0986,-0.1000,0,0.3307,0.3317,-0.1024,-0.0003,0.0006,-0.0066,CLIMB,5,1,0,15.0,0.000,1.780,0,-1,0,-1.0,-15.0,-1.0,0.0,0.0,0.0,2037,2826,1212,1912,1298,2788,2050,2901,1310,1039,1278,2804,2035,2811,1211,1912,1316,2793,2052,2884,1308,1040,1297,2806
1782219177.2123,5.8734,1,lf,0.0986,0.0986,-0.1000,0,0.3307,0.3317,-0.1024,-0.0002,0.0006,-0.0066,CLIMB,5,1,0,15.0,0.000,1.800,0,-1,0,-2.0,-15.0,-1.0,0.0,0.0,0.0,2037,2826,1212,1912,1298,2788,2050,2901,1310,1039,1278,2804,2035,2811,1211,1912,1316,2793,2052,2884,1308,1040,1297,2806
1782219177.2323,5.8934,1,lf,0.0986,0.0986,-0.1000,0,0.3307,0.3317,-0.1024,-0.0002,0.0005,-0.0066,CLIMB,5,1,0,15.0,0.000,1.820,0,-1,0,-2.0,-15.0,-1.0,0.0,0.0,0.0,2037,2826,1212,1912,1298,2788,2050,2901,1310,1039,1278,2804,2035,2811,1211,1912,1316,2793,2052,2884,1308,1040,1297,2806
1782219177.2523,5.9134,1,lf,0.0986,0.0986,-0.1000,0,0.3307,0.3317,-0.1024,-0.0002,0.0005,-0.0066,CLIMB,5,1,0,15.0,0.000,1.840,0,-1,0,-1.0,-15.0,-1.0,0.0,0.0,0.0,2037,2826,1212,1912,1298,2788,2050,2901,1310,1039,1278,2804,2035,2811,1211,1912,1316,2793,2052,2884,1308,1040,1297,2806
1782219177.2723,5.9334,1,lf,0.0986,0.0986,-0.1000,0,0.3307,0.3317,-0.1024,-0.0002,0.0005,-0.0066,CLIMB,5,1,0,15.0,0.000,1.860,0,-1,0,-2.0,-15.0,-1.0,0.0,0.0,0.0,2037,2826,1212,1912,1298,2788,2050,2901,1310,1039,1278,2804,2035,2811,1211,1912,1316,2793,2052,2884,1308,1040,1297,2806
1782219177.2923,5.9534,1,lf,0.0986,0.0986,-0.1000,0,0.3307,0.3317,-0.1024,-0.0002,0.0005,-0.0066,CLIMB,5,1,0,15.0,0.000,1.880,0,-1,0,-2.0,-15.0,-1.0,0.0,0.0,0.0,2037,2826,1212,1912,1298,2788,2050,2901,1310,1039,1278,2804,2035,2811,1211,1912,1316,2793,2052,2884,1308,1040,1297,2806
1782219177.3123,5.9734,1,lf,0.0986,0.0986,-0.1000,0,0.3309,0.3314,-0.1024,-0.0003,0.0007,-0.0066,CLIMB,5,1,0,15.0,0.000,1.900,0,-1,0,-1.0,-15.0,-1.0,0.0,0.0,0.0,2037,2826,1212,1912,1298,2788,2050,2901,1310,1039,1278,2804,2036,2811,1211,1912,1316,2793,2052,2884,1308,1040,1297,2806
1782219177.3323,5.9934,1,lf,0.0986,0.0986,-0.1000,0,0.3309,0.3314,-0.1024,-0.0003,0.0007,-0.0066,CLIMB,5,1,0,15.0,0.000,1.920,0,-1,0,-1.0,-15.0,-1.0,0.0,0.0,0.0,2037,2826,1212,1912,1298,2788,2050,2901,1310,1039,1278,2804,2036,2811,1211,1912,1316,2793,2052,2884,1308,1040,1297,2806
1782219177.3523,6.0134,1,lf,0.0986,0.0986,-0.1000,0,0.3309,0.3314,-0.1024,-0.0004,0.0008,-0.0066,CLIMB,5,1,0,15.0,0.000,1.940,0,-1,0,-1.0,-15.0,-1.0,0.0,0.0,0.0,2037,2826,1212,1912,1298,2788,2050,2901,1310,1039,1278,2804,2036,2811,1211,1912,1316,2793,2052,2884,1308,1040,1297,2806
1782219177.3723,6.0334,1,lf,0.0986,0.0986,-0.1000,0,0.3310,0.3315,-0.1024,-0.0004,0.0008,-0.0066,CLIMB,5,1,0,15.0,0.000,1.960,0,-1,0,-1.0,-15.0,0.0,0.0,0.0,0.0,2037,2826,1212,1912,1298,2788,2050,2901,1310,1039,1278,2804,2036,2811,1212,1912,1316,2793,2052,2884,1308,1040,1297,2806
1782219177.3923,6.0534,1,lf,0.0986,0.0986,-0.1000,0,0.3310,0.3315,-0.1024,-0.0004,0.0008,-0.0065,CLIMB,5,1,0,15.0,0.000,1.980,0,-1,0,-1.0,-15.0,0.0,0.0,0.0,0.0,2037,2826,1212,1912,1298,2788,2050,2901,1310,1039,1278,2804,2036,2811,1212,1912,1316,2793,2052,2884,1308,1040,1297,2806
1782219177.4124,6.0734,1,lf,0.0986,0.0986,-0.1000,0,0.3307,0.3317,-0.1024,-0.0003,0.0006,-0.0065,CLIMB,5,1,0,15.0,0.000,2.000,0,-1,0,-2.0,-15.0,-1.0,0.0,0.0,0.0,2037,2826,1212,1912,1298,2788,2050,2901,1310,1039,1278,2804,2035,2811,1211,1912,1316,2793,2052,2884,1308,1040,1297,2806
1782219177.4323,6.0934,1,lf,0.0986,0.0986,-0.1000,0,0.3307,0.3317,-0.1024,-0.0003,0.0006,-0.0065,CLIMB,5,1,0,15.0,0.000,2.020,0,-1,0,-2.0,-15.0,0.0,0.0,0.0,0.0,2037,2826,1212,1912,1298,2788,2050,2901,1310,1039,1278,2804,2035,2811,1211,1912,1316,2793,2052,2884,1308,1040,1297,2806
1782219177.4523,6.1134,1,lf,0.0986,0.0986,-0.1000,0,0.3307,0.3317,-0.1024,-0.0002,0.0005,-0.0065,CLIMB,5,1,0,15.0,0.000,2.040,0,-1,0,-2.0,-15.0,0.0,0.0,0.0,0.0,2037,2826,1212,1912,1298,2788,2050,2901,1310,1039,1278,2804,2035,2811,1211,1912,1316,2793,2052,2884,1308,1040,1297,2806
1782219177.4722,6.1333,1,lf,0.0986,0.0986,-0.1000,0,0.3309,0.3314,-0.1024,-0.0003,0.0007,-0.0065,CLIMB,5,1,0,15.0,0.000,2.060,0,-1,0,-1.0,-15.0,-1.0,0.0,0.0,0.0,2037,2826,1212,1912,1298,2788,2050,2901,1310,1039,1278,2804,2036,2811,1211,1912,1316,2793,2052,2884,1308,1040,1297,2806
1782219177.4923,6.1534,1,lf,0.0986,0.0986,-0.1000,0,0.3309,0.3314,-0.1024,-0.0003,0.0007,-0.0065,CLIMB,5,1,0,15.0,0.000,2.080,0,-1,0,-1.0,-15.0,-1.0,0.0,0.0,0.0,2037,2826,1212,1912,1298,2788,2050,2901,1310,1039,1278,2804,2036,2811,1211,1912,1316,2793,2052,2884,1308,1040,1297,2806
1782219177.5123,6.1734,1,lf,0.0986,0.0986,-0.1000,0,0.3309,0.3314,-0.1024,-0.0004,0.0008,-0.0065,CLIMB,5,1,0,15.0,0.000,2.100,0,-1,0,-1.0,-15.0,-1.0,0.0,0.0,0.0,2037,2826,1212,1912,1298,2788,2050,2901,1310,1039,1278,2804,2036,2811,1211,1912,1316,2793,2052,2884,1308,1040,1297,2806
1782219177.5323,6.1934,1,lf,0.0986,0.0986,-0.1000,0,0.3309,0.3314,-0.1024,-0.0004,0.0008,-0.0065,CLIMB,5,1,0,15.0,0.000,2.120,0,-1,0,-2.0,-15.0,-1.0,0.0,0.0,0.0,2037,2826,1212,1912,1298,2788,2050,2901,1310,1039,1278,2804,2036,2811,1211,1912,1316,2793,2052,2884,1308,1040,1297,2806
1782219177.5524,6.2134,1,lf,0.0986,0.0986,-0.1000,0,0.3309,0.3314,-0.1024,-0.0004,0.0008,-0.0065,CLIMB,5,1,0,15.0,0.000,2.140,0,-1,0,-2.0,-15.0,-1.0,0.0,0.0,0.0,2037,2826,1212,1912,1298,2788,2050,2901,1310,1039,1278,2804,2036,2811,1211,1912,1316,2793,2052,2884,1308,1040,1297,2806
1782219177.5723,6.2334,1,lf,0.0986,0.0986,-0.1000,0,0.3307,0.3317,-0.1024,-0.0003,0.0007,-0.0065,CLIMB,5,1,0,15.0,0.000,2.160,0,-1,0,-2.0,-15.0,-1.0,0.0,0.0,0.0,2037,2826,1212,1912,1298,2788,2050,2901,1310,1039,1278,2804,2035,2811,1211,1912,1316,2793,2052,2884,1308,1040,1297,2805
1782219177.5923,6.2534,1,lf,0.0986,0.0986,-0.1000,0,0.3307,0.3317,-0.1024,-0.0002,0.0006,-0.0065,CLIMB,5,1,0,15.0,0.000,2.180,0,-1,0,-1.0,-15.0,-1.0,0.0,0.0,0.0,2037,2826,1212,1912,1298,2788,2050,2901,1310,1039,1278,2804,2035,2811,1211,1912,1316,2793,2052,2884,1308,1040,1297,2805
1782219177.6124,6.2734,1,lf,0.0986,0.0986,-0.1000,0,0.3307,0.3317,-0.1024,-0.0002,0.0005,-0.0065,CLIMB,5,1,0,15.0,0.000,2.200,0,-1,0,-1.0,-15.0,-1.0,0.0,0.0,0.0,2037,2826,1212,1912,1298,2788,2050,2901,1310,1039,1278,2804,2035,2811,1211,1912,1316,2793,2052,2884,1308,1040,1297,2806
1782219177.6322,6.2933,1,lf,0.0986,0.0986,-0.1000,0,0.3307,0.3317,-0.1024,-0.0002,0.0005,-0.0065,CLIMB,5,1,0,15.0,0.000,2.220,0,-1,0,-2.0,-15.0,-1.0,0.0,0.0,0.0,2037,2826,1212,1912,1298,2788,2050,2901,1310,1039,1278,2804,2035,2811,1211,1912,1316,2793,2052,2884,1308,1040,1297,2806
1782219177.6527,6.3138,1,lf,0.0986,0.0986,-0.1000,0,0.3307,0.3317,-0.1024,-0.0002,0.0005,-0.0065,CLIMB,5,1,0,15.0,0.000,2.240,0,-1,0,-1.0,-15.0,-1.0,0.0,0.0,0.0,2037,2826,1212,1912,1298,2788,2050,2901,1310,1039,1278,2804,2036,2811,1211,1912,1316,2793,2052,2884,1308,1040,1297,2806
1782219177.6723,6.3334,1,lf,0.0986,0.0986,-0.1000,0,0.3309,0.3314,-0.1024,-0.0003,0.0007,-0.0065,CLIMB,5,1,0,15.0,0.000,2.260,0,-1,0,-1.0,-15.0,-1.0,0.0,0.0,0.0,2037,2826,1212,1912,1298,2788,2050,2901,1310,1039,1278,2804,2036,2811,1211,1912,1316,2793,2052,2884,1308,1040,1297,2806
1782219177.6923,6.3534,1,lf,0.0986,0.0986,-0.1000,0,0.3309,0.3314,-0.1024,-0.0003,0.0007,-0.0065,CLIMB,5,1,0,15.0,0.000,2.280,0,-1,0,-1.0,-15.0,-1.0,0.0,0.0,0.0,2037,2826,1212,1912,1298,2788,2050,2901,1310,1039,1278,2804,2036,2811,1211,1912,1316,2793,2052,2884,1308,1040,1297,2806
1782219177.7123,6.3734,1,lf,0.0986,0.0986,-0.1000,0,0.3309,0.3314,-0.1024,-0.0004,0.0008,-0.0065,CLIMB,5,1,0,15.0,0.000,2.300,0,-1,0,-1.0,-15.0,-1.0,0.0,0.0,0.0,2037,2826,1212,1912,1298,2788,2050,2901,1310,1039,1278,2804,2036,2811,1211,1912,1316,2793,2052,2884,1308,1040,1297,2806
1782219177.7323,6.3934,1,lf,0.0986,0.0986,-0.1000,0,0.3309,0.3314,-0.1024,-0.0004,0.0008,-0.0065,CLIMB,5,1,0,15.0,0.000,2.320,0,-1,0,-1.0,-15.0,-1.0,0.0,0.0,0.0,2037,2826,1212,1912,1298,2788,2050,2901,1310,1039,1278,2804,2036,2811,1211,1912,1316,2793,2052,2884,1308,1040,1297,2806
1782219177.7523,6.4134,1,lf,0.0986,0.0986,-0.1000,0,0.3309,0.3314,-0.1024,-0.0004,0.0008,-0.0065,CLIMB,5,1,0,15.0,0.000,2.340,0,-1,0,-2.0,-15.0,-1.0,0.0,0.0,0.0,2037,2826,1212,1912,1298,2788,2050,2901,1310,1039,1278,2804,2036,2811,1211,1912,1316,2793,2052,2884,1308,1040,1297,2806
1782219177.7724,6.4334,1,lf,0.0986,0.0986,-0.1000,0,0.3307,0.3317,-0.1024,-0.0003,0.0006,-0.0065,CLIMB,5,1,0,15.0,0.000,2.360,0,-1,0,-2.0,-15.0,-1.0,0.0,0.0,0.0,2037,2826,1212,1912,1298,2788,2050,2901,1310,1039,1278,2804,2035,2811,1211,1912,1316,2793,2052,2884,1308,1040,1297,2806
1782219177.7923,6.4534,1,lf,0.0986,0.0986,-0.1000,0,0.3307,0.3317,-0.1024,-0.0002,0.0006,-0.0065,CLIMB,5,1,0,15.0,0.000,2.380,0,-1,0,-2.0,-15.0,-1.0,0.0,0.0,0.0,2037,2826,1212,1912,1298,2788,2050,2901,1310,1039,1278,2804,2035,2811,1211,1912,1316,2793,2052,2884,1308,1040,1297,2806
1782219177.8123,6.4734,1,lf,0.0986,0.0986,-0.1000,0,0.3307,0.3317,-0.1024,-0.0002,0.0005,-0.0065,CLIMB,5,1,0,15.0,0.000,2.400,0,-1,0,-2.0,-15.0,-1.0,0.0,0.0,0.0,2037,2826,1212,1912,1298,2788,2050,2901,1310,1039,1278,2804,2035,2811,1211,1913,1316,2793,2052,2884,1308,1040,1297,2806
1782219177.8322,6.4933,1,lf,0.0986,0.0986,-0.1000,0,0.3307,0.3317,-0.1024,-0.0002,0.0005,-0.0065,CLIMB,5,1,0,15.0,0.000,2.420,0,-1,0,-2.0,-15.0,-1.0,0.0,0.0,0.0,2037,2826,1212,1912,1298,2788,2050,2901,1310,1039,1278,2804,2035,2811,1211,1913,1316,2793,2052,2884,1308,1040,1297,2806
1782219177.8523,6.5134,1,lf,0.0986,0.0986,-0.1000,0,0.3307,0.3317,-0.1024,-0.0002,0.0005,-0.0065,CLIMB,5,1,0,15.0,0.000,2.440,0,-1,0,-2.0,-15.0,-1.0,0.0,0.0,0.0,2037,2826,1212,1912,1298,2788,2050,2901,1310,1039,1278,2804,2035,2811,1211,1913,1316,2793,2052,2884,1308,1040,1297,2806
1782219177.8723,6.5334,1,lf,0.0986,0.0986,-0.1000,0,0.3307,0.3317,-0.1024,-0.0002,0.0005,-0.0065,CLIMB,5,1,0,15.0,0.000,2.460,0,-1,0,-2.0,-15.0,-1.0,0.0,0.0,0.0,2037,2826,1212,1912,1298,2788,2050,2901,1310,1039,1278,2804,2035,2811,1211,1912,1316,2793,2052,2884,1308,1040,1297,2806
1782219177.8923,6.5534,1,lf,0.0986,0.0986,-0.1000,0,0.3307,0.3317,-0.1024,-0.0002,0.0005,-0.0065,CLIMB,5,1,0,15.0,0.000,2.480,0,-1,0,-1.0,-15.0,-1.0,0.0,0.0,0.0,2037,2826,1212,1912,1298,2788,2050,2901,1310,1039,1278,2804,2035,2811,1211,1912,1316,2793,2052,2884,1308,1040,1297,2806
1782219177.9123,6.5734,1,lf,0.0986,0.0986,-0.1000,0,0.3309,0.3314,-0.1024,-0.0003,0.0006,-0.0064,CLIMB,5,1,0,15.0,0.000,2.500,0,-1,0,-1.0,-15.0,-1.0,0.0,0.0,0.0,2037,2826,1212,1912,1298,2788,2050,2901,1310,1039,1278,2804,2036,2811,1211,1912,1316,2793,2052,2884,1308,1040,1297,2806
1782219177.9323,6.5934,1,lf,0.0986,0.0986,-0.1000,0,0.3309,0.3314,-0.1024,-0.0003,0.0007,-0.0064,CLIMB,5,1,0,15.0,0.000,2.520,0,-1,0,-1.0,-15.0,-1.0,0.0,0.0,0.0,2037,2826,1212,1912,1298,2788,2050,2901,1310,1039,1278,2804,2036,2811,1211,1912,1316,2793,2052,2884,1308,1040,1297,2806
1782219177.9523,6.6134,1,lf,0.0986,0.0986,-0.1000,0,0.3309,0.3314,-0.1024,-0.0003,0.0007,-0.0065,CLIMB,5,1,0,15.0,0.000,2.540,0,-1,0,-2.0,-15.0,-1.0,0.0,0.0,0.0,2037,2826,1212,1912,1298,2788,2050,2901,1310,1039,1278,2804,2036,2811,1211,1912,1316,2793,2052,2884,1308,1040,1297,2806
1782219177.9723,6.6334,1,lf,0.0986,0.0986,-0.1000,0,0.3307,0.3317,-0.1024,-0.0003,0.0006,-0.0064,CLIMB,5,1,0,15.0,0.000,2.560,0,-1,0,-2.0,-15.0,-1.0,0.0,0.0,0.0,2037,2826,1212,1912,1298,2788,2050,2901,1310,1039,1278,2804,2035,2811,1211,1912,1316,2793,2052,2884,1308,1040,1297,2806
1782219177.9923,6.6534,1,lf,0.0986,0.0986,-0.1000,0,0.3307,0.3317,-0.1024,-0.0002,0.0006,-0.0064,CLIMB,5,1,0,15.0,0.000,2.580,0,-1,0,-2.0,-15.0,-1.0,0.0,0.0,0.0,2037,2826,1212,1912,1298,2788,2050,2901,1310,1039,1278,2804,2035,2811,1211,1912,1316,2793,2052,2884,1308,1040,1297,2806
1782219178.0123,6.6734,1,lf,0.0986,0.0986,-0.1000,0,0.3308,0.3313,-0.1026,-0.0002,0.0007,-0.0063,CLIMB,5,1,0,16.0,0.000,2.600,0,-1,0,-1.0,-16.0,-1.0,0.0,0.0,0.0,2037,2826,1212,1912,1298,2788,2050,2901,1310,1039,1278,2804,2036,2810,1211,1912,1316,2793,2052,2884,1308,1040,1297,2806
1782219178.0323,6.6934,1,lf,0.0986,0.0986,-0.1000,0,0.3308,0.3313,-0.1026,-0.0002,0.0008,-0.0063,CLIMB,5,1,0,16.0,0.000,2.620,0,-1,0,-1.0,-16.0,-1.0,0.0,0.0,0.0,2037,2826,1212,1912,1298,2788,2050,2901,1310,1039,1278,2804,2036,2810,1211,1912,1316,2793,2052,2884,1308,1040,1297,2806
1782219178.0522,6.7133,1,lf,0.0986,0.0986,-0.1000,0,0.3308,0.3313,-0.1026,-0.0002,0.0008,-0.0063,CLIMB,5,1,0,15.0,0.000,2.640,0,-1,0,-1.0,-15.0,-1.0,0.0,0.0,0.0,2037,2826,1212,1912,1298,2788,2050,2901,1310,1039,1278,2804,2036,2810,1211,1912,1316,2793,2052,2884,1308,1040,1297,2806
1782219178.0723,6.7334,1,lf,0.0986,0.0986,-0.1000,0,0.3307,0.3317,-0.1024,-0.0002,0.0007,-0.0064,CLIMB,5,1,0,15.0,0.000,2.660,0,-1,0,-2.0,-15.0,-1.0,0.0,0.0,0.0,2037,2826,1212,1912,1298,2788,2050,2901,1310,1039,1278,2804,2035,2811,1211,1912,1316,2793,2052,2884,1308,1040,1297,2806
1782219178.0923,6.7534,1,lf,0.0986,0.0986,-0.1000,0,0.3307,0.3317,-0.1024,-0.0002,0.0006,-0.0064,CLIMB,5,1,0,15.0,0.000,2.680,0,-1,0,-2.0,-15.0,-1.0,0.0,0.0,0.0,2037,2826,1212,1912,1298,2788,2050,2901,1310,1039,1278,2804,2035,2811,1211,1912,1316,2793,2052,2884,1308,1040,1297,2806
1782219178.1123,6.7734,1,lf,0.0986,0.0986,-0.1000,0,0.3306,0.3315,-0.1026,-0.0001,0.0006,-0.0063,CLIMB,5,1,0,16.0,0.000,2.700,0,-1,0,-2.0,-16.0,-1.0,0.0,0.0,0.0,2037,2826,1212,1912,1298,2788,2050,2901,1310,1039,1278,2804,2035,2810,1211,1912,1316,2793,2052,2884,1308,1040,1297,2806
1782219178.1323,6.7934,1,lf,0.0986,0.0986,-0.1000,0,0.3306,0.3315,-0.1026,-0.0001,0.0006,-0.0063,CLIMB,5,1,0,15.0,0.000,2.720,0,-1,0,-1.0,-15.0,-1.0,0.0,0.0,0.0,2037,2826,1212,1912,1298,2788,2050,2901,1310,1039,1278,2804,2035,2810,1211,1912,1316,2793,2052,2884,1308,1040,1297,2806
1782219178.1523,6.8134,1,lf,0.0986,0.0986,-0.1000,0,0.3306,0.3315,-0.1026,-0.0001,0.0006,-0.0063,CLIMB,5,1,0,15.0,0.000,2.740,0,-1,0,-1.0,-15.0,-1.0,0.0,0.0,0.0,2037,2826,1212,1912,1298,2788,2050,2901,1310,1039,1278,2804,2035,2810,1211,1912,1316,2793,2052,2884,1308,1040,1297,2806
1782219178.1722,6.8333,1,lf,0.0986,0.0986,-0.1000,0,0.3306,0.3315,-0.1026,-0.0001,0.0006,-0.0063,CLIMB,5,1,0,16.0,0.000,2.760,0,-1,0,-2.0,-16.0,-1.0,0.0,0.0,0.0,2037,2826,1212,1912,1298,2788,2050,2901,1310,1039,1278,2804,2035,2810,1211,1912,1316,2793,2052,2884,1308,1040,1297,2806
1782219178.1923,6.8533,1,lf,0.0986,0.0986,-0.1000,0,0.3306,0.3315,-0.1026,-0.0001,0.0006,-0.0062,CLIMB,5,1,0,16.0,0.000,2.780,0,-1,0,-2.0,-16.0,-1.0,0.0,0.0,0.0,2037,2826,1212,1912,1298,2788,2050,2901,1310,1039,1278,2804,2035,2810,1211,1912,1316,2793,2052,2884,1308,1040,1297,2806
1782219178.2122,6.8733,1,lf,0.0986,0.0986,-0.1000,0,0.3309,0.3314,-0.1024,-0.0002,0.0007,-0.0063,CLIMB,5,1,0,15.0,0.000,2.800,0,-1,0,-1.0,-15.0,-1.0,0.0,0.0,0.0,2037,2826,1212,1912,1298,2788,2050,2901,1310,1039,1278,2804,2036,2811,1211,1912,1316,2793,2052,2884,1308,1040,1297,2806
1782219178.2323,6.8934,1,lf,0.0986,0.0986,-0.1000,0,0.3309,0.3314,-0.1024,-0.0003,0.0008,-0.0064,CLIMB,5,1,0,15.0,0.000,2.820,0,-1,0,-2.0,-15.0,-1.0,0.0,0.0,0.0,2037,2826,1212,1912,1298,2788,2050,2901,1310,1039,1278,2804,2036,2811,1211,1912,1316,2793,2052,2884,1308,1040,1297,2806
1782219178.2523,6.9134,1,lf,0.0986,0.0986,-0.1000,0,0.3309,0.3314,-0.1024,-0.0003,0.0008,-0.0064,CLIMB,5,1,0,15.0,0.000,2.840,0,-1,0,-2.0,-15.0,-1.0,0.0,0.0,0.0,2037,2826,1212,1912,1298,2788,2050,2901,1310,1039,1278,2804,2036,2811,1211,1912,1316,2793,2052,2884,1308,1040,1297,2806
1782219178.2723,6.9334,1,lf,0.0986,0.0986,-0.1000,0,0.3307,0.3317,-0.1024,-0.0003,0.0006,-0.0064,CLIMB,5,1,0,15.0,0.000,2.860,0,-1,0,-2.0,-15.0,-1.0,0.0,0.0,0.0,2037,2826,1212,1912,1298,2788,2050,2901,1310,1039,1278,2804,2035,2811,1211,1912,1316,2793,2052,2885,1308,1040,1297,2806
1782219178.2923,6.9534,1,lf,0.0986,0.0986,-0.1000,0,0.3307,0.3317,-0.1024,-0.0002,0.0006,-0.0064,CLIMB,5,1,0,16.0,0.000,2.880,0,-1,0,-2.0,-16.0,-1.0,0.0,0.0,0.0,2037,2826,1212,1912,1298,2788,2050,2901,1310,1039,1278,2804,2035,2811,1211,1912,1316,2793,2052,2885,1308,1040,1297,2806
1782219178.3122,6.9733,1,lf,0.0986,0.0986,-0.1000,0,0.3306,0.3315,-0.1026,-0.0001,0.0006,-0.0063,CLIMB,5,1,0,16.0,0.000,2.900,0,-1,0,-2.0,-16.0,-1.0,0.0,0.0,0.0,2037,2826,1212,1912,1298,2788,2050,2901,1310,1039,1278,2804,2035,2810,1211,1912,1316,2793,2052,2885,1308,1040,1297,2806
1782219178.3323,6.9934,1,lf,0.0986,0.0986,-0.1000,0,0.3306,0.3315,-0.1026,-0.0001,0.0006,-0.0062,CLIMB,5,1,0,15.0,0.000,2.920,0,-1,0,-2.0,-15.0,-1.0,0.0,0.0,0.0,2037,2826,1212,1912,1298,2788,2050,2901,1310,1039,1278,2804,2035,2810,1211,1912,1316,2793,2052,2885,1308,1040,1297,2806
1782219178.3523,7.0134,1,lf,0.0986,0.0986,-0.1000,0,0.3306,0.3315,-0.1026,-0.0001,0.0006,-0.0062,CLIMB,5,1,0,15.0,0.000,2.940,0,-1,0,-2.0,-15.0,-1.0,0.0,0.0,0.0,2037,2826,1212,1912,1298,2788,2050,2901,1310,1039,1278,2804,2035,2810,1211,1912,1316,2793,2052,2885,1308,1040,1297,2806
1782219178.3722,7.0333,1,lf,0.0986,0.0986,-0.1000,0,0.3309,0.3314,-0.1024,-0.0002,0.0007,-0.0063,CLIMB,5,1,0,15.0,0.000,2.960,0,-1,0,-1.0,-15.0,-1.0,0.0,0.0,0.0,2037,2826,1212,1912,1298,2788,2050,2901,1310,1039,1278,2804,2036,2811,1211,1912,1316,2794,2052,2884,1308,1040,1297,2806
1782219178.3923,7.0534,1,lf,0.0986,0.0986,-0.1000,0,0.3309,0.3314,-0.1024,-0.0003,0.0007,-0.0063,CLIMB,5,1,0,15.0,0.000,2.980,0,-1,0,-1.0,-15.0,-1.0,0.0,0.0,0.0,2037,2826,1212,1912,1298,2788,2050,2901,1310,1039,1278,2804,2036,2811,1211,1912,1316,2794,2052,2884,1308,1040,1297,2806
1782219178.4122,7.0733,1,lf,0.0986,0.0986,-0.1000,0,0.3309,0.3314,-0.1024,-0.0003,0.0008,-0.0064,CLIMB,5,1,0,15.0,0.000,3.000,0,-1,0,-1.0,-15.0,-1.0,0.0,0.0,0.0,2037,2826,1212,1912,1298,2788,2050,2901,1310,1039,1278,2804,2036,2811,1211,1912,1316,2793,2052,2884,1308,1040,1297,2806
1782219178.4323,7.0934,1,lf,0.0986,0.0986,-0.1000,0,0.3309,0.3314,-0.1024,-0.0003,0.0008,-0.0064,CLIMB,5,1,0,15.0,0.000,3.020,1,-1,0,-1.0,-15.0,-1.0,0.0,0.0,0.0,2037,2826,1212,1912,1298,2788,2050,2901,1310,1039,1278,2804,2036,2811,1211,1912,1316,2793,2052,2884,1308,1040,1297,2806
1782219178.4523,7.1134,1,lf,0.0986,0.0986,-0.1000,0,0.3309,0.3314,-0.1024,-0.0004,0.0008,-0.0064,CLIMB,5,1,0,16.0,0.000,3.040,1,-1,0,-1.0,-16.0,-1.0,0.0,0.0,0.0,2037,2826,1212,1912,1298,2788,2050,2901,1310,1039,1278,2804,2036,2810,1211,1912,1316,2793,2052,2884,1308,1040,1297,2806
1782219178.4723,7.1334,1,lf,0.0986,0.0986,-0.1000,0,0.3308,0.3313,-0.1026,-0.0003,0.0008,-0.0063,CLIMB,5,1,0,16.0,0.000,3.060,1,-1,0,-1.0,-16.0,-1.0,0.0,0.0,0.0,2037,2826,1212,1912,1298,2788,2050,2901,1310,1039,1278,2804,2036,2810,1211,1912,1316,2793,2052,2884,1308,1040,1297,2806
1782219178.4923,7.1534,1,lf,0.0986,0.0986,-0.1000,0,0.3308,0.3313,-0.1026,-0.0003,0.0009,-0.0062,CLIMB,5,1,0,15.0,0.000,3.080,1,-1,0,-1.0,-15.0,-1.0,0.0,0.0,0.0,2037,2826,1212,1912,1298,2788,2050,2901,1310,1039,1278,2804,2036,2810,1211,1912,1316,2793,2052,2884,1308,1040,1297,2806
1782219178.5123,7.1734,1,lf,0.0986,0.0986,-0.1000,0,0.3307,0.3317,-0.1024,-0.0002,0.0007,-0.0063,CLIMB,5,1,0,15.0,0.000,3.100,1,-1,0,-1.0,-15.0,-1.0,0.0,0.0,0.0,2037,2826,1212,1912,1298,2788,2050,2901,1310,1039,1278,2804,2035,2811,1211,1912,1316,2793,2052,2884,1308,1040,1297,2806
1782219178.5323,7.1934,1,lf,0.0986,0.0986,-0.1000,0,0.3307,0.3317,-0.1024,-0.0002,0.0006,-0.0063,CLIMB,5,1,0,15.0,0.000,3.120,1,-1,0,-2.0,-15.0,-1.0,0.0,0.0,0.0,2037,2826,1212,1912,1298,2788,2050,2901,1310,1039,1278,2804,2035,2811,1211,1912,1316,2793,2052,2884,1308,1040,1297,2806
1782219178.5525,7.2136,1,lf,0.0986,0.0986,-0.1000,0,0.3307,0.3317,-0.1024,-0.0002,0.0005,-0.0063,CLIMB,5,1,0,16.0,0.000,3.140,1,-1,0,-1.0,-16.0,-1.0,0.0,0.0,0.0,2037,2826,1212,1912,1298,2788,2050,2901,1310,1039,1278,2804,2036,2810,1211,1912,1316,2793,2052,2884,1308,1040,1297,2806
1782219178.5723,7.2334,1,lf,0.0986,0.0986,-0.1000,0,0.3308,0.3313,-0.1026,-0.0002,0.0007,-0.0063,CLIMB,5,1,0,16.0,0.000,3.160,1,-1,0,-1.0,-16.0,-1.0,0.0,0.0,0.0,2037,2826,1212,1912,1298,2788,2050,2901,1310,1039,1278,2804,2036,2810,1211,1912,1316,2793,2052,2884,1308,1040,1297,2806
1782219178.5923,7.2534,1,lf,0.0986,0.0986,-0.1000,0,0.3308,0.3313,-0.1026,-0.0002,0.0008,-0.0062,CLIMB,5,1,0,15.0,0.000,3.180,1,-1,0,-1.0,-15.0,-1.0,0.0,0.0,0.0,2037,2826,1212,1912,1298,2788,2050,2901,1310,1039,1278,2804,2036,2810,1211,1912,1316,2793,2052,2884,1308,1040,1297,2806
1782219178.6122,7.2733,1,lf,0.0986,0.0986,-0.1000,0,0.3307,0.3317,-0.1024,-0.0002,0.0006,-0.0063,CLIMB,5,1,0,15.0,0.000,3.200,1,-1,0,-2.0,-15.0,-1.0,0.0,0.0,0.0,2037,2826,1212,1912,1298,2788,2050,2901,1310,1039,1278,2804,2035,2811,1211,1912,1316,2793,2052,2884,1308,1040,1297,2806
1782219178.6322,7.2933,1,lf,0.0986,0.0986,-0.1000,0,0.3307,0.3317,-0.1024,-0.0002,0.0006,-0.0063,CLIMB,5,1,0,15.0,0.000,3.220,1,-1,0,-2.0,-15.0,-1.0,0.0,0.0,0.0,2037,2826,1212,1912,1298,2788,2050,2901,1310,1039,1278,2804,2035,2811,1211,1912,1316,2793,2052,2884,1308,1040,1297,2806
1782219178.6523,7.3134,1,lf,0.0986,0.0986,-0.1000,0,0.3307,0.3317,-0.1024,-0.0002,0.0005,-0.0063,CLIMB,5,1,0,15.0,0.000,3.240,1,-1,0,-2.0,-15.0,-1.0,0.0,0.0,0.0,2037,2826,1212,1912,1298,2788,2050,2901,1310,1039,1278,2804,2035,2811,1211,1912,1316,2793,2052,2884,1308,1040,1297,2806
1782219178.6723,7.3334,1,lf,0.0986,0.0986,-0.1000,0,0.3307,0.3317,-0.1024,-0.0002,0.0005,-0.0064,CLIMB,5,1,0,15.0,0.000,3.260,1,-1,0,-2.0,-15.0,-1.0,0.0,0.0,0.0,2037,2826,1212,1912,1298,2788,2050,2901,1310,1039,1278,2804,2035,2811,1211,1912,1316,2793,2052,2884,1308,1040,1297,2806
1782219178.6923,7.3534,1,lf,0.0986,0.0986,-0.1000,0,0.3307,0.3317,-0.1024,-0.0002,0.0005,-0.0064,CLIMB,5,1,0,15.0,0.000,3.280,1,-1,0,-2.0,-15.0,-1.0,0.0,0.0,0.0,2037,2826,1212,1912,1298,2788,2050,2901,1310,1039,1278,2804,2035,2811,1211,1912,1316,2793,2052,2884,1308,1040,1297,2806
1782219178.7122,7.3733,1,lf,0.0986,0.0986,-0.1000,0,0.3307,0.3317,-0.1024,-0.0002,0.0005,-0.0064,CLIMB,5,1,0,15.0,0.000,3.300,1,-1,0,-2.0,-15.0,-1.0,0.0,0.0,0.0,2037,2826,1212,1912,1298,2788,2050,2901,1310,1039,1278,2804,2035,2811,1211,1912,1316,2793,2052,2884,1308,1040,1297,2806
1782219178.7323,7.3934,1,lf,0.0986,0.0986,-0.1000,0,0.3307,0.3317,-0.1024,-0.0002,0.0005,-0.0064,CLIMB,5,1,0,15.0,0.000,3.320,1,-1,0,-2.0,-15.0,-1.0,0.0,0.0,0.0,2037,2826,1212,1912,1298,2788,2050,2901,1310,1039,1278,2804,2035,2811,1211,1912,1316,2793,2052,2884,1308,1040,1297,2806
1782219178.7522,7.4133,1,lf,0.0986,0.0986,-0.1000,0,0.3307,0.3317,-0.1024,-0.0002,0.0005,-0.0064,CLIMB,5,1,0,15.0,0.000,3.340,1,-1,0,-1.0,-15.0,-1.0,0.0,0.0,0.0,2037,2826,1212,1912,1298,2788,2050,2901,1310,1039,1278,2804,2035,2811,1211,1912,1316,2793,2052,2884,1308,1040,1297,2806
1782219178.7723,7.4334,1,lf,0.0986,0.0986,-0.1000,0,0.3309,0.3314,-0.1024,-0.0003,0.0006,-0.0064,CLIMB,5,1,0,15.0,0.000,3.360,1,-1,0,-1.0,-15.0,-1.0,0.0,0.0,0.0,2037,2826,1212,1912,1298,2788,2050,2901,1310,1039,1278,2804,2036,2811,1211,1912,1316,2793,2052,2884,1308,1040,1297,2806
1782219178.7923,7.4534,1,lf,0.0986,0.0986,-0.1000,0,0.3309,0.3314,-0.1024,-0.0003,0.0007,-0.0064,CLIMB,5,1,0,15.0,0.000,3.380,1,-1,0,-1.0,-15.0,-1.0,0.0,0.0,0.0,2037,2826,1212,1912,1298,2788,2050,2901,1310,1039,1278,2804,2036,2811,1211,1912,1316,2793,2052,2884,1308,1040,1297,2806
1782219178.8122,7.4733,1,lf,0.0986,0.0986,-0.1000,0,0.3307,0.3317,-0.1024,-0.0002,0.0006,-0.0063,CLIMB,5,1,0,15.0,0.000,3.400,1,-1,0,-2.0,-15.0,-1.0,0.0,0.0,0.0,2037,2826,1212,1912,1298,2788,2050,2901,1310,1039,1278,2804,2035,2811,1211,1912,1316,2793,2052,2884,1308,1040,1297,2806
1782219178.8323,7.4934,1,lf,0.0986,0.0986,-0.1000,0,0.3307,0.3317,-0.1024,-0.0002,0.0005,-0.0063,CLIMB,5,1,0,15.0,0.000,3.420,1,-1,0,-2.0,-15.0,-1.0,0.0,0.0,0.0,2037,2826,1212,1912,1298,2788,2050,2901,1310,1039,1278,2804,2035,2811,1211,1912,1316,2793,2052,2884,1308,1040,1297,2806
1782219178.8524,7.5135,1,lf,0.0986,0.0986,-0.1000,0,0.3307,0.3317,-0.1024,-0.0002,0.0005,-0.0063,CLIMB,5,1,0,15.0,0.000,3.440,1,-1,0,-2.0,-15.0,-1.0,0.0,0.0,0.0,2037,2826,1212,1912,1298,2788,2050,2901,1310,1039,1278,2804,2035,2811,1211,1912,1316,2793,2052,2884,1308,1040,1297,2806
1782219178.8723,7.5334,1,lf,0.0986,0.0986,-0.1000,0,0.3309,0.3314,-0.1024,-0.0003,0.0007,-0.0063,CLIMB,5,1,0,15.0,0.000,3.460,1,-1,0,-1.0,-15.0,-1.0,0.0,0.0,0.0,2037,2826,1212,1912,1298,2788,2050,2901,1310,1039,1278,2804,2036,2811,1211,1912,1316,2793,2052,2884,1308,1040,1297,2806
1782219178.8924,7.5534,1,lf,0.0986,0.0986,-0.1000,0,0.3309,0.3314,-0.1024,-0.0003,0.0007,-0.0063,CLIMB,5,1,0,15.0,0.000,3.480,1,-1,0,-1.0,-15.0,-1.0,0.0,0.0,0.0,2037,2826,1212,1912,1298,2788,2050,2901,1310,1039,1278,2804,2036,2811,1211,1912,1316,2793,2052,2884,1308,1040,1297,2806
1782219178.9122,7.5733,1,lf,0.0986,0.0986,-0.1000,0,0.3309,0.3314,-0.1024,-0.0003,0.0008,-0.0063,CLIMB,5,1,0,15.0,0.000,3.500,1,-1,0,-1.0,-15.0,-1.0,0.0,0.0,0.0,2037,2826,1212,1912,1298,2788,2050,2901,1310,1039,1278,2804,2036,2811,1211,1912,1316,2793,2052,2884,1308,1040,1297,2806
1782219178.9323,7.5934,1,lf,0.0986,0.0986,-0.1000,0,0.3309,0.3314,-0.1024,-0.0003,0.0008,-0.0063,CLIMB,5,1,0,15.0,0.000,3.520,1,-1,0,-1.0,-15.0,-1.0,0.0,0.0,0.0,2037,2826,1212,1912,1298,2788,2050,2901,1310,1039,1278,2804,2036,2811,1211,1912,1316,2793,2052,2884,1308,1040,1297,2806
1782219178.9523,7.6134,1,lf,0.0986,0.0986,-0.1000,0,0.3309,0.3314,-0.1024,-0.0004,0.0008,-0.0063,CLIMB,5,1,0,15.0,0.000,3.540,1,-1,0,-1.0,-15.0,-1.0,0.0,0.0,0.0,2037,2826,1212,1912,1298,2788,2050,2901,1310,1039,1278,2804,2036,2811,1211,1912,1316,2793,2052,2884,1308,1040,1297,2806
1782219178.9723,7.6334,1,lf,0.0986,0.0986,-0.1000,0,0.3307,0.3317,-0.1024,-0.0003,0.0006,-0.0063,CLIMB,5,1,0,15.0,0.000,3.560,1,-1,0,-2.0,-15.0,-1.0,0.0,0.0,0.0,2037,2826,1212,1912,1298,2788,2050,2901,1310,1039,1278,2804,2035,2811,1211,1912,1316,2793,2052,2884,1308,1040,1297,2806
1782219178.9923,7.6534,1,lf,0.0986,0.0986,-0.1000,0,0.3307,0.3317,-0.1024,-0.0002,0.0005,-0.0064,CLIMB,5,1,0,15.0,0.000,3.580,1,-1,0,-2.0,-15.0,-1.0,0.0,0.0,0.0,2037,2826,1212,1912,1298,2788,2050,2901,1310,1039,1278,2804,2035,2811,1211,1912,1316,2793,2052,2884,1308,1040,1297,2806
1782219179.0122,7.6733,1,lf,0.0986,0.0986,-0.1000,0,0.3307,0.3317,-0.1024,-0.0002,0.0005,-0.0063,CLIMB,5,1,0,15.0,0.000,3.600,1,-1,0,-2.0,-15.0,-1.0,0.0,0.0,0.0,2037,2826,1212,1912,1298,2788,2050,2901,1310,1039,1278,2804,2035,2811,1211,1912,1316,2793,2052,2884,1308,1040,1297,2806
1782219179.0323,7.6934,1,lf,0.0986,0.0986,-0.1000,0,0.3307,0.3317,-0.1024,-0.0002,0.0005,-0.0063,CLIMB,5,1,0,15.0,0.000,3.620,1,-1,0,-2.0,-15.0,-1.0,0.0,0.0,0.0,2037,2826,1212,1912,1298,2788,2050,2901,1310,1039,1278,2804,2035,2811,1211,1912,1316,2793,2052,2884,1308,1040,1297,2806
1782219179.0523,7.7134,1,lf,0.0986,0.0986,-0.1000,0,0.3307,0.3317,-0.1024,-0.0002,0.0005,-0.0063,CLIMB,5,1,0,15.0,0.000,3.640,1,-1,0,-2.0,-15.0,-1.0,0.0,0.0,0.0,2037,2826,1212,1912,1298,2788,2050,2901,1310,1039,1278,2804,2035,2811,1211,1912,1316,2793,2052,2884,1308,1040,1297,2806
1782219179.0723,7.7334,1,lf,0.0986,0.0986,-0.1000,0,0.3307,0.3317,-0.1024,-0.0002,0.0005,-0.0063,CLIMB,5,1,0,15.0,0.000,3.660,1,-1,0,-2.0,-15.0,-1.0,0.0,0.0,0.0,2037,2826,1212,1912,1298,2788,2050,2901,1310,1039,1278,2804,2035,2811,1211,1912,1316,2793,2052,2884,1308,1040,1297,2806
1782219179.0923,7.7534,1,lf,0.0986,0.0986,-0.1000,0,0.3307,0.3317,-0.1024,-0.0002,0.0005,-0.0063,CLIMB,5,1,0,15.0,0.000,3.680,1,-1,0,-2.0,-15.0,-1.0,0.0,0.0,0.0,2037,2826,1212,1912,1298,2788,2050,2901,1310,1039,1278,2804,2035,2811,1211,1912,1316,2793,2052,2884,1308,1040,1297,2806
1782219179.1123,7.7734,1,lf,0.0986,0.0986,-0.1000,0,0.3307,0.3317,-0.1024,-0.0002,0.0005,-0.0063,CLIMB,5,1,0,15.0,0.000,3.700,1,-1,0,-2.0,-15.0,-1.0,0.0,0.0,0.0,2037,2826,1212,1912,1298,2788,2050,2901,1310,1039,1278,2804,2035,2811,1211,1912,1316,2793,2052,2884,1308,1040,1297,2806
1782219179.1323,7.7934,1,lf,0.0986,0.0986,-0.1000,0,0.3307,0.3317,-0.1024,-0.0002,0.0005,-0.0063,CLIMB,5,1,0,15.0,0.000,3.720,1,-1,0,-1.0,-15.0,-1.0,0.0,0.0,0.0,2037,2826,1212,1912,1298,2788,2050,2901,1310,1039,1278,2804,2035,2811,1211,1912,1316,2793,2052,2884,1308,1040,1297,2806
1782219179.1523,7.8134,1,lf,0.0986,0.0986,-0.1000,0,0.3307,0.3317,-0.1024,-0.0002,0.0005,-0.0063,CLIMB,5,1,0,15.0,0.000,3.740,1,-1,0,-1.0,-15.0,-1.0,0.0,0.0,0.0,2037,2826,1212,1912,1298,2788,2050,2901,1310,1039,1278,2804,2035,2811,1211,1912,1316,2793,2052,2884,1308,1040,1297,2806
1782219179.1723,7.8334,1,lf,0.0986,0.0986,-0.1000,0,0.3307,0.3317,-0.1024,-0.0002,0.0005,-0.0063,CLIMB,5,1,0,15.0,0.000,3.760,1,-1,0,-2.0,-15.0,-1.0,0.0,0.0,0.0,2037,2826,1212,1912,1298,2788,2050,2901,1310,1039,1278,2804,2035,2811,1211,1912,1316,2793,2052,2884,1308,1040,1297,2806
1782219179.1923,7.8534,1,lf,0.0986,0.0986,-0.1000,0,0.3307,0.3317,-0.1024,-0.0002,0.0005,-0.0063,CLIMB,5,1,0,15.0,0.000,3.780,1,-1,0,-2.0,-15.0,-1.0,0.0,0.0,0.0,2037,2826,1212,1912,1298,2788,2050,2901,1310,1039,1278,2804,2035,2811,1211,1912,1316,2793,2052,2884,1308,1040,1297,2806
1782219179.2123,7.8734,1,lf,0.0986,0.0986,-0.1000,0,0.3307,0.3317,-0.1024,-0.0002,0.0005,-0.0063,CLIMB,5,1,0,15.0,0.000,3.800,1,-1,0,-2.0,-15.0,-1.0,0.0,0.0,0.0,2037,2826,1212,1912,1298,2788,2050,2901,1310,1039,1278,2804,2035,2811,1211,1912,1316,2793,2052,2884,1308,1040,1297,2806
1782219179.2323,7.8933,1,lf,0.0986,0.0986,-0.1000,0,0.3307,0.3317,-0.1024,-0.0002,0.0005,-0.0063,CLIMB,5,1,0,15.0,0.000,3.820,1,-1,0,-2.0,-15.0,-1.0,0.0,0.0,0.0,2037,2826,1212,1912,1298,2788,2050,2901,1310,1039,1278,2804,2035,2811,1211,1912,1316,2793,2052,2884,1308,1040,1297,2806
1782219179.2523,7.9134,1,lf,0.0986,0.0986,-0.1000,0,0.3307,0.3317,-0.1024,-0.0002,0.0005,-0.0063,CLIMB,5,1,0,15.0,0.000,3.840,1,-1,0,-2.0,-15.0,-1.0,0.0,0.0,0.0,2037,2826,1212,1912,1298,2788,2050,2901,1310,1039,1278,2804,2035,2811,1211,1912,1316,2793,2052,2884,1308,1040,1297,2806
1782219179.2723,7.9334,1,lf,0.0986,0.0986,-0.1000,0,0.3307,0.3317,-0.1024,-0.0002,0.0005,-0.0063,CLIMB,5,1,0,15.0,0.000,3.860,1,-1,0,-2.0,-15.0,-1.0,0.0,0.0,0.0,2037,2826,1212,1912,1298,2788,2050,2901,1310,1039,1278,2804,2035,2811,1211,1912,1316,2793,2052,2884,1308,1040,1297,2806
1782219179.2923,7.9534,1,lf,0.0986,0.0986,-0.1000,0,0.3307,0.3317,-0.1024,-0.0002,0.0005,-0.0063,CLIMB,5,1,0,16.0,0.000,3.880,1,-1,0,-2.0,-16.0,-1.0,0.0,0.0,0.0,2037,2826,1212,1912,1298,2788,2050,2901,1310,1039,1278,2804,2035,2811,1211,1912,1316,2793,2052,2884,1308,1040,1297,2806
1782219179.3123,7.9734,1,lf,0.0986,0.0986,-0.1000,0,0.3310,0.3315,-0.1024,-0.0003,0.0006,-0.0063,CLIMB,5,1,0,16.0,0.000,3.900,1,-1,0,-2.0,-16.0,-1.0,0.0,0.0,0.0,2037,2826,1212,1912,1298,2788,2050,2901,1310,1039,1278,2804,2036,2811,1212,1912,1316,2793,2052,2884,1308,1040,1297,2806
1782219179.3322,7.9933,1,lf,0.0986,0.0986,-0.1000,0,0.3310,0.3315,-0.1024,-0.0004,0.0007,-0.0063,CLIMB,5,1,0,15.0,0.000,3.920,1,-1,0,-1.0,-15.0,0.0,0.0,0.0,0.0,2037,2826,1212,1912,1298,2788,2050,2901,1310,1039,1278,2804,2036,2811,1212,1912,1316,2793,2052,2884,1308,1040,1297,2806
1782219179.3522,8.0133,1,lf,0.0986,0.0986,-0.1000,0,0.3310,0.3315,-0.1024,-0.0004,0.0007,-0.0063,CLIMB,5,1,0,15.0,0.000,3.940,1,-1,0,-2.0,-15.0,-1.0,0.0,0.0,0.0,2037,2826,1212,1912,1298,2788,2050,2901,1310,1039,1278,2804,2036,2811,1212,1912,1316,2793,2052,2884,1308,1040,1297,2806
1782219179.3722,8.0333,1,lf,0.0986,0.0986,-0.1000,0,0.3307,0.3317,-0.1024,-0.0003,0.0006,-0.0063,CLIMB,5,1,0,15.0,0.000,3.960,1,-1,0,-2.0,-15.0,-1.0,0.0,0.0,0.0,2037,2826,1212,1912,1298,2788,2050,2901,1310,1039,1278,2804,2035,2811,1211,1912,1316,2793,2052,2884,1308,1040,1297,2806
1782219179.3922,8.0533,1,lf,0.0986,0.0986,-0.1000,0,0.3307,0.3317,-0.1024,-0.0002,0.0006,-0.0063,CLIMB,5,1,0,15.0,0.000,3.980,1,-1,0,-1.0,-15.0,-1.0,0.0,0.0,0.0,2037,2826,1212,1912,1298,2788,2050,2901,1310,1039,1278,2804,2035,2811,1211,1912,1316,2793,2052,2884,1308,1040,1297,2806
1782219179.4123,8.0734,1,lf,0.0986,0.0986,-0.1000,0,0.3307,0.3317,-0.1024,-0.0002,0.0006,-0.0063,CLIMB,5,1,0,15.0,0.000,4.000,1,-1,0,-2.0,-15.0,-1.0,0.0,0.0,0.0,2037,2826,1212,1912,1298,2788,2050,2901,1310,1039,1278,2804,2035,2811,1211,1912,1316,2793,2052,2884,1308,1040,1297,2806
1782219179.4322,8.0933,1,lf,0.0986,0.0986,-0.1000,0,0.3307,0.3317,-0.1024,-0.0002,0.0005,-0.0063,CLIMB,5,1,0,15.0,0.000,4.020,1,-1,0,-2.0,-15.0,-1.0,0.0,0.0,0.0,2037,2826,1212,1912,1298,2788,2050,2901,1310,1039,1278,2804,2035,2811,1211,1912,1316,2793,2052,2884,1308,1040,1297,2806
1782219179.4523,8.1134,1,lf,0.0986,0.0986,-0.1000,0,0.3307,0.3317,-0.1024,-0.0002,0.0005,-0.0063,CLIMB,5,1,0,15.0,0.000,4.040,1,-1,0,-1.0,-15.0,-1.0,0.0,0.0,0.0,2037,2826,1212,1912,1298,2788,2050,2901,1310,1039,1278,2804,2036,2811,1211,1912,1316,2793,2052,2884,1308,1040,1297,2806
1782219179.4723,8.1334,1,lf,0.0986,0.0986,-0.1000,0,0.3309,0.3314,-0.1024,-0.0003,0.0007,-0.0063,CLIMB,5,1,0,15.0,0.000,4.060,1,-1,0,-1.0,-15.0,-1.0,0.0,0.0,0.0,2037,2826,1212,1912,1298,2788,2050,2901,1310,1039,1278,2804,2036,2811,1211,1912,1316,2793,2052,2884,1308,1040,1297,2806
1782219179.4923,8.1534,1,lf,0.0986,0.0986,-0.1000,0,0.3309,0.3314,-0.1024,-0.0003,0.0008,-0.0063,CLIMB,5,1,0,15.0,0.000,4.080,1,-1,0,-2.0,-15.0,-1.0,0.0,0.0,0.0,2037,2826,1212,1912,1298,2788,2050,2901,1310,1039,1278,2804,2036,2811,1211,1912,1316,2793,2052,2884,1308,1040,1297,2806
1782219179.5123,8.1734,1,lf,0.0986,0.0986,-0.1000,0,0.3307,0.3317,-0.1024,-0.0003,0.0006,-0.0063,CLIMB,5,1,0,15.0,0.000,4.100,1,-1,0,-2.0,-15.0,-1.0,0.0,0.0,0.0,2037,2826,1212,1912,1298,2788,2050,2901,1310,1039,1278,2804,2035,2811,1211,1912,1316,2793,2052,2884,1308,1040,1297,2806
1782219179.5323,8.1934,1,lf,0.0986,0.0986,-0.1000,0,0.3307,0.3317,-0.1024,-0.0002,0.0006,-0.0063,CLIMB,5,1,0,15.0,0.000,4.120,1,-1,0,-2.0,-15.0,-1.0,0.0,0.0,0.0,2037,2826,1212,1912,1298,2788,2050,2901,1310,1039,1278,2804,2035,2811,1211,1912,1316,2793,2052,2884,1308,1040,1297,2806
1782219179.5523,8.2134,1,lf,0.0986,0.0986,-0.1000,0,0.3307,0.3317,-0.1024,-0.0002,0.0006,-0.0063,CLIMB,5,1,0,15.0,0.000,4.140,1,-1,0,-2.0,-15.0,-1.0,0.0,0.0,0.0,2037,2826,1212,1912,1298,2788,2050,2901,1310,1039,1278,2804,2035,2811,1211,1912,1316,2793,2052,2884,1308,1040,1297,2806
1782219179.5723,8.2334,1,lf,0.0986,0.0986,-0.1000,0,0.3307,0.3317,-0.1024,-0.0002,0.0006,-0.0063,CLIMB,5,1,0,15.0,0.000,4.160,1,-1,0,-2.0,-15.0,-1.0,0.0,0.0,0.0,2037,2826,1212,1912,1298,2788,2050,2901,1310,1039,1278,2804,2035,2811,1211,1912,1316,2793,2052,2884,1308,1040,1297,2806
1782219179.5923,8.2534,1,lf,0.0986,0.0986,-0.1000,0,0.3307,0.3317,-0.1024,-0.0002,0.0006,-0.0063,CLIMB,5,1,0,15.0,0.000,4.180,1,-1,0,-2.0,-15.0,-1.0,0.0,0.0,0.0,2037,2826,1212,1912,1298,2788,2050,2901,1310,1039,1278,2804,2035,2811,1211,1912,1316,2793,2052,2884,1308,1040,1297,2806
1782219179.6123,8.2734,1,lf,0.0986,0.0986,-0.1000,0,0.3307,0.3317,-0.1024,-0.0002,0.0005,-0.0063,CLIMB,5,1,0,15.0,0.000,4.200,1,-1,0,-2.0,-15.0,-1.0,0.0,0.0,0.0,2037,2826,1212,1912,1298,2788,2050,2901,1310,1039,1278,2804,2035,2811,1211,1912,1316,2793,2052,2884,1308,1040,1297,2806
1782219179.6324,8.2934,1,lf,0.0986,0.0986,-0.1000,0,0.3307,0.3317,-0.1024,-0.0002,0.0005,-0.0063,CLIMB,5,1,0,15.0,0.000,4.220,1,-1,0,-2.0,-15.0,-1.0,0.0,0.0,0.0,2037,2826,1212,1912,1298,2788,2050,2901,1310,1039,1278,2804,2035,2811,1211,1912,1316,2793,2052,2884,1308,1040,1297,2806
1782219179.6524,8.3135,1,lf,0.0986,0.0986,-0.1000,0,0.3307,0.3317,-0.1024,-0.0002,0.0006,-0.0063,CLIMB,5,1,0,15.0,0.000,4.240,1,-1,0,-2.0,-15.0,-1.0,0.0,0.0,0.0,2037,2826,1212,1912,1298,2788,2050,2901,1310,1039,1278,2804,2035,2811,1211,1912,1316,2793,2052,2884,1308,1040,1297,2806
1782219179.6723,8.3334,1,lf,0.0986,0.0986,-0.1000,0,0.3309,0.3314,-0.1024,-0.0003,0.0007,-0.0063,CLIMB,5,1,0,15.0,0.000,4.260,1,-1,0,-1.0,-15.0,-1.0,0.0,0.0,0.0,2037,2826,1212,1912,1298,2788,2050,2901,1310,1039,1278,2804,2036,2811,1211,1912,1316,2794,2053,2884,1308,1040,1297,2806
1782219179.6922,8.3533,1,lf,0.0986,0.0986,-0.1000,0,0.3309,0.3314,-0.1024,-0.0003,0.0008,-0.0063,CLIMB,5,1,0,15.0,0.000,4.280,1,-1,0,-1.0,-15.0,-1.0,0.0,0.0,0.0,2037,2826,1212,1912,1298,2788,2050,2901,1310,1039,1278,2804,2036,2811,1211,1912,1316,2794,2053,2884,1308,1040,1297,2806
1782219179.7123,8.3734,1,lf,0.0986,0.0986,-0.1000,0,0.3309,0.3314,-0.1024,-0.0004,0.0008,-0.0063,CLIMB,5,1,0,15.0,0.000,4.300,1,-1,0,-1.0,-15.0,-1.0,0.0,0.0,0.0,2037,2826,1212,1912,1298,2788,2050,2901,1310,1039,1278,2804,2036,2811,1211,1912,1316,2793,2052,2884,1308,1040,1297,2806
1782219179.7323,8.3934,1,lf,0.0986,0.0986,-0.1000,0,0.3309,0.3314,-0.1024,-0.0004,0.0008,-0.0063,CLIMB,5,1,0,15.0,0.000,4.320,1,-1,0,-2.0,-15.0,-1.0,0.0,0.0,0.0,2037,2826,1212,1912,1298,2788,2050,2901,1310,1039,1278,2804,2036,2811,1211,1912,1316,2793,2052,2884,1308,1040,1297,2806
1782219179.7524,8.4135,1,lf,0.0986,0.0986,-0.1000,0,0.3309,0.3314,-0.1024,-0.0004,0.0008,-0.0063,CLIMB,5,1,0,15.0,0.000,4.340,1,-1,0,-2.0,-15.0,-1.0,0.0,0.0,0.0,2037,2826,1212,1912,1298,2788,2050,2901,1310,1039,1278,2804,2035,2811,1211,1912,1316,2793,2052,2884,1308,1040,1297,2806
1782219179.7723,8.4334,1,lf,0.0986,0.0986,-0.1000,0,0.3307,0.3317,-0.1024,-0.0003,0.0007,-0.0063,CLIMB,5,1,0,15.0,0.000,4.360,1,-1,0,-2.0,-15.0,-1.0,0.0,0.0,0.0,2037,2826,1212,1912,1298,2788,2050,2901,1310,1039,1278,2804,2035,2811,1211,1912,1316,2793,2052,2884,1308,1040,1297,2806
1782219179.7922,8.4533,1,lf,0.0986,0.0986,-0.1000,0,0.3307,0.3317,-0.1024,-0.0003,0.0006,-0.0063,CLIMB,5,1,0,15.0,0.000,4.380,1,-1,0,-2.0,-15.0,-1.0,0.0,0.0,0.0,2037,2826,1212,1912,1298,2788,2050,2901,1310,1039,1278,2804,2035,2811,1211,1912,1316,2793,2052,2884,1308,1040,1297,2806
1782219179.8123,8.4734,1,lf,0.0986,0.0986,-0.1000,0,0.3307,0.3317,-0.1024,-0.0002,0.0006,-0.0063,CLIMB,5,1,0,15.0,0.000,4.400,1,-1,0,-2.0,-15.0,-1.0,0.0,0.0,0.0,2037,2826,1212,1912,1298,2788,2050,2901,1310,1039,1278,2804,2035,2811,1211,1912,1316,2793,2052,2884,1308,1040,1297,2806
1782219179.8323,8.4934,1,lf,0.0986,0.0986,-0.1000,0,0.3307,0.3317,-0.1024,-0.0002,0.0006,-0.0063,CLIMB,5,1,0,15.0,0.000,4.420,1,-1,0,-1.0,-15.0,-1.0,0.0,0.0,0.0,2037,2826,1212,1912,1298,2788,2050,2901,1310,1039,1278,2804,2035,2811,1211,1912,1316,2793,2052,2884,1308,1040,1297,2806
1782219179.8523,8.5134,1,lf,0.0986,0.0986,-0.1000,0,0.3307,0.3317,-0.1024,-0.0002,0.0006,-0.0063,CLIMB,5,1,0,15.0,0.000,4.440,1,-1,0,-1.0,-15.0,-1.0,0.0,0.0,0.0,2037,2826,1212,1912,1298,2788,2050,2901,1310,1039,1278,2804,2035,2811,1211,1912,1316,2793,2052,2884,1308,1040,1297,2806
1782219179.8724,8.5334,1,lf,0.0986,0.0986,-0.1000,0,0.3306,0.3315,-0.1026,-0.0001,0.0006,-0.0062,CLIMB,5,1,0,16.0,0.000,4.460,1,-1,0,-2.0,-16.0,-1.0,0.0,0.0,0.0,2037,2826,1212,1912,1298,2788,2050,2901,1310,1039,1278,2804,2035,2810,1211,1912,1316,2793,2052,2884,1308,1040,1297,2806
1782219179.8922,8.5533,1,lf,0.0986,0.0986,-0.1000,0,0.3306,0.3315,-0.1026,-0.0001,0.0006,-0.0062,CLIMB,5,1,0,15.0,0.000,4.480,1,-1,0,-1.0,-15.0,-1.0,0.0,0.0,0.0,2037,2826,1212,1912,1298,2788,2050,2901,1310,1039,1278,2804,2035,2810,1211,1912,1316,2793,2052,2884,1308,1040,1297,2806
1782219179.9121,8.5732,1,lf,0.0986,0.0986,-0.1000,0,0.3309,0.3314,-0.1024,-0.0003,0.0007,-0.0063,CLIMB,5,1,0,15.0,0.000,4.500,1,-1,0,-1.0,-15.0,-1.0,0.0,0.0,0.0,2037,2826,1212,1912,1298,2788,2050,2901,1310,1039,1278,2804,2036,2811,1211,1912,1316,2793,2052,2884,1308,1040,1297,2806
1782219179.9321,8.5932,1,lf,0.0986,0.0986,-0.1000,0,0.3309,0.3314,-0.1024,-0.0003,0.0008,-0.0063,CLIMB,5,1,0,15.0,0.000,4.520,1,-1,0,-2.0,-15.0,-1.0,0.0,0.0,0.0,2037,2826,1212,1912,1298,2788,2050,2901,1310,1039,1278,2804,2036,2811,1211,1912,1316,2793,2052,2884,1308,1040,1297,2806
1782219179.9522,8.6133,1,lf,0.0986,0.0986,-0.1000,0,0.3309,0.3314,-0.1024,-0.0004,0.0008,-0.0063,CLIMB,5,1,0,15.0,0.000,4.540,1,-1,0,-2.0,-15.0,-1.0,0.0,0.0,0.0,2037,2826,1212,1912,1298,2788,2050,2901,1310,1039,1278,2804,2036,2811,1211,1912,1316,2793,2052,2884,1308,1040,1297,2806
1782219179.9722,8.6333,1,lf,0.0986,0.0986,-0.1000,0,0.3307,0.3317,-0.1024,-0.0003,0.0007,-0.0063,CLIMB,5,1,0,15.0,0.000,4.560,1,-1,0,-2.0,-15.0,-1.0,0.0,0.0,0.0,2037,2826,1212,1912,1298,2788,2050,2901,1310,1039,1278,2804,2035,2811,1211,1912,1316,2793,2052,2884,1308,1040,1297,2806
1782219179.9922,8.6532,1,lf,0.0986,0.0986,-0.1000,0,0.3307,0.3317,-0.1024,-0.0002,0.0006,-0.0064,CLIMB,5,1,0,15.0,0.000,4.580,1,-1,0,-1.0,-15.0,-1.0,0.0,0.0,0.0,2037,2826,1212,1912,1298,2788,2050,2901,1310,1039,1278,2804,2035,2811,1211,1912,1316,2793,2052,2884,1308,1040,1297,2806
1782219180.0122,8.6733,1,lf,0.0986,0.0986,-0.1000,0,0.3307,0.3317,-0.1024,-0.0002,0.0006,-0.0064,CLIMB,5,1,0,15.0,0.000,4.600,1,-1,0,-1.0,-15.0,-1.0,0.0,0.0,0.0,2037,2826,1212,1912,1298,2788,2050,2901,1310,1039,1278,2804,2035,2811,1211,1912,1316,2793,2052,2884,1308,1040,1297,2806
1782219180.0322,8.6932,1,lf,0.0986,0.0986,-0.1000,0,0.3307,0.3317,-0.1024,-0.0002,0.0005,-0.0064,CLIMB,5,1,0,15.0,0.000,4.620,1,-1,0,-2.0,-15.0,-1.0,0.0,0.0,0.0,2037,2826,1212,1912,1298,2788,2050,2901,1310,1039,1278,2804,2035,2811,1211,1912,1316,2793,2052,2884,1308,1040,1297,2806
1782219180.0523,8.7133,1,lf,0.0986,0.0986,-0.1000,0,0.3307,0.3317,-0.1024,-0.0002,0.0005,-0.0064,CLIMB,5,1,0,15.0,0.000,4.640,1,-1,0,-2.0,-15.0,-1.0,0.0,0.0,0.0,2037,2826,1212,1912,1298,2788,2050,2901,1310,1039,1278,2804,2035,2811,1211,1912,1316,2793,2052,2884,1308,1040,1297,2806
1782219180.0721,8.7332,1,lf,0.0986,0.0986,-0.1000,0,0.3307,0.3317,-0.1024,-0.0002,0.0005,-0.0064,CLIMB,5,1,0,15.0,0.000,4.660,1,-1,0,-2.0,-15.0,-1.0,0.0,0.0,0.0,2037,2826,1212,1912,1298,2788,2050,2901,1310,1039,1278,2804,2035,2811,1211,1912,1316,2793,2052,2884,1308,1040,1297,2806
1782219180.0921,8.7531,1,lf,0.0986,0.0986,-0.1000,0,0.3307,0.3317,-0.1024,-0.0002,0.0005,-0.0064,CLIMB,5,1,0,15.0,0.000,4.680,1,-1,0,-2.0,-15.0,-1.0,0.0,0.0,0.0,2037,2826,1212,1912,1298,2788,2050,2901,1310,1039,1278,2804,2035,2811,1211,1912,1316,2793,2052,2884,1308,1040,1297,2806
1782219180.1122,8.7733,1,lf,0.0986,0.0986,-0.1000,0,0.3309,0.3314,-0.1024,-0.0003,0.0007,-0.0064,CLIMB,5,1,0,15.0,0.000,4.700,1,-1,0,-2.0,-15.0,-1.0,0.0,0.0,0.0,2037,2826,1212,1912,1298,2788,2050,2901,1310,1039,1278,2804,2036,2811,1211,1912,1316,2793,2053,2884,1308,1040,1297,2806
1782219180.1322,8.7933,1,lf,0.0986,0.0986,-0.1000,0,0.3309,0.3314,-0.1024,-0.0003,0.0007,-0.0064,CLIMB,5,1,0,15.0,0.000,4.720,1,-1,0,-1.0,-15.0,-1.0,0.0,0.0,0.0,2037,2826,1212,1912,1298,2788,2050,2901,1310,1039,1278,2804,2036,2811,1211,1912,1316,2793,2053,2884,1308,1040,1297,2806
1782219180.1524,8.8135,1,lf,0.0986,0.0986,-0.1000,0,0.3309,0.3314,-0.1024,-0.0004,0.0008,-0.0064,CLIMB,5,1,0,15.0,0.000,4.740,1,-1,0,-1.0,-15.0,-1.0,0.0,0.0,0.0,2037,2826,1212,1912,1298,2788,2050,2901,1310,1039,1278,2804,2036,2811,1211,1912,1316,2793,2052,2884,1308,1040,1297,2806
1782219180.1723,8.8333,1,lf,0.0986,0.0986,-0.1000,0,0.3309,0.3314,-0.1024,-0.0004,0.0008,-0.0064,CLIMB,5,1,0,15.0,0.000,4.760,1,-1,0,-1.0,-15.0,-1.0,0.0,0.0,0.0,2037,2826,1212,1912,1298,2788,2050,2901,1310,1039,1278,2804,2036,2811,1211,1912,1316,2793,2052,2884,1308,1040,1297,2806
1782219180.1922,8.8533,1,lf,0.0986,0.0986,-0.1000,0,0.3309,0.3314,-0.1024,-0.0004,0.0008,-0.0064,CLIMB,5,1,0,15.0,0.000,4.780,1,-1,0,-1.0,-15.0,-1.0,0.0,0.0,0.0,2037,2826,1212,1912,1298,2788,2050,2901,1310,1039,1278,2804,2036,2811,1211,1912,1316,2793,2052,2884,1308,1040,1297,2806
1782219180.2123,8.8734,1,lf,0.0986,0.0986,-0.1000,0,0.3309,0.3314,-0.1024,-0.0004,0.0008,-0.0064,CLIMB,5,1,0,15.0,0.000,4.800,1,-1,0,-1.0,-15.0,-1.0,0.0,0.0,0.0,2037,2826,1212,1912,1298,2788,2050,2901,1310,1039,1278,2804,2036,2811,1211,1912,1316,2793,2052,2884,1308,1040,1297,2806
1782219180.2324,8.8935,1,lf,0.0986,0.0986,-0.1000,0,0.3309,0.3314,-0.1024,-0.0004,0.0008,-0.0064,CLIMB,5,1,0,15.0,0.000,4.820,1,-1,0,-1.0,-15.0,-1.0,0.0,0.0,0.0,2037,2826,1212,1912,1298,2788,2050,2901,1310,1039,1278,2804,2036,2811,1211,1912,1316,2793,2052,2884,1308,1040,1297,2806
1782219180.2526,8.9137,1,lf,0.0986,0.0986,-0.1000,0,0.3309,0.3314,-0.1024,-0.0004,0.0008,-0.0064,CLIMB,5,1,0,15.0,0.000,4.840,1,-1,0,-1.0,-15.0,-1.0,0.0,0.0,0.0,2037,2826,1212,1912,1298,2788,2050,2901,1310,1039,1278,2804,2036,2811,1211,1912,1316,2793,2052,2884,1308,1040,1297,2806
1782219180.2723,8.9334,1,lf,0.0986,0.0986,-0.1000,0,0.3309,0.3314,-0.1024,-0.0004,0.0008,-0.0064,CLIMB,5,1,0,15.0,0.000,4.860,1,-1,0,-1.0,-15.0,-1.0,0.0,0.0,0.0,2037,2826,1212,1912,1298,2788,2050,2901,1310,1039,1278,2804,2036,2811,1211,1912,1316,2794,2052,2884,1308,1040,1297,2806
1782219180.2923,8.9534,1,lf,0.0986,0.0986,-0.1000,0,0.3309,0.3314,-0.1024,-0.0004,0.0008,-0.0064,CLIMB,5,1,0,16.0,0.000,4.880,1,-1,0,-1.0,-16.0,-1.0,0.0,0.0,0.0,2037,2826,1212,1912,1298,2788,2050,2901,1310,1039,1278,2804,2036,2811,1211,1912,1316,2794,2052,2884,1308,1040,1297,2806
1782219180.3123,8.9734,1,lf,0.0986,0.0986,-0.1000,0,0.3309,0.3314,-0.1024,-0.0004,0.0008,-0.0064,CLIMB,5,1,0,15.0,0.000,4.900,1,-1,0,-1.0,-15.0,-1.0,0.0,0.0,0.0,2037,2826,1212,1912,1298,2788,2050,2901,1310,1039,1278,2804,2036,2811,1211,1912,1316,2793,2052,2884,1308,1040,1297,2806
1782219180.3323,8.9934,1,lf,0.0986,0.0986,-0.1000,0,0.3309,0.3314,-0.1024,-0.0004,0.0008,-0.0064,CLIMB,5,1,0,15.0,0.000,4.920,1,-1,0,-1.0,-15.0,-1.0,0.0,0.0,0.0,2037,2826,1212,1912,1298,2788,2050,2901,1310,1039,1278,2804,2036,2811,1211,1912,1316,2793,2052,2884,1308,1040,1297,2806
1782219180.3523,9.0134,1,lf,0.0986,0.0986,-0.1000,0,0.3309,0.3314,-0.1024,-0.0004,0.0008,-0.0064,CLIMB,5,1,0,15.0,0.000,4.940,1,-1,0,-1.0,-15.0,-1.0,0.0,0.0,0.0,2037,2826,1212,1912,1298,2788,2050,2901,1310,1039,1278,2804,2036,2811,1211,1912,1316,2793,2052,2884,1308,1040,1297,2806
1782219180.3722,9.0333,1,lf,0.0986,0.0986,-0.1000,0,0.3309,0.3314,-0.1024,-0.0004,0.0008,-0.0064,CLIMB,5,1,0,15.0,0.000,4.960,1,-1,0,-1.0,-15.0,-1.0,0.0,0.0,0.0,2037,2826,1212,1912,1298,2788,2050,2901,1310,1039,1278,2804,2036,2811,1211,1912,1316,2793,2052,2884,1308,1040,1297,2806
1782219180.3923,9.0534,1,lf,0.0986,0.0986,-0.1000,0,0.3309,0.3314,-0.1024,-0.0004,0.0008,-0.0064,CLIMB,5,1,0,15.0,0.000,4.980,1,-1,0,-1.0,-15.0,-1.0,0.0,0.0,0.0,2037,2826,1212,1912,1298,2788,2050,2901,1310,1039,1278,2804,2036,2811,1211,1912,1316,2793,2052,2884,1308,1040,1297,2806
1782219180.4122,9.0733,1,lf,0.0986,0.0986,-0.1000,0,0.3309,0.3314,-0.1024,-0.0004,0.0008,-0.0064,CLIMB,5,1,0,15.0,0.000,5.000,1,-1,0,-1.0,-15.0,-1.0,0.0,0.0,0.0,2037,2826,1212,1912,1298,2788,2050,2901,1310,1039,1278,2804,2036,2811,1211,1912,1316,2793,2052,2884,1308,1040,1297,2806
1782219180.4322,9.0933,1,lf,0.0986,0.0986,-0.1000,0,0.3309,0.3314,-0.1024,-0.0004,0.0008,-0.0064,CLIMB,5,1,0,15.0,0.000,5.020,1,-1,0,-1.0,-15.0,-1.0,0.0,0.0,0.0,2037,2826,1212,1912,1298,2788,2050,2901,1310,1039,1278,2804,2036,2811,1211,1912,1316,2793,2052,2884,1308,1040,1297,2806
1782219180.4521,9.1132,1,lf,0.0986,0.0986,-0.1000,0,0.3309,0.3314,-0.1024,-0.0004,0.0008,-0.0064,CLIMB,5,1,0,15.0,0.000,5.040,1,-1,0,-1.0,-15.0,-1.0,0.0,0.0,0.0,2037,2826,1212,1912,1298,2788,2050,2901,1310,1039,1278,2804,2036,2811,1211,1912,1316,2794,2052,2884,1308,1040,1297,2806
1782219180.4720,9.1331,1,lf,0.0986,0.0986,-0.1000,0,0.3309,0.3314,-0.1024,-0.0004,0.0008,-0.0063,CLIMB,5,1,0,15.0,0.000,5.060,1,-1,0,-1.0,-15.0,-1.0,0.0,0.0,0.0,2037,2826,1212,1912,1298,2788,2050,2901,1310,1039,1278,2804,2036,2811,1211,1912,1316,2794,2052,2884,1308,1040,1297,2806
1782219180.4921,9.1532,1,lf,0.0986,0.0986,-0.1000,0,0.3309,0.3314,-0.1024,-0.0004,0.0008,-0.0064,CLIMB,5,1,0,15.0,0.000,5.080,1,-1,0,-1.0,-15.0,-1.0,0.0,0.0,0.0,2037,2826,1212,1912,1298,2788,2050,2901,1310,1039,1278,2804,2036,2811,1211,1912,1316,2794,2052,2884,1308,1040,1297,2806
1782219180.5123,9.1734,1,lf,0.0986,0.0986,-0.1000,0,0.3307,0.3317,-0.1024,-0.0003,0.0006,-0.0063,CLIMB,5,1,0,15.0,0.000,5.100,1,-1,0,-2.0,-15.0,-1.0,0.0,0.0,0.0,2037,2826,1212,1912,1298,2788,2050,2901,1310,1039,1278,2804,2035,2811,1211,1912,1316,2793,2052,2884,1308,1040,1297,2806
1782219180.5323,9.1934,1,lf,0.0986,0.0986,-0.1000,0,0.3307,0.3317,-0.1024,-0.0002,0.0006,-0.0064,CLIMB,5,1,0,15.0,0.000,5.120,1,-1,0,-2.0,-15.0,-1.0,0.0,0.0,0.0,2037,2826,1212,1912,1298,2788,2050,2901,1310,1039,1278,2804,2035,2811,1211,1912,1316,2793,2052,2884,1308,1040,1297,2806
1782219180.5523,9.2134,1,lf,0.0986,0.0986,-0.1000,0,0.3307,0.3317,-0.1024,-0.0002,0.0005,-0.0063,CLIMB,5,1,0,15.0,0.000,5.140,1,-1,0,-2.0,-15.0,-1.0,0.0,0.0,0.0,2037,2826,1212,1912,1298,2788,2050,2901,1310,1039,1278,2804,2035,2811,1211,1912,1316,2793,2052,2884,1308,1040,1297,2806
1782219180.5723,9.2334,1,lf,0.0986,0.0986,-0.1000,0,0.3307,0.3317,-0.1024,-0.0002,0.0005,-0.0063,CLIMB,5,1,0,15.0,0.000,5.160,1,-1,0,-2.0,-15.0,-1.0,0.0,0.0,0.0,2037,2826,1212,1912,1298,2788,2050,2901,1310,1039,1278,2804,2035,2811,1211,1912,1316,2793,2052,2884,1308,1040,1297,2806
1782219180.5923,9.2534,1,lf,0.0986,0.0986,-0.1000,0,0.3307,0.3317,-0.1024,-0.0002,0.0005,-0.0064,CLIMB,5,1,0,15.0,0.000,5.180,1,-1,0,-2.0,-15.0,-1.0,0.0,0.0,0.0,2037,2826,1212,1912,1298,2788,2050,2901,1310,1039,1278,2804,2035,2811,1211,1912,1316,2793,2052,2884,1308,1040,1297,2806
1782219180.6124,9.2735,1,lf,0.0986,0.0986,-0.1000,0,0.3307,0.3317,-0.1024,-0.0002,0.0005,-0.0064,CLIMB,5,1,0,15.0,0.000,5.200,1,-1,0,-2.0,-15.0,-1.0,0.0,0.0,0.0,2037,2826,1212,1912,1298,2788,2050,2901,1310,1039,1278,2804,2035,2811,1211,1912,1316,2793,2052,2884,1308,1040,1297,2806
1782219180.6324,9.2934,1,lf,0.0986,0.0986,-0.1000,0,0.3307,0.3317,-0.1024,-0.0002,0.0005,-0.0064,CLIMB,5,1,0,15.0,0.000,5.220,1,-1,0,-2.0,-15.0,-1.0,0.0,0.0,0.0,2037,2826,1212,1912,1298,2788,2050,2901,1310,1039,1278,2804,2035,2811,1211,1912,1316,2793,2052,2884,1308,1040,1297,2806
1782219180.6523,9.3134,1,lf,0.0986,0.0986,-0.1000,0,0.3307,0.3317,-0.1024,-0.0002,0.0005,-0.0064,CLIMB,5,1,0,15.0,0.000,5.240,1,-1,0,-2.0,-15.0,-1.0,0.0,0.0,0.0,2037,2826,1212,1912,1298,2788,2050,2901,1310,1039,1278,2804,2035,2811,1211,1912,1316,2793,2052,2884,1308,1040,1297,2806
1782219180.6723,9.3334,1,lf,0.0986,0.0986,-0.1000,0,0.3307,0.3317,-0.1024,-0.0002,0.0005,-0.0064,CLIMB,5,1,0,15.0,0.000,5.260,1,-1,0,-2.0,-15.0,-1.0,0.0,0.0,0.0,2037,2826,1212,1912,1298,2788,2050,2901,1310,1039,1278,2804,2035,2811,1211,1912,1316,2793,2052,2884,1308,1040,1297,2806
1782219180.6923,9.3534,1,lf,0.0986,0.0986,-0.1000,0,0.3307,0.3317,-0.1024,-0.0002,0.0005,-0.0063,CLIMB,5,1,0,15.0,0.000,5.280,1,-1,0,-1.0,-15.0,-1.0,0.0,0.0,0.0,2037,2826,1212,1912,1298,2788,2050,2901,1310,1039,1278,2804,2035,2811,1211,1912,1316,2793,2052,2884,1308,1040,1297,2806
1782219180.7123,9.3734,1,lf,0.0986,0.0986,-0.1000,0,0.3309,0.3314,-0.1024,-0.0003,0.0007,-0.0063,CLIMB,5,1,0,15.0,0.000,5.300,1,-1,0,-1.0,-15.0,-1.0,0.0,0.0,0.0,2037,2826,1212,1912,1298,2788,2050,2901,1310,1039,1278,2804,2036,2811,1211,1912,1316,2793,2052,2884,1308,1040,1297,2806
1782219180.7323,9.3934,1,lf,0.0986,0.0986,-0.1000,0,0.3309,0.3314,-0.1024,-0.0004,0.0007,-0.0063,CLIMB,5,1,0,15.0,0.000,5.320,1,-1,0,-1.0,-15.0,-1.0,0.0,0.0,0.0,2037,2826,1212,1912,1298,2788,2050,2901,1310,1039,1278,2804,2036,2811,1211,1912,1316,2793,2052,2884,1308,1040,1297,2806
1782219180.7521,9.4132,1,lf,0.0986,0.0986,-0.1000,0,0.3309,0.3314,-0.1024,-0.0004,0.0008,-0.0063,CLIMB,5,1,0,15.0,0.000,5.340,1,-1,0,-1.0,-15.0,-1.0,0.0,0.0,0.0,2037,2826,1212,1912,1298,2788,2050,2901,1310,1039,1278,2804,2036,2811,1211,1912,1316,2793,2052,2884,1308,1040,1297,2806
1782219180.7722,9.4333,1,lf,0.0986,0.0986,-0.1000,0,0.3307,0.3317,-0.1024,-0.0003,0.0006,-0.0064,CLIMB,5,1,0,15.0,0.000,5.360,1,-1,0,-2.0,-15.0,-1.0,0.0,0.0,0.0,2037,2826,1212,1912,1298,2788,2050,2901,1310,1039,1278,2804,2035,2811,1211,1912,1316,2793,2052,2884,1308,1040,1297,2806
1782219180.7923,9.4534,1,lf,0.0986,0.0986,-0.1000,0,0.3307,0.3317,-0.1024,-0.0003,0.0006,-0.0064,CLIMB,5,1,0,15.0,0.000,5.380,1,-1,0,-2.0,-15.0,-1.0,0.0,0.0,0.0,2037,2826,1212,1912,1298,2788,2050,2901,1310,1039,1278,2804,2035,2811,1211,1912,1316,2793,2052,2884,1308,1040,1297,2806
1782219180.8123,9.4734,1,lf,0.0986,0.0986,-0.1000,0,0.3309,0.3314,-0.1024,-0.0003,0.0007,-0.0064,CLIMB,5,1,0,15.0,0.000,5.400,1,-1,0,-2.0,-15.0,-1.0,0.0,0.0,0.0,2037,2826,1212,1912,1298,2788,2050,2901,1310,1039,1278,2804,2036,2811,1211,1912,1316,2793,2052,2884,1308,1040,1297,2806
1782219180.8323,9.4934,1,lf,0.0986,0.0986,-0.1000,0,0.3309,0.3314,-0.1024,-0.0004,0.0008,-0.0064,CLIMB,5,1,0,15.0,0.000,5.420,1,-1,0,-1.0,-15.0,-1.0,0.0,0.0,0.0,2037,2826,1212,1912,1298,2788,2050,2901,1310,1039,1278,2804,2036,2811,1211,1912,1316,2793,2052,2884,1308,1040,1297,2806
1782219180.8523,9.5134,1,lf,0.0986,0.0986,-0.1000,0,0.3309,0.3314,-0.1024,-0.0004,0.0008,-0.0063,CLIMB,5,1,0,15.0,0.000,5.440,1,-1,0,-1.0,-15.0,-1.0,0.0,0.0,0.0,2037,2826,1212,1912,1298,2788,2050,2901,1310,1039,1278,2804,2036,2811,1211,1912,1316,2793,2052,2884,1308,1040,1297,2806
1782219180.8725,9.5336,1,lf,0.0986,0.0986,-0.1000,0,0.3309,0.3314,-0.1024,-0.0004,0.0008,-0.0063,CLIMB,5,1,0,15.0,0.000,5.460,1,-1,0,-1.0,-15.0,-1.0,0.0,0.0,0.0,2037,2826,1212,1912,1298,2788,2050,2901,1310,1039,1278,2804,2036,2811,1211,1912,1316,2793,2052,2884,1308,1040,1297,2806
1782219180.8924,9.5534,1,lf,0.0986,0.0986,-0.1000,0,0.3309,0.3314,-0.1024,-0.0004,0.0008,-0.0063,CLIMB,5,1,0,15.0,0.000,5.480,1,-1,0,-1.0,-15.0,-1.0,0.0,0.0,0.0,2037,2826,1212,1912,1298,2788,2050,2901,1310,1039,1278,2804,2036,2811,1211,1912,1316,2793,2052,2884,1308,1040,1297,2806
1782219180.9123,9.5734,1,lf,0.0986,0.0986,-0.1000,0,0.3309,0.3314,-0.1024,-0.0004,0.0008,-0.0063,CLIMB,5,1,0,15.0,0.000,5.500,1,-1,0,-1.0,-15.0,-1.0,0.0,0.0,0.0,2037,2826,1212,1912,1298,2788,2050,2901,1310,1039,1278,2804,2036,2811,1211,1912,1316,2793,2052,2884,1308,1040,1297,2806
1782219180.9323,9.5934,1,lf,0.0986,0.0986,-0.1000,0,0.3309,0.3314,-0.1024,-0.0004,0.0008,-0.0063,CLIMB,5,1,0,15.0,0.000,5.520,1,-1,0,-1.0,-15.0,-1.0,0.0,0.0,0.0,2037,2826,1212,1912,1298,2788,2050,2901,1310,1039,1278,2804,2036,2811,1211,1912,1316,2793,2052,2884,1308,1040,1297,2806
1782219180.9523,9.6133,1,lf,0.0986,0.0986,-0.1000,0,0.3309,0.3314,-0.1024,-0.0004,0.0008,-0.0063,CLIMB,5,1,0,15.0,0.000,5.540,1,-1,0,-1.0,-15.0,-1.0,0.0,0.0,0.0,2037,2826,1212,1912,1298,2788,2050,2901,1310,1039,1278,2804,2036,2811,1211,1912,1316,2793,2052,2884,1308,1040,1297,2806
1782219180.9723,9.6334,1,lf,0.0986,0.0986,-0.1000,0,0.3309,0.3314,-0.1024,-0.0004,0.0008,-0.0063,CLIMB,5,1,0,15.0,0.000,5.560,1,-1,0,-1.0,-15.0,-1.0,0.0,0.0,0.0,2037,2826,1212,1912,1298,2788,2050,2901,1310,1039,1278,2804,2036,2811,1211,1912,1316,2793,2052,2884,1308,1040,1297,2806
1782219180.9922,9.6533,1,lf,0.0986,0.0986,-0.1000,0,0.3309,0.3314,-0.1024,-0.0004,0.0008,-0.0063,CLIMB,5,1,0,15.0,0.000,5.580,1,-1,0,-2.0,-15.0,-1.0,0.0,0.0,0.0,2037,2826,1212,1912,1298,2788,2050,2901,1310,1039,1278,2804,2036,2811,1211,1912,1316,2793,2052,2884,1308,1040,1297,2806
1782219181.0123,9.6734,1,lf,0.0986,0.0986,-0.1000,0,0.3307,0.3317,-0.1024,-0.0003,0.0007,-0.0063,CLIMB,5,1,0,15.0,0.000,5.600,1,-1,0,-2.0,-15.0,-1.0,0.0,0.0,0.0,2037,2826,1212,1912,1298,2788,2050,2901,1310,1039,1278,2804,2035,2811,1211,1912,1316,2793,2052,2884,1308,1040,1297,2806
1782219181.0323,9.6934,1,lf,0.0986,0.0986,-0.1000,0,0.3307,0.3317,-0.1024,-0.0003,0.0006,-0.0063,CLIMB,5,1,0,15.0,0.000,5.620,1,-1,0,-2.0,-15.0,-1.0,0.0,0.0,0.0,2037,2826,1212,1912,1298,2788,2050,2901,1310,1039,1278,2804,2035,2811,1211,1912,1316,2793,2052,2884,1308,1040,1297,2806
1782219181.0524,9.7135,1,lf,0.0986,0.0986,-0.1000,0,0.3307,0.3317,-0.1024,-0.0002,0.0006,-0.0063,CLIMB,5,1,0,16.0,0.000,5.640,1,-1,0,-2.0,-16.0,-1.0,0.0,0.0,0.0,2037,2826,1212,1912,1298,2788,2050,2901,1310,1039,1278,2804,2035,2811,1211,1912,1316,2793,2052,2884,1308,1040,1297,2806
1782219181.0723,9.7334,1,lf,0.0986,0.0986,-0.1000,0,0.3306,0.3315,-0.1026,-0.0002,0.0006,-0.0062,CLIMB,5,1,0,16.0,0.000,5.660,1,-1,0,-2.0,-16.0,-1.0,0.0,0.0,0.0,2037,2826,1212,1912,1298,2788,2050,2901,1310,1039,1278,2804,2035,2810,1211,1912,1316,2793,2052,2884,1308,1040,1297,2806
1782219181.0922,9.7533,1,lf,0.0986,0.0986,-0.1000,0,0.3306,0.3315,-0.1026,-0.0001,0.0006,-0.0061,CLIMB,5,1,0,15.0,0.000,5.680,1,-1,0,-2.0,-15.0,-1.0,0.0,0.0,0.0,2037,2826,1212,1912,1298,2788,2050,2901,1310,1039,1278,2804,2035,2810,1211,1912,1316,2793,2052,2884,1308,1040,1297,2806
1782219181.1122,9.7733,1,lf,0.0986,0.0986,-0.1000,0,0.3309,0.3314,-0.1024,-0.0003,0.0007,-0.0062,CLIMB,5,1,0,15.0,0.000,5.700,1,-1,0,-1.0,-15.0,-1.0,0.0,0.0,0.0,2037,2826,1212,1912,1298,2788,2050,2901,1310,1039,1278,2804,2036,2811,1211,1912,1316,2793,2052,2884,1308,1040,1297,2806
1782219181.1323,9.7934,1,lf,0.0986,0.0986,-0.1000,0,0.3309,0.3314,-0.1024,-0.0003,0.0008,-0.0063,CLIMB,5,1,0,15.0,0.000,5.720,1,-1,0,-1.0,-15.0,-1.0,0.0,0.0,0.0,2037,2826,1212,1912,1298,2788,2050,2901,1310,1039,1278,2804,2036,2811,1211,1912,1316,2793,2052,2884,1308,1040,1297,2806
