DreamSnakecc/climbing_ws/test_logs/dxl_autotune_20260623_205243/leg_endpoint/trial_07_id_1_p_120/single_swing_lf_20260623_205524.csv
wall_time,elapsed_s,cycle,leg,cmd_x,cmd_y,cmd_z,cmd_support,ujc_x,ujc_y,ujc_z,body_x,body_y,body_z,mission_state,servo_phase_id,servo_gate_enabled,servo_ready,servo_max_abs_error_tick,servo_within_tolerance_s,servo_wait_s,servo_timed_out,servo_last_pass_phase_id,servo_last_pass_sequence,servo_error_joint1_tick,servo_error_joint2_tick,servo_error_joint3_tick,servo_last_pass_error_joint1_tick,servo_last_pass_error_joint2_tick,servo_last_pass_error_joint3_tick,ticks_cmd_11,ticks_cmd_1,ticks_cmd_2,ticks_cmd_12,ticks_cmd_3,ticks_cmd_4,ticks_cmd_13,ticks_cmd_5,ticks_cmd_6,ticks_cmd_14,ticks_cmd_7,ticks_cmd_8,ticks_act_11,ticks_act_1,ticks_act_2,ticks_act_12,ticks_act_3,ticks_act_4,ticks_act_13,ticks_act_5,ticks_act_6,ticks_act_14,ticks_act_7,ticks_act_8
1782219326.9543,2.7667,1,lf,0.0986,0.0986,-0.1100,0,0.3316,0.3325,-0.1103,-0.0018,0.0011,0.0025,CLIMB,4,1,0,0.0,0.000,0.000,0,-1,0,0.0,0.0,0.0,0.0,0.0,0.0,2037,2781,1318,1912,1298,2788,2050,2901,1310,1039,1278,2804,2035,2776,1313,1912,1316,2792,2052,2884,1309,1040,1284,2805
1782219326.9620,2.7743,1,lf,0.0986,0.0986,-0.1100,0,0.3316,0.3325,-0.1103,-0.0018,0.0011,0.0025,CLIMB,4,1,0,0.0,0.000,0.000,0,-1,0,0.0,0.0,0.0,0.0,0.0,0.0,2037,2781,1318,1912,1298,2788,2050,2901,1310,1039,1278,2804,2035,2776,1313,1912,1316,2792,2052,2884,1309,1040,1284,2805
1782219326.9820,2.7943,1,lf,0.0986,0.0986,-0.1100,0,0.3316,0.3325,-0.1103,-0.0019,0.0011,0.0025,CLIMB,4,1,0,0.0,0.000,0.000,0,-1,0,0.0,0.0,0.0,0.0,0.0,0.0,2037,2781,1318,1912,1298,2788,2050,2901,1310,1039,1278,2804,2035,2776,1313,1912,1316,2792,2052,2884,1309,1040,1284,2805
1782219327.0021,2.8144,1,lf,0.0986,0.0986,-0.1100,0,0.3316,0.3325,-0.1103,-0.0018,0.0010,0.0024,CLIMB,4,1,0,0.0,0.000,0.000,0,-1,0,0.0,0.0,0.0,0.0,0.0,0.0,2037,2781,1318,1912,1298,2788,2050,2901,1310,1039,1278,2804,2035,2776,1313,1912,1316,2792,2052,2884,1309,1041,1284,2805
1782219327.0220,2.8344,1,lf,0.0986,0.0986,-0.1100,0,0.3316,0.3325,-0.1103,-0.0018,0.0010,0.0024,CLIMB,4,1,0,0.0,0.000,0.000,0,-1,0,0.0,0.0,0.0,0.0,0.0,0.0,2037,2781,1318,1912,1298,2788,2050,2901,1310,1039,1278,2804,2035,2776,1313,1912,1316,2792,2052,2884,1309,1041,1284,2805
1782219327.0420,2.8544,1,lf,0.0986,0.0986,-0.1100,0,0.3316,0.3325,-0.1103,-0.0018,0.0009,0.0024,CLIMB,4,1,0,0.0,0.000,0.000,0,-1,0,0.0,0.0,0.0,0.0,0.0,0.0,2037,2781,1318,1912,1298,2788,2050,2901,1310,1039,1278,2804,2035,2776,1313,1912,1316,2792,2052,2884,1309,1041,1284,2805
1782219327.0620,2.8744,1,lf,0.0986,0.0986,-0.1100,0,0.3316,0.3325,-0.1103,-0.0018,0.0009,0.0024,CLIMB,4,1,0,0.0,0.000,0.000,0,-1,0,0.0,0.0,0.0,0.0,0.0,0.0,2037,2781,1318,1912,1298,2788,2050,2901,1310,1039,1278,2804,2035,2776,1313,1912,1316,2792,2052,2884,1309,1041,1284,2805
1782219327.0820,2.8943,1,lf,0.0986,0.0986,-0.1100,0,0.3316,0.3325,-0.1103,-0.0017,0.0009,0.0024,CLIMB,4,1,0,0.0,0.000,0.000,0,-1,0,0.0,0.0,0.0,0.0,0.0,0.0,2037,2781,1318,1912,1298,2788,2050,2901,1310,1039,1278,2804,2035,2776,1313,1912,1316,2792,2052,2884,1309,1041,1284,2805
1782219327.1020,2.9144,1,lf,0.0986,0.0986,-0.1100,0,0.3316,0.3325,-0.1103,-0.0017,0.0009,0.0024,CLIMB,4,1,0,0.0,0.000,0.000,0,-1,0,0.0,0.0,0.0,0.0,0.0,0.0,2037,2781,1318,1912,1298,2788,2050,2901,1310,1039,1278,2804,2035,2776,1313,1912,1316,2792,2052,2884,1309,1041,1284,2805
1782219327.1221,2.9344,1,lf,0.0986,0.0986,-0.1100,0,0.3316,0.3325,-0.1103,-0.0017,0.0009,0.0024,CLIMB,4,1,0,0.0,0.000,0.000,0,-1,0,0.0,0.0,0.0,0.0,0.0,0.0,2037,2781,1318,1912,1298,2788,2050,2901,1310,1039,1278,2804,2035,2776,1313,1912,1316,2792,2052,2884,1309,1041,1284,2805
1782219327.1419,2.9543,1,lf,0.0986,0.0986,-0.1100,0,0.3316,0.3325,-0.1103,-0.0017,0.0009,0.0024,CLIMB,4,1,0,0.0,0.000,0.000,0,-1,0,0.0,0.0,0.0,0.0,0.0,0.0,2037,2781,1318,1912,1298,2788,2050,2901,1310,1039,1278,2804,2035,2776,1313,1912,1316,2792,2052,2884,1308,1041,1283,2805
1782219327.1619,2.9743,1,lf,0.0986,0.0986,-0.1100,0,0.3316,0.3325,-0.1103,-0.0017,0.0008,0.0024,CLIMB,4,1,0,0.0,0.000,0.000,0,-1,0,0.0,0.0,0.0,0.0,0.0,0.0,2037,2781,1318,1912,1298,2788,2050,2901,1310,1039,1278,2804,2035,2776,1313,1912,1316,2792,2052,2884,1308,1041,1283,2805
1782219327.1819,2.9942,1,lf,0.0986,0.0986,-0.1100,0,0.3316,0.3325,-0.1103,-0.0017,0.0008,0.0024,CLIMB,4,1,0,0.0,0.000,0.000,0,-1,0,0.0,0.0,0.0,0.0,0.0,0.0,2037,2781,1318,1912,1298,2788,2050,2901,1310,1039,1278,2804,2035,2776,1313,1912,1316,2792,2052,2884,1308,1041,1283,2805
1782219327.2020,3.0143,1,lf,0.0986,0.0986,-0.1100,0,0.3318,0.3323,-0.1103,-0.0018,0.0010,0.0024,CLIMB,4,1,0,0.0,0.000,0.000,0,-1,0,0.0,0.0,0.0,0.0,0.0,0.0,2037,2781,1318,1912,1298,2788,2050,2901,1310,1039,1278,2804,2036,2776,1313,1912,1316,2792,2052,2884,1308,1041,1284,2805
1782219327.2220,3.0344,1,lf,0.0986,0.0986,-0.1100,0,0.3318,0.3323,-0.1103,-0.0018,0.0010,0.0024,CLIMB,4,1,0,0.0,0.000,0.000,0,-1,0,0.0,0.0,0.0,0.0,0.0,0.0,2037,2781,1318,1912,1298,2788,2050,2901,1310,1039,1278,2804,2036,2776,1313,1912,1316,2792,2052,2884,1308,1041,1284,2805
1782219327.2420,3.0544,1,lf,0.0986,0.0986,-0.1100,0,0.3318,0.3323,-0.1103,-0.0019,0.0011,0.0024,CLIMB,4,1,0,0.0,0.000,0.000,0,-1,0,0.0,0.0,0.0,0.0,0.0,0.0,2037,2781,1318,1912,1298,2788,2050,2901,1310,1039,1278,2804,2035,2776,1313,1912,1316,2792,2052,2884,1308,1041,1284,2805
1782219327.2619,3.0743,1,lf,0.0986,0.0986,-0.1100,0,0.3316,0.3325,-0.1103,-0.0018,0.0009,0.0024,CLIMB,4,1,0,0.0,0.000,0.000,0,-1,0,0.0,0.0,0.0,0.0,0.0,0.0,2037,2781,1318,1912,1298,2788,2050,2901,1310,1039,1278,2804,2035,2776,1313,1912,1316,2792,2052,2884,1308,1041,1284,2805
1782219327.2820,3.0944,1,lf,0.0986,0.0986,-0.1100,0,0.3316,0.3325,-0.1103,-0.0017,0.0009,0.0024,CLIMB,4,1,0,0.0,0.000,0.000,0,-1,0,0.0,0.0,0.0,0.0,0.0,0.0,2037,2781,1318,1912,1298,2788,2050,2901,1310,1039,1278,2804,2035,2776,1313,1912,1316,2792,2052,2884,1308,1041,1284,2805
1782219327.3019,3.1143,1,lf,0.0986,0.0986,-0.1100,0,0.3316,0.3325,-0.1103,-0.0017,0.0008,0.0024,CLIMB,4,1,0,0.0,0.000,0.000,0,-1,0,0.0,0.0,0.0,0.0,0.0,0.0,2037,2781,1318,1912,1298,2788,2050,2901,1310,1039,1278,2804,2035,2776,1313,1912,1316,2792,2052,2884,1308,1040,1284,2805
1782219327.3220,3.1343,1,lf,0.0986,0.0986,-0.1100,0,0.3316,0.3325,-0.1103,-0.0017,0.0008,0.0024,CLIMB,4,1,0,0.0,0.000,0.000,0,-1,0,0.0,0.0,0.0,0.0,0.0,0.0,2037,2781,1318,1912,1298,2788,2050,2901,1310,1039,1278,2804,2035,2776,1313,1912,1316,2792,2052,2884,1308,1040,1284,2805
1782219327.3420,3.1544,1,lf,0.0986,0.0986,-0.1100,0,0.3316,0.3325,-0.1103,-0.0017,0.0008,0.0024,CLIMB,4,1,0,0.0,0.000,0.000,0,-1,0,0.0,0.0,0.0,0.0,0.0,0.0,2037,2781,1318,1912,1298,2788,2050,2901,1310,1039,1278,2804,2035,2776,1313,1912,1316,2791,2052,2884,1309,1041,1284,2805
1782219327.3620,3.1743,1,lf,0.0986,0.0986,-0.1100,0,0.3316,0.3325,-0.1103,-0.0017,0.0008,0.0024,CLIMB,4,1,0,0.0,0.000,0.000,0,-1,0,0.0,0.0,0.0,0.0,0.0,0.0,2037,2781,1318,1912,1298,2788,2050,2901,1310,1039,1278,2804,2035,2776,1313,1912,1316,2791,2052,2884,1309,1041,1284,2805
1782219327.3820,3.1943,1,lf,0.0986,0.0986,-0.1100,0,0.3316,0.3325,-0.1103,-0.0017,0.0008,0.0024,CLIMB,4,1,0,0.0,0.000,0.000,0,-1,0,0.0,0.0,0.0,0.0,0.0,0.0,2037,2781,1318,1912,1298,2788,2050,2901,1310,1039,1278,2804,2035,2776,1313,1912,1316,2791,2052,2884,1309,1041,1284,2805
1782219327.4019,3.2143,1,lf,0.0986,0.0986,-0.1100,0,0.3318,0.3323,-0.1103,-0.0018,0.0009,0.0024,CLIMB,4,1,0,0.0,0.000,0.000,0,-1,0,0.0,0.0,0.0,0.0,0.0,0.0,2037,2781,1318,1912,1298,2788,2050,2901,1310,1039,1278,2804,2036,2776,1313,1912,1316,2792,2052,2884,1308,1041,1284,2805
1782219327.4219,3.2342,1,lf,0.0986,0.0986,-0.1100,0,0.3318,0.3323,-0.1103,-0.0018,0.0010,0.0024,CLIMB,4,1,0,0.0,0.000,0.000,0,-1,0,0.0,0.0,0.0,0.0,0.0,0.0,2037,2781,1318,1912,1298,2788,2050,2901,1310,1039,1278,2804,2036,2776,1313,1912,1316,2792,2052,2884,1308,1041,1284,2805
1782219327.4419,3.2543,1,lf,0.0986,0.0986,-0.1100,0,0.3318,0.3323,-0.1103,-0.0018,0.0011,0.0024,CLIMB,4,1,0,0.0,0.000,0.000,0,-1,0,0.0,0.0,0.0,0.0,0.0,0.0,2037,2781,1318,1912,1298,2788,2050,2901,1310,1039,1278,2804,2036,2776,1313,1912,1316,2792,2052,2884,1309,1041,1284,2806
1782219327.4620,3.2743,1,lf,0.0986,0.0986,-0.1100,0,0.3318,0.3323,-0.1103,-0.0018,0.0011,0.0024,CLIMB,4,1,0,0.0,0.000,0.000,0,-1,0,0.0,0.0,0.0,0.0,0.0,0.0,2037,2781,1318,1912,1298,2788,2050,2901,1310,1039,1278,2804,2036,2776,1313,1912,1316,2792,2052,2884,1309,1041,1284,2806
1782219327.4820,3.2944,1,lf,0.0986,0.0986,-0.1100,0,0.3318,0.3323,-0.1103,-0.0018,0.0011,0.0024,CLIMB,4,1,0,0.0,0.000,0.000,0,-1,0,0.0,0.0,0.0,0.0,0.0,0.0,2037,2781,1318,1912,1298,2788,2050,2901,1310,1039,1278,2804,2036,2776,1313,1912,1316,2792,2052,2884,1309,1041,1284,2806
1782219327.5020,3.3143,1,lf,0.0986,0.0986,-0.1100,0,0.3316,0.3325,-0.1103,-0.0017,0.0009,0.0024,CLIMB,4,1,0,0.0,0.000,0.000,0,-1,0,0.0,0.0,0.0,0.0,0.0,0.0,2037,2781,1318,1912,1298,2788,2050,2901,1310,1039,1278,2804,2035,2776,1313,1912,1316,2792,2053,2884,1309,1040,1283,2805
1782219327.5220,3.3343,1,lf,0.0986,0.0986,-0.1100,0,0.3316,0.3325,-0.1103,-0.0017,0.0008,0.0024,CLIMB,4,1,0,0.0,0.000,0.000,0,-1,0,0.0,0.0,0.0,0.0,0.0,0.0,2037,2781,1318,1912,1298,2788,2050,2901,1310,1039,1278,2804,2035,2776,1313,1912,1316,2792,2053,2884,1309,1040,1283,2805
1782219327.5419,3.3543,1,lf,0.0986,0.0986,-0.1100,0,0.3316,0.3325,-0.1103,-0.0017,0.0008,0.0024,CLIMB,4,1,0,0.0,0.000,0.000,0,-1,0,0.0,0.0,0.0,0.0,0.0,0.0,2037,2781,1318,1912,1298,2788,2050,2901,1310,1039,1278,2804,2036,2776,1313,1912,1316,2792,2052,2884,1308,1040,1283,2806
1782219327.5620,3.3743,1,lf,0.0986,0.0986,-0.1100,0,0.3318,0.3323,-0.1103,-0.0017,0.0009,0.0024,CLIMB,4,1,0,0.0,0.000,0.000,0,-1,0,0.0,0.0,0.0,0.0,0.0,0.0,2037,2781,1318,1912,1298,2788,2050,2901,1310,1039,1278,2804,2036,2776,1313,1912,1316,2792,2052,2884,1308,1040,1283,2806
1782219327.5819,3.3942,1,lf,0.0986,0.0986,-0.1100,0,0.3318,0.3323,-0.1103,-0.0018,0.0010,0.0024,CLIMB,4,1,0,0.0,0.000,0.000,0,-1,0,0.0,0.0,0.0,0.0,0.0,0.0,2037,2781,1318,1912,1298,2788,2050,2901,1310,1039,1278,2804,2036,2776,1313,1912,1316,2792,2052,2884,1308,1040,1283,2806
1782219327.6020,3.4144,1,lf,0.0986,0.0986,-0.1100,0,0.3316,0.3325,-0.1103,-0.0017,0.0009,0.0024,CLIMB,4,1,0,0.0,0.000,0.000,0,-1,0,0.0,0.0,0.0,0.0,0.0,0.0,2037,2781,1318,1912,1298,2788,2050,2901,1310,1039,1278,2804,2035,2776,1313,1912,1316,2792,2052,2884,1309,1041,1283,2805
1782219327.6219,3.4343,1,lf,0.0986,0.0986,-0.1100,0,0.3316,0.3325,-0.1103,-0.0017,0.0008,0.0024,CLIMB,4,1,0,0.0,0.000,0.000,0,-1,0,0.0,0.0,0.0,0.0,0.0,0.0,2037,2781,1318,1912,1298,2788,2050,2901,1310,1039,1278,2804,2035,2776,1313,1912,1316,2792,2052,2884,1309,1041,1283,2805
1782219327.6419,3.4543,1,lf,0.0986,0.0986,-0.1100,0,0.3316,0.3325,-0.1103,-0.0016,0.0008,0.0024,CLIMB,4,1,0,0.0,0.000,0.000,0,-1,0,0.0,0.0,0.0,0.0,0.0,0.0,2037,2781,1318,1912,1298,2788,2050,2901,1310,1039,1278,2804,2036,2776,1313,1912,1316,2791,2052,2884,1309,1040,1284,2805
1782219327.6620,3.4744,1,lf,0.0986,0.0986,-0.1100,0,0.3318,0.3323,-0.1103,-0.0017,0.0009,0.0024,CLIMB,4,1,0,0.0,0.000,0.000,0,-1,0,0.0,0.0,0.0,0.0,0.0,0.0,2037,2781,1318,1912,1298,2788,2050,2901,1310,1039,1278,2804,2036,2776,1313,1912,1316,2791,2052,2884,1309,1040,1284,2805
1782219327.6820,3.4943,1,lf,0.0986,0.0986,-0.1100,0,0.3318,0.3323,-0.1103,-0.0018,0.0010,0.0024,CLIMB,4,1,0,0.0,0.000,0.000,0,-1,0,0.0,0.0,0.0,0.0,0.0,0.0,2037,2781,1318,1912,1298,2788,2050,2901,1310,1039,1278,2804,2036,2776,1313,1912,1316,2791,2052,2884,1309,1040,1284,2805
1782219327.7019,3.5143,1,lf,0.0986,0.0986,-0.1100,0,0.3316,0.3325,-0.1103,-0.0017,0.0009,0.0024,CLIMB,4,1,0,0.0,0.000,0.000,0,-1,0,0.0,0.0,0.0,0.0,0.0,0.0,2037,2781,1318,1912,1298,2788,2050,2901,1310,1039,1278,2804,2035,2776,1313,1912,1316,2792,2052,2884,1308,1041,1284,2805
1782219327.7220,3.5343,1,lf,0.0986,0.0986,-0.1100,0,0.3316,0.3325,-0.1103,-0.0017,0.0008,0.0024,CLIMB,4,1,0,0.0,0.000,0.000,0,-1,0,0.0,0.0,0.0,0.0,0.0,0.0,2037,2781,1318,1912,1298,2788,2050,2901,1310,1039,1278,2804,2035,2776,1313,1912,1316,2792,2052,2884,1308,1041,1284,2805
1782219327.7419,3.5542,1,lf,0.0986,0.0986,-0.1100,0,0.3316,0.3325,-0.1103,-0.0017,0.0008,0.0023,CLIMB,4,1,0,0.0,0.000,0.000,0,-1,0,0.0,0.0,0.0,0.0,0.0,0.0,2037,2781,1318,1912,1298,2788,2050,2901,1310,1039,1278,2804,2035,2776,1313,1912,1316,2792,2052,2884,1308,1041,1283,2805
1782219327.7620,3.5743,1,lf,0.0986,0.0986,-0.1100,0,0.3316,0.3325,-0.1103,-0.0016,0.0008,0.0023,CLIMB,4,1,0,0.0,0.000,0.000,0,-1,0,0.0,0.0,0.0,0.0,0.0,0.0,2037,2781,1318,1912,1298,2788,2050,2901,1310,1039,1278,2804,2035,2776,1313,1912,1316,2792,2052,2884,1308,1041,1283,2805
1782219327.7820,3.5943,1,lf,0.0986,0.0986,-0.1100,0,0.3316,0.3325,-0.1103,-0.0016,0.0008,0.0023,CLIMB,4,1,0,0.0,0.000,0.000,0,-1,0,0.0,0.0,0.0,0.0,0.0,0.0,2037,2781,1318,1912,1298,2788,2050,2901,1310,1039,1278,2804,2035,2776,1313,1912,1316,2792,2052,2884,1308,1041,1283,2805
1782219327.8019,3.6143,1,lf,0.0986,0.0986,-0.1100,0,0.3318,0.3323,-0.1103,-0.0017,0.0009,0.0023,CLIMB,4,1,0,0.0,0.000,0.000,0,-1,0,0.0,0.0,0.0,0.0,0.0,0.0,2037,2781,1318,1912,1298,2788,2050,2901,1310,1039,1278,2804,2036,2776,1313,1912,1316,2792,2052,2884,1308,1041,1284,2805
1782219327.8219,3.6343,1,lf,0.0986,0.0986,-0.1100,0,0.3318,0.3323,-0.1103,-0.0018,0.0010,0.0023,CLIMB,4,1,0,0.0,0.000,0.000,0,-1,0,0.0,0.0,0.0,0.0,0.0,0.0,2037,2781,1318,1912,1298,2788,2050,2901,1310,1039,1278,2804,2036,2776,1313,1912,1316,2792,2052,2884,1308,1041,1284,2805
1782219327.8420,3.6544,1,lf,0.0986,0.0986,-0.1100,0,0.3318,0.3323,-0.1103,-0.0018,0.0010,0.0023,CLIMB,4,1,0,0.0,0.000,0.000,0,-1,0,0.0,0.0,0.0,0.0,0.0,0.0,2037,2781,1318,1912,1298,2788,2050,2901,1310,1039,1278,2804,2035,2776,1313,1912,1316,2792,2052,2884,1309,1041,1284,2805
1782219327.8619,3.6743,1,lf,0.0986,0.0986,-0.1100,0,0.3316,0.3325,-0.1103,-0.0017,0.0009,0.0023,CLIMB,4,1,0,0.0,0.000,0.000,0,-1,0,0.0,0.0,0.0,0.0,0.0,0.0,2037,2781,1318,1912,1298,2788,2050,2901,1310,1039,1278,2804,2035,2776,1313,1912,1316,2792,2052,2884,1309,1041,1284,2805
1782219327.8819,3.6943,1,lf,0.0986,0.0986,-0.1100,0,0.3316,0.3325,-0.1103,-0.0017,0.0009,0.0024,CLIMB,4,1,0,0.0,0.000,0.000,0,-1,0,0.0,0.0,0.0,0.0,0.0,0.0,2037,2781,1318,1912,1298,2788,2050,2901,1310,1039,1278,2804,2035,2776,1313,1912,1316,2792,2052,2884,1309,1041,1284,2805
1782219327.9019,3.7143,1,lf,0.0986,0.0986,-0.1100,0,0.3318,0.3323,-0.1103,-0.0018,0.0010,0.0024,CLIMB,4,1,0,0.0,0.000,0.000,0,-1,0,0.0,0.0,0.0,0.0,0.0,0.0,2037,2781,1318,1912,1298,2788,2050,2901,1310,1039,1278,2804,2036,2776,1313,1912,1316,2791,2052,2884,1309,1040,1284,2805
1782219327.9219,3.7343,1,lf,0.0986,0.0986,-0.1100,0,0.3318,0.3323,-0.1103,-0.0018,0.0010,0.0024,CLIMB,4,1,0,0.0,0.000,0.000,0,-1,0,0.0,0.0,0.0,0.0,0.0,0.0,2037,2781,1318,1912,1298,2788,2050,2901,1310,1039,1278,2804,2036,2776,1313,1912,1316,2791,2052,2884,1309,1040,1284,2805
1782219327.9419,3.7543,1,lf,0.0986,0.0986,-0.1100,0,0.3318,0.3323,-0.1103,-0.0018,0.0011,0.0024,CLIMB,4,1,0,0.0,0.000,0.000,0,-1,0,0.0,0.0,0.0,0.0,0.0,0.0,2037,2781,1318,1912,1298,2788,2050,2901,1310,1039,1278,2804,2035,2776,1313,1912,1316,2792,2052,2884,1308,1041,1284,2805
1782219327.9620,3.7743,1,lf,0.0986,0.0986,-0.1100,0,0.3316,0.3325,-0.1103,-0.0017,0.0009,0.0024,CLIMB,4,1,0,0.0,0.000,0.000,0,-1,0,0.0,0.0,0.0,0.0,0.0,0.0,2037,2781,1318,1912,1298,2788,2050,2901,1310,1039,1278,2804,2035,2776,1313,1912,1316,2792,2052,2884,1308,1041,1284,2805
1782219327.9820,3.7944,1,lf,0.0986,0.0986,-0.1100,0,0.3316,0.3325,-0.1103,-0.0017,0.0009,0.0024,CLIMB,4,1,0,0.0,0.000,0.000,0,-1,0,0.0,0.0,0.0,0.0,0.0,0.0,2037,2781,1318,1912,1298,2788,2050,2901,1310,1039,1278,2804,2035,2776,1313,1912,1316,2792,2052,2884,1308,1041,1284,2805
1782219328.0020,3.8143,1,lf,0.0986,0.0986,-0.1100,0,0.3318,0.3323,-0.1103,-0.0017,0.0010,0.0024,CLIMB,4,1,0,0.0,0.000,0.000,0,-1,0,0.0,0.0,0.0,0.0,0.0,0.0,2037,2781,1318,1912,1298,2788,2050,2901,1310,1039,1278,2804,2036,2776,1313,1912,1316,2792,2052,2884,1309,1040,1284,2805
1782219328.0219,3.8343,1,lf,0.0986,0.0986,-0.1100,0,0.3318,0.3323,-0.1103,-0.0018,0.0010,0.0024,CLIMB,5,1,0,0.0,0.000,0.000,0,-1,0,0.0,0.0,0.0,0.0,0.0,0.0,2037,2781,1318,1912,1298,2788,2050,2901,1310,1039,1278,2804,2036,2776,1313,1912,1316,2792,2052,2884,1309,1040,1284,2805
1782219328.0420,3.8543,1,lf,0.0986,0.0986,-0.1100,0,0.3318,0.3323,-0.1103,-0.0018,0.0010,0.0024,CLIMB,5,1,0,0.0,0.000,0.000,0,-1,0,0.0,0.0,0.0,0.0,0.0,0.0,2037,2781,1318,1912,1298,2788,2050,2901,1310,1039,1278,2804,2036,2776,1313,1912,1316,2792,2052,2884,1308,1041,1284,2805
1782219328.0619,3.8743,1,lf,0.0986,0.0986,-0.1097,0,0.3318,0.3323,-0.1103,-0.0018,0.0010,0.0024,CLIMB,5,1,0,0.0,0.000,0.000,0,-1,0,0.0,0.0,0.0,0.0,0.0,0.0,2037,2781,1318,1912,1298,2788,2050,2901,1310,1039,1278,2804,2036,2776,1313,1912,1316,2792,2052,2884,1308,1041,1284,2805
1782219328.0819,3.8943,1,lf,0.0986,0.0986,-0.1091,0,0.3318,0.3323,-0.1103,-0.0018,0.0011,0.0024,CLIMB,5,1,0,0.0,0.000,0.000,0,-1,0,0.0,0.0,0.0,0.0,0.0,0.0,2037,2782,1315,1912,1298,2788,2050,2901,1310,1039,1278,2804,2036,2776,1313,1912,1316,2792,2052,2884,1308,1041,1284,2805
1782219328.1020,3.9143,1,lf,0.0986,0.0986,-0.1081,0,0.3318,0.3323,-0.1103,-0.0018,0.0011,0.0024,CLIMB,5,1,0,0.0,0.000,0.000,0,-1,0,0.0,0.0,0.0,0.0,0.0,0.0,2037,2785,1308,1912,1298,2788,2050,2901,1310,1039,1278,2804,2036,2776,1313,1912,1316,2792,2052,2884,1308,1040,1284,2805
1782219328.1222,3.9346,1,lf,0.0986,0.0986,-0.1068,0,0.3318,0.3323,-0.1103,-0.0018,0.0011,0.0024,CLIMB,5,1,0,0.0,0.000,0.000,0,-1,0,0.0,0.0,0.0,0.0,0.0,0.0,2037,2789,1297,1912,1298,2788,2050,2901,1310,1039,1278,2804,2036,2776,1313,1912,1316,2792,2052,2884,1308,1040,1284,2805
1782219328.1419,3.9543,1,lf,0.0986,0.0986,-0.1054,0,0.3318,0.3323,-0.1103,-0.0018,0.0011,0.0024,CLIMB,5,1,0,0.0,0.000,0.000,0,-1,0,0.0,0.0,0.0,0.0,0.0,0.0,2037,2795,1283,1912,1298,2788,2050,2901,1310,1039,1278,2804,2036,2776,1313,1912,1316,2792,2053,2884,1309,1040,1283,2805
1782219328.1620,3.9744,1,lf,0.0986,0.0986,-0.1039,0,0.3318,0.3323,-0.1103,-0.0018,0.0011,0.0024,CLIMB,5,1,0,0.0,0.000,0.000,0,-1,0,0.0,0.0,0.0,0.0,0.0,0.0,2037,2802,1267,1912,1298,2788,2050,2901,1310,1039,1278,2804,2036,2776,1313,1912,1316,2792,2053,2884,1309,1040,1283,2805
1782219328.1820,3.9943,1,lf,0.0986,0.0986,-0.1025,0,0.3318,0.3323,-0.1103,-0.0018,0.0011,0.0024,CLIMB,5,1,0,0.0,0.000,0.000,0,-1,0,0.0,0.0,0.0,0.0,0.0,0.0,2037,2809,1251,1912,1298,2788,2050,2901,1310,1039,1278,2804,2036,2776,1313,1912,1316,2792,2053,2884,1309,1040,1283,2805
1782219328.2020,4.0143,1,lf,0.0986,0.0986,-0.1014,0,0.3318,0.3323,-0.1103,-0.0018,0.0011,0.0024,CLIMB,5,1,0,0.0,0.000,0.000,0,-1,0,0.0,0.0,0.0,0.0,0.0,0.0,2037,2815,1237,1912,1298,2788,2050,2901,1310,1039,1278,2804,2036,2776,1313,1912,1316,2792,2052,2884,1308,1041,1284,2805
1782219328.2219,4.0343,1,lf,0.0986,0.0986,-0.1006,0,0.3318,0.3323,-0.1103,-0.0018,0.0011,0.0024,CLIMB,5,1,0,0.0,0.000,0.000,0,-1,0,0.0,0.0,0.0,0.0,0.0,0.0,2037,2820,1225,1912,1298,2788,2050,2901,1310,1039,1278,2804,2036,2776,1313,1912,1316,2792,2052,2884,1308,1041,1284,2805
1782219328.2420,4.0544,1,lf,0.0986,0.0986,-0.1001,0,0.3318,0.3323,-0.1103,-0.0018,0.0011,0.0024,CLIMB,5,1,0,0.0,0.000,0.000,0,-1,0,0.0,0.0,0.0,0.0,0.0,0.0,2037,2825,1213,1912,1298,2788,2050,2901,1310,1039,1278,2804,2035,2776,1313,1912,1316,2791,2052,2884,1308,1041,1284,2805
1782219328.2620,4.0744,1,lf,0.0986,0.0986,-0.1000,0,0.3316,0.3325,-0.1103,-0.0017,0.0009,0.0024,CLIMB,5,1,0,0.0,0.000,0.000,0,-1,0,0.0,0.0,0.0,0.0,0.0,0.0,2037,2825,1213,1912,1298,2788,2050,2901,1310,1039,1278,2804,2035,2776,1313,1912,1316,2791,2052,2884,1308,1041,1284,2805
1782219328.2820,4.0944,1,lf,0.0986,0.0986,-0.1000,0,0.3316,0.3325,-0.1103,-0.0016,0.0008,0.0024,CLIMB,5,1,0,100.0,0.000,0.000,0,-1,0,-2.0,-50.0,100.0,0.0,0.0,0.0,2037,2826,1212,1912,1298,2788,2050,2901,1310,1039,1278,2804,2035,2776,1313,1912,1316,2791,2052,2884,1308,1041,1284,2805
1782219328.3020,4.1143,1,lf,0.0986,0.0986,-0.1000,0,0.3312,0.3322,-0.1103,-0.0014,0.0009,0.0024,CLIMB,5,1,0,94.0,0.000,0.020,0,-1,0,-2.0,-50.0,94.0,0.0,0.0,0.0,2037,2826,1212,1912,1298,2788,2050,2901,1310,1039,1278,2804,2035,2776,1306,1912,1316,2792,2052,2884,1309,1040,1284,2805
1782219328.3220,4.1344,1,lf,0.0986,0.0986,-0.1000,0,0.3312,0.3322,-0.1103,-0.0013,0.0010,0.0024,CLIMB,5,1,0,86.0,0.000,0.040,0,-1,0,-1.0,-48.0,86.0,0.0,0.0,0.0,2037,2826,1212,1912,1298,2788,2050,2901,1310,1039,1278,2804,2035,2776,1306,1912,1316,2792,2052,2884,1309,1040,1284,2805
1782219328.3419,4.1543,1,lf,0.0986,0.0986,-0.1000,0,0.3312,0.3322,-0.1103,-0.0012,0.0010,0.0024,CLIMB,5,1,0,86.0,0.000,0.060,0,-1,0,-1.0,-48.0,86.0,0.0,0.0,0.0,2037,2826,1212,1912,1298,2788,2050,2901,1310,1039,1278,2804,2036,2778,1298,1912,1316,2791,2052,2884,1309,1041,1284,2805
1782219328.3619,4.1743,1,lf,0.0986,0.0986,-0.1000,0,0.3313,0.3318,-0.1098,-0.0012,0.0012,0.0022,CLIMB,5,1,0,74.0,0.000,0.080,0,-1,0,-1.0,-46.0,74.0,0.0,0.0,0.0,2037,2826,1212,1912,1298,2788,2050,2901,1310,1039,1278,2804,2036,2778,1298,1912,1316,2791,2052,2884,1309,1041,1284,2805
1782219328.3819,4.1942,1,lf,0.0986,0.0986,-0.1000,0,0.3313,0.3318,-0.1098,-0.0012,0.0013,0.0021,CLIMB,5,1,0,58.0,0.000,0.100,0,-1,0,-1.0,-42.0,58.0,0.0,0.0,0.0,2037,2826,1212,1912,1298,2788,2050,2901,1310,1039,1278,2804,2036,2778,1298,1912,1316,2791,2052,2884,1309,1041,1284,2805
1782219328.4019,4.2143,1,lf,0.0986,0.0986,-0.1000,0,0.3313,0.3318,-0.1098,-0.0012,0.0014,0.0020,CLIMB,5,1,0,58.0,0.000,0.120,0,-1,0,-1.0,-42.0,58.0,0.0,0.0,0.0,2037,2826,1212,1912,1298,2788,2050,2901,1310,1039,1278,2804,2036,2784,1270,1912,1316,2791,2052,2884,1309,1041,1284,2805
1782219328.4219,4.2343,1,lf,0.0986,0.0986,-0.1000,0,0.3307,0.3312,-0.1085,-0.0008,0.0016,0.0013,CLIMB,5,1,0,44.0,0.000,0.140,0,-1,0,-2.0,-38.0,44.0,0.0,0.0,0.0,2037,2826,1212,1912,1298,2788,2050,2901,1310,1039,1278,2804,2036,2784,1270,1912,1316,2791,2052,2884,1309,1041,1284,2805
1782219328.4419,4.2543,1,lf,0.0986,0.0986,-0.1000,0,0.3307,0.3312,-0.1085,-0.0006,0.0018,0.0009,CLIMB,5,1,0,44.0,0.000,0.160,0,-1,0,-2.0,-38.0,44.0,0.0,0.0,0.0,2037,2826,1212,1912,1298,2788,2050,2901,1310,1039,1278,2804,2035,2788,1256,1912,1316,2791,2052,2884,1309,1040,1283,2805
1782219328.4620,4.2744,1,lf,0.0986,0.0986,-0.1000,0,0.3302,0.3312,-0.1076,-0.0002,0.0018,0.0002,CLIMB,5,1,0,33.0,0.000,0.180,0,-1,0,-1.0,-33.0,31.0,0.0,0.0,0.0,2037,2826,1212,1912,1298,2788,2050,2901,1310,1039,1278,2804,2035,2788,1256,1912,1316,2791,2052,2884,1309,1040,1283,2805
1782219328.4820,4.2944,1,lf,0.0986,0.0986,-0.1000,0,0.3302,0.3312,-0.1076,-0.0001,0.0018,-0.0001,CLIMB,5,1,0,28.0,0.000,0.200,0,-1,0,-2.0,-28.0,21.0,0.0,0.0,0.0,2037,2826,1212,1912,1298,2788,2050,2901,1310,1039,1278,2804,2035,2788,1256,1912,1316,2791,2052,2884,1309,1040,1283,2805
1782219328.5020,4.3144,1,lf,0.0986,0.0986,-0.1000,0,0.3303,0.3312,-0.1053,-0.0000,0.0017,-0.0015,CLIMB,5,1,0,28.0,0.000,0.220,0,-1,0,-2.0,-28.0,21.0,0.0,0.0,0.0,2037,2826,1212,1912,1298,2788,2050,2901,1310,1039,1278,2804,2035,2798,1233,1912,1316,2791,2052,2884,1308,1041,1284,2805
1782219328.5220,4.3344,1,lf,0.0986,0.0986,-0.1000,0,0.3303,0.3312,-0.1053,-0.0000,0.0017,-0.0021,CLIMB,5,1,0,23.0,0.000,0.240,0,-1,0,-1.0,-23.0,12.0,0.0,0.0,0.0,2037,2826,1212,1912,1298,2788,2050,2901,1310,1039,1278,2804,2035,2798,1233,1912,1316,2791,2052,2884,1308,1041,1284,2805
1782219328.5420,4.3544,1,lf,0.0986,0.0986,-0.1000,0,0.3303,0.3312,-0.1053,-0.0000,0.0017,-0.0024,CLIMB,5,1,0,20.0,0.000,0.260,0,-1,0,-2.0,-20.0,7.0,0.0,0.0,0.0,2037,2826,1212,1912,1298,2788,2050,2901,1310,1039,1278,2804,2036,2803,1224,1912,1315,2792,2052,2884,1309,1041,1284,2805
1782219328.5620,4.3743,1,lf,0.0986,0.0986,-0.1000,0,0.3307,0.3311,-0.1042,-0.0002,0.0017,-0.0032,CLIMB,5,1,0,20.0,0.000,0.280,0,-1,0,-2.0,-20.0,7.0,0.0,0.0,0.0,2037,2826,1212,1912,1298,2788,2050,2901,1310,1039,1278,2804,2036,2803,1224,1912,1315,2792,2052,2884,1309,1041,1284,2805
1782219328.5820,4.3943,1,lf,0.0986,0.0986,-0.1000,0,0.3307,0.3311,-0.1042,-0.0003,0.0018,-0.0035,CLIMB,5,1,0,17.0,0.000,0.300,0,-1,0,-2.0,-17.0,2.0,0.0,0.0,0.0,2037,2826,1212,1912,1298,2788,2050,2901,1310,1039,1278,2804,2036,2803,1224,1912,1315,2792,2052,2884,1309,1041,1284,2805
1782219328.6020,4.4144,1,lf,0.0986,0.0986,-0.1000,0,0.3306,0.3316,-0.1029,-0.0004,0.0016,-0.0044,CLIMB,5,1,0,17.0,0.000,0.320,0,-1,0,-2.0,-17.0,2.0,0.0,0.0,0.0,2037,2826,1212,1912,1298,2788,2050,2901,1310,1039,1278,2804,2035,2809,1214,1912,1316,2791,2052,2884,1309,1041,1283,2805
1782219328.6223,4.4347,1,lf,0.0986,0.0986,-0.1000,0,0.3306,0.3316,-0.1029,-0.0004,0.0014,-0.0048,CLIMB,5,1,0,13.0,0.000,0.340,0,-1,0,-2.0,-13.0,0.0,0.0,0.0,0.0,2037,2826,1212,1912,1298,2788,2050,2901,1310,1039,1278,2804,2035,2809,1214,1912,1316,2791,2052,2884,1309,1041,1283,2805
1782219328.6420,4.4544,1,lf,0.0986,0.0986,-0.1000,0,0.3306,0.3316,-0.1029,-0.0004,0.0014,-0.0050,CLIMB,5,1,0,13.0,0.000,0.360,0,-1,0,-1.0,-13.0,0.0,0.0,0.0,0.0,2037,2826,1212,1912,1298,2788,2050,2901,1310,1039,1278,2804,2036,2813,1212,1912,1316,2792,2052,2884,1308,1041,1284,2806
1782219328.6620,4.4744,1,lf,0.0986,0.0986,-0.1000,0,0.3312,0.3317,-0.1020,-0.0008,0.0014,-0.0056,CLIMB,5,1,0,13.0,0.000,0.380,0,-1,0,-1.0,-13.0,0.0,0.0,0.0,0.0,2037,2826,1212,1912,1298,2788,2050,2901,1310,1039,1278,2804,2036,2813,1212,1912,1316,2792,2052,2884,1308,1041,1284,2806
1782219328.6820,4.4944,1,lf,0.0986,0.0986,-0.1000,0,0.3312,0.3317,-0.1020,-0.0009,0.0013,-0.0059,CLIMB,5,1,0,12.0,0.000,0.400,0,-1,0,-1.0,-12.0,0.0,0.0,0.0,0.0,2037,2826,1212,1912,1298,2788,2050,2901,1310,1039,1278,2804,2036,2813,1212,1912,1316,2792,2052,2884,1308,1041,1284,2806
1782219328.7020,4.5143,1,lf,0.0986,0.0986,-0.1000,0,0.3313,0.3318,-0.1018,-0.0011,0.0013,-0.0061,CLIMB,5,1,0,12.0,0.000,0.420,0,-1,0,-1.0,-12.0,-1.0,0.0,0.0,0.0,2037,2826,1212,1912,1298,2788,2050,2901,1310,1039,1278,2804,2036,2814,1212,1912,1315,2792,2052,2884,1308,1041,1284,2805
1782219328.7220,4.5344,1,lf,0.0986,0.0986,-0.1000,0,0.3313,0.3318,-0.1018,-0.0011,0.0012,-0.0062,CLIMB,5,1,0,12.0,0.000,0.440,0,-1,0,-1.0,-12.0,-1.0,0.0,0.0,0.0,2037,2826,1212,1912,1298,2788,2050,2901,1310,1039,1278,2804,2036,2814,1212,1912,1315,2792,2052,2884,1308,1041,1284,2805
1782219328.7421,4.5544,1,lf,0.0986,0.0986,-0.1000,0,0.3313,0.3318,-0.1018,-0.0012,0.0012,-0.0062,CLIMB,5,1,0,12.0,0.000,0.460,0,-1,0,-1.0,-12.0,0.0,0.0,0.0,0.0,2037,2826,1212,1912,1298,2788,2050,2901,1310,1039,1278,2804,2036,2814,1212,1912,1316,2792,2052,2884,1309,1041,1284,2805
1782219328.7621,4.5745,1,lf,0.0986,0.0986,-0.1000,0,0.3313,0.3318,-0.1018,-0.0012,0.0012,-0.0062,CLIMB,5,1,0,12.0,0.000,0.480,0,-1,0,-1.0,-12.0,0.0,0.0,0.0,0.0,2037,2826,1212,1912,1298,2788,2050,2901,1310,1039,1278,2804,2036,2814,1212,1912,1316,2792,2052,2884,1309,1041,1284,2805
1782219328.7821,4.5944,1,lf,0.0986,0.0986,-0.1000,0,0.3313,0.3318,-0.1018,-0.0012,0.0012,-0.0062,CLIMB,5,1,0,12.0,0.000,0.500,0,-1,0,-2.0,-12.0,-1.0,0.0,0.0,0.0,2037,2826,1212,1912,1298,2788,2050,2901,1310,1039,1278,2804,2036,2814,1212,1912,1316,2792,2052,2884,1309,1041,1284,2805
1782219328.8021,4.6144,1,lf,0.0986,0.0986,-0.1000,0,0.3310,0.3320,-0.1018,-0.0011,0.0011,-0.0062,CLIMB,5,1,0,12.0,0.000,0.520,0,-1,0,-2.0,-12.0,-1.0,0.0,0.0,0.0,2037,2826,1212,1912,1298,2788,2050,2901,1310,1039,1278,2804,2035,2814,1211,1912,1316,2792,2052,2884,1309,1041,1284,2805
1782219328.8220,4.6344,1,lf,0.0986,0.0986,-0.1000,0,0.3310,0.3320,-0.1018,-0.0010,0.0010,-0.0062,CLIMB,5,1,0,12.0,0.000,0.540,0,-1,0,-2.0,-12.0,-1.0,0.0,0.0,0.0,2037,2826,1212,1912,1298,2788,2050,2901,1310,1039,1278,2804,2035,2814,1211,1912,1316,2792,2052,2884,1309,1041,1284,2805
1782219328.8420,4.6544,1,lf,0.0986,0.0986,-0.1000,0,0.3310,0.3320,-0.1018,-0.0010,0.0010,-0.0061,CLIMB,5,1,0,12.0,0.000,0.560,0,-1,0,-1.0,-12.0,-1.0,0.0,0.0,0.0,2037,2826,1212,1912,1298,2788,2050,2901,1310,1039,1278,2804,2036,2814,1211,1912,1315,2792,2052,2884,1308,1040,1284,2805
1782219328.8620,4.6743,1,lf,0.0986,0.0986,-0.1000,0,0.3313,0.3318,-0.1018,-0.0011,0.0011,-0.0061,CLIMB,5,1,0,12.0,0.000,0.580,0,-1,0,-2.0,-12.0,-1.0,0.0,0.0,0.0,2037,2826,1212,1912,1298,2788,2050,2901,1310,1039,1278,2804,2036,2814,1211,1912,1315,2792,2052,2884,1308,1040,1284,2805
1782219328.8819,4.6943,1,lf,0.0986,0.0986,-0.1000,0,0.3313,0.3318,-0.1018,-0.0011,0.0012,-0.0061,CLIMB,5,1,0,12.0,0.000,0.600,0,-1,0,-2.0,-12.0,-1.0,0.0,0.0,0.0,2037,2826,1212,1912,1298,2788,2050,2901,1310,1039,1278,2804,2036,2814,1211,1912,1315,2792,2052,2884,1308,1040,1284,2805
1782219328.9020,4.7144,1,lf,0.0986,0.0986,-0.1000,0,0.3310,0.3320,-0.1018,-0.0010,0.0011,-0.0061,CLIMB,5,1,0,12.0,0.000,0.620,0,-1,0,-2.0,-12.0,-1.0,0.0,0.0,0.0,2037,2826,1212,1912,1298,2788,2050,2901,1310,1039,1278,2804,2035,2814,1211,1912,1316,2791,2052,2884,1308,1041,1284,2805
1782219328.9219,4.7343,1,lf,0.0986,0.0986,-0.1000,0,0.3310,0.3320,-0.1018,-0.0010,0.0010,-0.0061,CLIMB,5,1,0,12.0,0.000,0.640,0,-1,0,-2.0,-12.0,-1.0,0.0,0.0,0.0,2037,2826,1212,1912,1298,2788,2050,2901,1310,1039,1278,2804,2035,2814,1211,1912,1316,2791,2052,2884,1308,1041,1284,2805
1782219328.9420,4.7544,1,lf,0.0986,0.0986,-0.1000,0,0.3310,0.3320,-0.1018,-0.0010,0.0010,-0.0060,CLIMB,5,1,0,13.0,0.000,0.660,0,-1,0,-2.0,-13.0,-1.0,0.0,0.0,0.0,2037,2826,1212,1912,1298,2788,2050,2901,1310,1039,1278,2804,2035,2813,1211,1912,1316,2791,2052,2884,1308,1041,1284,2805
1782219328.9620,4.7744,1,lf,0.0986,0.0986,-0.1000,0,0.3309,0.3319,-0.1020,-0.0009,0.0010,-0.0059,CLIMB,5,1,0,12.0,0.000,0.680,0,-1,0,-2.0,-12.0,-1.0,0.0,0.0,0.0,2037,2826,1212,1912,1298,2788,2050,2901,1310,1039,1278,2804,2035,2813,1211,1912,1316,2791,2052,2884,1308,1041,1284,2805
1782219328.9820,4.7944,1,lf,0.0986,0.0986,-0.1000,0,0.3309,0.3319,-0.1020,-0.0009,0.0010,-0.0059,CLIMB,5,1,0,12.0,0.000,0.700,0,-1,0,-2.0,-12.0,-1.0,0.0,0.0,0.0,2037,2826,1212,1912,1298,2788,2050,2901,1310,1039,1278,2804,2035,2813,1211,1912,1316,2791,2052,2884,1308,1041,1284,2805
1782219329.0021,4.8144,1,lf,0.0986,0.0986,-0.1000,0,0.3313,0.3318,-0.1018,-0.0010,0.0011,-0.0059,CLIMB,5,1,0,12.0,0.000,0.720,0,-1,0,-1.0,-12.0,-1.0,0.0,0.0,0.0,2037,2826,1212,1912,1298,2788,2050,2901,1310,1039,1278,2804,2036,2814,1211,1912,1316,2792,2052,2884,1309,1040,1284,2806
1782219329.0220,4.8344,1,lf,0.0986,0.0986,-0.1000,0,0.3313,0.3318,-0.1018,-0.0011,0.0012,-0.0060,CLIMB,5,1,0,12.0,0.000,0.740,0,-1,0,-1.0,-12.0,-1.0,0.0,0.0,0.0,2037,2826,1212,1912,1298,2788,2050,2901,1310,1039,1278,2804,2036,2814,1211,1912,1316,2792,2052,2884,1309,1040,1284,2806
1782219329.0420,4.8544,1,lf,0.0986,0.0986,-0.1000,0,0.3313,0.3318,-0.1018,-0.0011,0.0012,-0.0060,CLIMB,5,1,0,12.0,0.000,0.760,0,-1,0,-1.0,-12.0,-1.0,0.0,0.0,0.0,2037,2826,1212,1912,1298,2788,2050,2901,1310,1039,1278,2804,2036,2814,1211,1912,1316,2792,2052,2884,1308,1041,1284,2805
1782219329.0620,4.8744,1,lf,0.0986,0.0986,-0.1000,0,0.3313,0.3318,-0.1018,-0.0011,0.0013,-0.0060,CLIMB,5,1,0,12.0,0.000,0.780,0,-1,0,-2.0,-12.0,-1.0,0.0,0.0,0.0,2037,2826,1212,1912,1298,2788,2050,2901,1310,1039,1278,2804,2036,2814,1211,1912,1316,2792,2052,2884,1308,1041,1284,2805
1782219329.0820,4.8943,1,lf,0.0986,0.0986,-0.1000,0,0.3313,0.3318,-0.1018,-0.0012,0.0013,-0.0060,CLIMB,5,1,0,12.0,0.000,0.800,0,-1,0,-2.0,-12.0,-1.0,0.0,0.0,0.0,2037,2826,1212,1912,1298,2788,2050,2901,1310,1039,1278,2804,2036,2814,1211,1912,1316,2792,2052,2884,1308,1041,1284,2805
1782219329.1020,4.9144,1,lf,0.0986,0.0986,-0.1000,0,0.3310,0.3320,-0.1018,-0.0011,0.0011,-0.0060,CLIMB,5,1,0,12.0,0.000,0.820,0,-1,0,-2.0,-12.0,-1.0,0.0,0.0,0.0,2037,2826,1212,1912,1298,2788,2050,2901,1310,1039,1278,2804,2035,2814,1211,1912,1316,2791,2052,2884,1308,1040,1284,2805
1782219329.1220,4.9344,1,lf,0.0986,0.0986,-0.1000,0,0.3310,0.3320,-0.1018,-0.0010,0.0010,-0.0060,CLIMB,5,1,0,12.0,0.000,0.840,0,-1,0,-1.0,-12.0,-1.0,0.0,0.0,0.0,2037,2826,1212,1912,1298,2788,2050,2901,1310,1039,1278,2804,2035,2814,1211,1912,1316,2791,2052,2884,1308,1040,1284,2805
1782219329.1420,4.9543,1,lf,0.0986,0.0986,-0.1000,0,0.3310,0.3320,-0.1018,-0.0010,0.0010,-0.0060,CLIMB,5,1,0,12.0,0.000,0.860,0,-1,0,-1.0,-12.0,-1.0,0.0,0.0,0.0,2037,2826,1212,1912,1298,2788,2050,2901,1310,1039,1278,2804,2036,2814,1211,1912,1315,2792,2052,2884,1309,1040,1284,2805
1782219329.1620,4.9743,1,lf,0.0986,0.0986,-0.1000,0,0.3313,0.3318,-0.1018,-0.0011,0.0011,-0.0060,CLIMB,5,1,0,12.0,0.000,0.880,0,-1,0,-2.0,-12.0,-1.0,0.0,0.0,0.0,2037,2826,1212,1912,1298,2788,2050,2901,1310,1039,1278,2804,2036,2814,1211,1912,1315,2792,2052,2884,1309,1040,1284,2805
1782219329.1820,4.9943,1,lf,0.0986,0.0986,-0.1000,0,0.3313,0.3318,-0.1018,-0.0011,0.0012,-0.0060,CLIMB,5,1,0,12.0,0.000,0.900,0,-1,0,-2.0,-12.0,-1.0,0.0,0.0,0.0,2037,2826,1212,1912,1298,2788,2050,2901,1310,1039,1278,2804,2036,2814,1211,1912,1315,2792,2052,2884,1309,1040,1284,2805
1782219329.2020,5.0144,1,lf,0.0986,0.0986,-0.1000,0,0.3310,0.3320,-0.1018,-0.0010,0.0011,-0.0060,CLIMB,5,1,0,12.0,0.000,0.920,0,-1,0,-2.0,-12.0,-1.0,0.0,0.0,0.0,2037,2826,1212,1912,1298,2788,2050,2901,1310,1039,1278,2804,2035,2814,1211,1912,1316,2792,2052,2884,1309,1040,1283,2805
1782219329.2220,5.0344,1,lf,0.0986,0.0986,-0.1000,0,0.3310,0.3320,-0.1018,-0.0010,0.0010,-0.0060,CLIMB,5,1,0,12.0,0.000,0.940,0,-1,0,-2.0,-12.0,-1.0,0.0,0.0,0.0,2037,2826,1212,1912,1298,2788,2050,2901,1310,1039,1278,2804,2035,2814,1211,1912,1316,2792,2052,2884,1309,1040,1283,2805
1782219329.2419,5.0543,1,lf,0.0986,0.0986,-0.1000,0,0.3310,0.3320,-0.1018,-0.0010,0.0010,-0.0060,CLIMB,5,1,0,12.0,0.000,0.960,0,-1,0,-2.0,-12.0,-1.0,0.0,0.0,0.0,2037,2826,1212,1912,1298,2788,2050,2901,1310,1039,1278,2804,2035,2814,1211,1912,1316,2791,2052,2884,1308,1040,1284,2805
1782219329.2620,5.0744,1,lf,0.0986,0.0986,-0.1000,0,0.3310,0.3320,-0.1018,-0.0010,0.0010,-0.0060,CLIMB,5,1,0,12.0,0.000,0.980,0,-1,0,-1.0,-12.0,-1.0,0.0,0.0,0.0,2037,2826,1212,1912,1298,2788,2050,2901,1310,1039,1278,2804,2035,2814,1211,1912,1316,2791,2052,2884,1308,1040,1284,2805
1782219329.2820,5.0944,1,lf,0.0986,0.0986,-0.1000,0,0.3310,0.3320,-0.1018,-0.0010,0.0010,-0.0060,CLIMB,5,1,0,12.0,0.000,1.000,0,-1,0,-1.0,-12.0,-1.0,0.0,0.0,0.0,2037,2826,1212,1912,1298,2788,2050,2901,1310,1039,1278,2804,2035,2814,1211,1912,1316,2791,2052,2884,1308,1040,1284,2805
1782219329.3019,5.1143,1,lf,0.0986,0.0986,-0.1000,0,0.3313,0.3318,-0.1018,-0.0011,0.0011,-0.0060,CLIMB,5,1,0,12.0,0.000,1.020,0,-1,0,-1.0,-12.0,-1.0,0.0,0.0,0.0,2037,2826,1212,1912,1298,2788,2050,2901,1310,1039,1278,2804,2036,2814,1211,1912,1316,2792,2052,2884,1309,1041,1283,2805
1782219329.3221,5.1344,1,lf,0.0986,0.0986,-0.1000,0,0.3313,0.3318,-0.1018,-0.0011,0.0012,-0.0060,CLIMB,5,1,0,12.0,0.000,1.040,0,-1,0,-1.0,-12.0,-1.0,0.0,0.0,0.0,2037,2826,1212,1912,1298,2788,2050,2901,1310,1039,1278,2804,2036,2814,1211,1912,1316,2792,2052,2884,1309,1041,1283,2805
1782219329.3420,5.1544,1,lf,0.0986,0.0986,-0.1000,0,0.3313,0.3318,-0.1018,-0.0011,0.0012,-0.0060,CLIMB,5,1,0,12.0,0.000,1.060,0,-1,0,-1.0,-12.0,-1.0,0.0,0.0,0.0,2037,2826,1212,1912,1298,2788,2050,2901,1310,1039,1278,2804,2036,2814,1211,1912,1316,2792,2052,2884,1309,1041,1283,2805
1782219329.3620,5.1743,1,lf,0.0986,0.0986,-0.1000,0,0.3313,0.3318,-0.1018,-0.0011,0.0012,-0.0060,CLIMB,5,1,0,12.0,0.000,1.080,0,-1,0,-1.0,-12.0,-1.0,0.0,0.0,0.0,2037,2826,1212,1912,1298,2788,2050,2901,1310,1039,1278,2804,2036,2814,1211,1912,1316,2792,2052,2884,1309,1041,1283,2805
1782219329.3820,5.1944,1,lf,0.0986,0.0986,-0.1000,0,0.3313,0.3318,-0.1018,-0.0012,0.0012,-0.0060,CLIMB,5,1,0,12.0,0.000,1.100,0,-1,0,-2.0,-12.0,-1.0,0.0,0.0,0.0,2037,2826,1212,1912,1298,2788,2050,2901,1310,1039,1278,2804,2036,2814,1211,1912,1316,2792,2052,2884,1309,1041,1283,2805
1782219329.4020,5.2144,1,lf,0.0986,0.0986,-0.1000,0,0.3310,0.3320,-0.1018,-0.0011,0.0011,-0.0060,CLIMB,5,1,0,12.0,0.000,1.120,0,-1,0,-2.0,-12.0,-1.0,0.0,0.0,0.0,2037,2826,1212,1912,1298,2788,2050,2901,1310,1039,1278,2804,2035,2814,1211,1912,1316,2792,2052,2884,1309,1040,1283,2805
1782219329.4220,5.2344,1,lf,0.0986,0.0986,-0.1000,0,0.3310,0.3320,-0.1018,-0.0010,0.0010,-0.0060,CLIMB,5,1,0,12.0,0.000,1.140,0,-1,0,-1.0,-12.0,-1.0,0.0,0.0,0.0,2037,2826,1212,1912,1298,2788,2050,2901,1310,1039,1278,2804,2035,2814,1211,1912,1316,2792,2052,2884,1309,1040,1283,2805
1782219329.4420,5.2543,1,lf,0.0986,0.0986,-0.1000,0,0.3310,0.3320,-0.1018,-0.0010,0.0010,-0.0060,CLIMB,5,1,0,12.0,0.000,1.160,0,-1,0,-2.0,-12.0,-1.0,0.0,0.0,0.0,2037,2826,1212,1912,1298,2788,2050,2901,1310,1039,1278,2804,2035,2814,1211,1912,1316,2792,2052,2884,1309,1040,1283,2805
1782219329.4620,5.2744,1,lf,0.0986,0.0986,-0.1000,0,0.3310,0.3320,-0.1018,-0.0010,0.0010,-0.0060,CLIMB,5,1,0,12.0,0.000,1.180,0,-1,0,-2.0,-12.0,-1.0,0.0,0.0,0.0,2037,2826,1212,1912,1298,2788,2050,2901,1310,1039,1278,2804,2035,2814,1211,1912,1316,2792,2052,2884,1309,1040,1283,2805
1782219329.4820,5.2943,1,lf,0.0986,0.0986,-0.1000,0,0.3310,0.3320,-0.1018,-0.0010,0.0010,-0.0060,CLIMB,5,1,0,12.0,0.000,1.200,0,-1,0,-2.0,-12.0,-1.0,0.0,0.0,0.0,2037,2826,1212,1912,1298,2788,2050,2901,1310,1039,1278,2804,2035,2814,1211,1912,1316,2792,2052,2884,1309,1040,1283,2805
1782219329.5020,5.3144,1,lf,0.0986,0.0986,-0.1000,0,0.3310,0.3320,-0.1018,-0.0010,0.0009,-0.0060,CLIMB,5,1,0,12.0,0.000,1.220,0,-1,0,-1.0,-12.0,-1.0,0.0,0.0,0.0,2037,2826,1212,1912,1298,2788,2050,2901,1310,1039,1278,2804,2035,2814,1211,1912,1316,2792,2052,2884,1309,1040,1284,2805
1782219329.5220,5.3344,1,lf,0.0986,0.0986,-0.1000,0,0.3310,0.3320,-0.1018,-0.0010,0.0009,-0.0059,CLIMB,5,1,0,12.0,0.000,1.240,0,-1,0,-1.0,-12.0,-1.0,0.0,0.0,0.0,2037,2826,1212,1912,1298,2788,2050,2901,1310,1039,1278,2804,2035,2814,1211,1912,1316,2792,2052,2884,1309,1040,1284,2805
1782219329.5421,5.3544,1,lf,0.0986,0.0986,-0.1000,0,0.3310,0.3320,-0.1018,-0.0010,0.0009,-0.0059,CLIMB,5,1,0,12.0,0.000,1.260,0,-1,0,-2.0,-12.0,-1.0,0.0,0.0,0.0,2037,2826,1212,1912,1298,2788,2050,2901,1310,1039,1278,2804,2035,2814,1211,1912,1316,2792,2052,2884,1308,1041,1284,2805
1782219329.5620,5.3743,1,lf,0.0986,0.0986,-0.1000,0,0.3310,0.3320,-0.1018,-0.0010,0.0009,-0.0060,CLIMB,5,1,0,12.0,0.000,1.280,0,-1,0,-2.0,-12.0,-1.0,0.0,0.0,0.0,2037,2826,1212,1912,1298,2788,2050,2901,1310,1039,1278,2804,2035,2814,1211,1912,1316,2792,2052,2884,1308,1041,1284,2805
1782219329.5820,5.3944,1,lf,0.0986,0.0986,-0.1000,0,0.3310,0.3320,-0.1018,-0.0010,0.0009,-0.0060,CLIMB,5,1,0,12.0,0.000,1.300,0,-1,0,-2.0,-12.0,-1.0,0.0,0.0,0.0,2037,2826,1212,1912,1298,2788,2050,2901,1310,1039,1278,2804,2035,2814,1211,1912,1316,2792,2052,2884,1308,1041,1284,2805
1782219329.6020,5.4144,1,lf,0.0986,0.0986,-0.1000,0,0.3310,0.3320,-0.1018,-0.0010,0.0009,-0.0060,CLIMB,5,1,0,12.0,0.000,1.320,0,-1,0,-1.0,-12.0,-1.0,0.0,0.0,0.0,2037,2826,1212,1912,1298,2788,2050,2901,1310,1039,1278,2804,2035,2814,1211,1912,1316,2792,2052,2884,1309,1040,1284,2806
1782219329.6220,5.4344,1,lf,0.0986,0.0986,-0.1000,0,0.3310,0.3320,-0.1018,-0.0010,0.0009,-0.0060,CLIMB,5,1,0,12.0,0.000,1.340,0,-1,0,-1.0,-12.0,-1.0,0.0,0.0,0.0,2037,2826,1212,1912,1298,2788,2050,2901,1310,1039,1278,2804,2035,2814,1211,1912,1316,2792,2052,2884,1309,1040,1284,2806
1782219329.6420,5.4544,1,lf,0.0986,0.0986,-0.1000,0,0.3310,0.3320,-0.1018,-0.0010,0.0009,-0.0060,CLIMB,5,1,0,12.0,0.000,1.360,0,-1,0,-1.0,-12.0,-1.0,0.0,0.0,0.0,2037,2826,1212,1912,1298,2788,2050,2901,1310,1039,1278,2804,2036,2814,1211,1912,1316,2792,2052,2884,1308,1041,1284,2805
1782219329.6620,5.4744,1,lf,0.0986,0.0986,-0.1000,0,0.3313,0.3318,-0.1018,-0.0011,0.0011,-0.0060,CLIMB,5,1,0,12.0,0.000,1.380,0,-1,0,-1.0,-12.0,-1.0,0.0,0.0,0.0,2037,2826,1212,1912,1298,2788,2050,2901,1310,1039,1278,2804,2036,2814,1211,1912,1316,2792,2052,2884,1308,1041,1284,2805
1782219329.6820,5.4944,1,lf,0.0986,0.0986,-0.1000,0,0.3313,0.3318,-0.1018,-0.0011,0.0012,-0.0060,CLIMB,5,1,0,12.0,0.000,1.400,0,-1,0,-1.0,-12.0,-1.0,0.0,0.0,0.0,2037,2826,1212,1912,1298,2788,2050,2901,1310,1039,1278,2804,2036,2814,1211,1912,1316,2792,2052,2884,1308,1041,1284,2805
1782219329.7020,5.5144,1,lf,0.0986,0.0986,-0.1000,0,0.3313,0.3318,-0.1018,-0.0011,0.0012,-0.0060,CLIMB,5,1,0,12.0,0.000,1.420,0,-1,0,-2.0,-12.0,-1.0,0.0,0.0,0.0,2037,2826,1212,1912,1298,2788,2050,2901,1310,1039,1278,2804,2036,2814,1211,1912,1316,2792,2052,2884,1309,1041,1284,2805
1782219329.7220,5.5344,1,lf,0.0986,0.0986,-0.1000,0,0.3313,0.3318,-0.1018,-0.0012,0.0012,-0.0060,CLIMB,5,1,0,12.0,0.000,1.440,0,-1,0,-2.0,-12.0,-1.0,0.0,0.0,0.0,2037,2826,1212,1912,1298,2788,2050,2901,1310,1039,1278,2804,2036,2814,1211,1912,1316,2792,2052,2884,1309,1041,1284,2805
1782219329.7420,5.5544,1,lf,0.0986,0.0986,-0.1000,0,0.3313,0.3318,-0.1018,-0.0012,0.0013,-0.0060,CLIMB,5,1,0,12.0,0.000,1.460,0,-1,0,-2.0,-12.0,-1.0,0.0,0.0,0.0,2037,2826,1212,1912,1298,2788,2050,2901,1310,1039,1278,2804,2035,2814,1211,1912,1316,2791,2052,2884,1308,1040,1284,2805
1782219329.7621,5.5744,1,lf,0.0986,0.0986,-0.1000,0,0.3310,0.3320,-0.1018,-0.0011,0.0011,-0.0060,CLIMB,5,1,0,12.0,0.000,1.480,0,-1,0,-1.0,-12.0,-1.0,0.0,0.0,0.0,2037,2826,1212,1912,1298,2788,2050,2901,1310,1039,1278,2804,2035,2814,1211,1912,1316,2791,2052,2884,1308,1040,1284,2805
1782219329.7819,5.5943,1,lf,0.0986,0.0986,-0.1000,0,0.3310,0.3320,-0.1018,-0.0010,0.0010,-0.0060,CLIMB,5,1,0,12.0,0.000,1.500,0,-1,0,-1.0,-12.0,-1.0,0.0,0.0,0.0,2037,2826,1212,1912,1298,2788,2050,2901,1310,1039,1278,2804,2035,2814,1211,1912,1316,2791,2052,2884,1308,1040,1284,2805
1782219329.8020,5.6144,1,lf,0.0986,0.0986,-0.1000,0,0.3313,0.3318,-0.1018,-0.0011,0.0012,-0.0060,CLIMB,5,1,0,12.0,0.000,1.520,0,-1,0,-1.0,-12.0,-1.0,0.0,0.0,0.0,2037,2826,1212,1912,1298,2788,2050,2901,1310,1039,1278,2804,2036,2814,1211,1912,1316,2792,2052,2884,1308,1041,1284,2805
1782219329.8220,5.6344,1,lf,0.0986,0.0986,-0.1000,0,0.3313,0.3318,-0.1018,-0.0012,0.0012,-0.0060,CLIMB,5,1,0,12.0,0.000,1.540,0,-1,0,-1.0,-12.0,-1.0,0.0,0.0,0.0,2037,2826,1212,1912,1298,2788,2050,2901,1310,1039,1278,2804,2036,2814,1211,1912,1316,2792,2052,2884,1308,1041,1284,2805
1782219329.8420,5.6544,1,lf,0.0986,0.0986,-0.1000,0,0.3313,0.3318,-0.1018,-0.0012,0.0013,-0.0060,CLIMB,5,1,0,12.0,0.000,1.560,0,-1,0,-1.0,-12.0,-1.0,0.0,0.0,0.0,2037,2826,1212,1912,1298,2788,2050,2901,1310,1039,1278,2804,2036,2814,1211,1912,1316,2792,2052,2884,1308,1041,1284,2806
1782219329.8619,5.6743,1,lf,0.0986,0.0986,-0.1000,0,0.3313,0.3318,-0.1018,-0.0012,0.0013,-0.0060,CLIMB,5,1,0,12.0,0.000,1.580,0,-1,0,-1.0,-12.0,-1.0,0.0,0.0,0.0,2037,2826,1212,1912,1298,2788,2050,2901,1310,1039,1278,2804,2036,2814,1211,1912,1316,2792,2052,2884,1308,1041,1284,2806
1782219329.8821,5.6944,1,lf,0.0986,0.0986,-0.1000,0,0.3313,0.3318,-0.1018,-0.0012,0.0013,-0.0060,CLIMB,5,1,0,12.0,0.000,1.600,0,-1,0,-1.0,-12.0,-1.0,0.0,0.0,0.0,2037,2826,1212,1912,1298,2788,2050,2901,1310,1039,1278,2804,2036,2814,1211,1912,1316,2792,2052,2884,1308,1041,1284,2806
1782219329.9019,5.7143,1,lf,0.0986,0.0986,-0.1000,0,0.3310,0.3320,-0.1018,-0.0011,0.0011,-0.0060,CLIMB,5,1,0,12.0,0.000,1.620,0,-1,0,-2.0,-12.0,-1.0,0.0,0.0,0.0,2037,2826,1212,1912,1298,2788,2050,2901,1310,1039,1278,2804,2035,2814,1211,1912,1316,2792,2052,2884,1308,1040,1284,2805
1782219329.9220,5.7343,1,lf,0.0986,0.0986,-0.1000,0,0.3310,0.3320,-0.1018,-0.0011,0.0010,-0.0060,CLIMB,5,1,0,12.0,0.000,1.640,0,-1,0,-2.0,-12.0,-1.0,0.0,0.0,0.0,2037,2826,1212,1912,1298,2788,2050,2901,1310,1039,1278,2804,2035,2814,1211,1912,1316,2792,2052,2884,1308,1040,1284,2805
1782219329.9420,5.7544,1,lf,0.0986,0.0986,-0.1000,0,0.3310,0.3320,-0.1018,-0.0010,0.0010,-0.0060,CLIMB,5,1,0,12.0,0.000,1.660,0,-1,0,-2.0,-12.0,-1.0,0.0,0.0,0.0,2037,2826,1212,1912,1298,2788,2050,2901,1310,1039,1278,2804,2035,2814,1211,1912,1316,2792,2052,2884,1308,1041,1284,2805
1782219329.9620,5.7744,1,lf,0.0986,0.0986,-0.1000,0,0.3310,0.3320,-0.1018,-0.0010,0.0010,-0.0060,CLIMB,5,1,0,12.0,0.000,1.680,0,-1,0,-2.0,-12.0,-1.0,0.0,0.0,0.0,2037,2826,1212,1912,1298,2788,2050,2901,1310,1039,1278,2804,2035,2814,1211,1912,1316,2792,2052,2884,1308,1041,1284,2805
1782219329.9820,5.7944,1,lf,0.0986,0.0986,-0.1000,0,0.3310,0.3320,-0.1018,-0.0010,0.0010,-0.0060,CLIMB,5,1,0,12.0,0.000,1.700,0,-1,0,-1.0,-12.0,-1.0,0.0,0.0,0.0,2037,2826,1212,1912,1298,2788,2050,2901,1310,1039,1278,2804,2035,2814,1211,1912,1316,2792,2052,2884,1308,1041,1284,2805
1782219330.0019,5.8143,1,lf,0.0986,0.0986,-0.1000,0,0.3313,0.3318,-0.1018,-0.0011,0.0011,-0.0060,CLIMB,5,1,0,12.0,0.000,1.720,0,-1,0,-1.0,-12.0,-1.0,0.0,0.0,0.0,2037,2826,1212,1912,1298,2788,2050,2901,1310,1039,1278,2804,2036,2814,1211,1912,1316,2792,2052,2884,1309,1040,1284,2805
1782219330.0220,5.8343,1,lf,0.0986,0.0986,-0.1000,0,0.3313,0.3318,-0.1018,-0.0012,0.0012,-0.0060,CLIMB,5,1,0,12.0,0.000,1.740,0,-1,0,-2.0,-12.0,-1.0,0.0,0.0,0.0,2037,2826,1212,1912,1298,2788,2050,2901,1310,1039,1278,2804,2036,2814,1211,1912,1316,2792,2052,2884,1309,1040,1284,2805
1782219330.0419,5.8543,1,lf,0.0986,0.0986,-0.1000,0,0.3313,0.3318,-0.1018,-0.0012,0.0012,-0.0060,CLIMB,5,1,0,12.0,0.000,1.760,0,-1,0,-2.0,-12.0,-1.0,0.0,0.0,0.0,2037,2826,1212,1912,1298,2788,2050,2901,1310,1039,1278,2804,2035,2814,1211,1912,1316,2792,2052,2884,1308,1041,1284,2805
1782219330.0619,5.8743,1,lf,0.0986,0.0986,-0.1000,0,0.3310,0.3320,-0.1018,-0.0011,0.0011,-0.0060,CLIMB,5,1,0,12.0,0.000,1.780,0,-1,0,-2.0,-12.0,-1.0,0.0,0.0,0.0,2037,2826,1212,1912,1298,2788,2050,2901,1310,1039,1278,2804,2035,2814,1211,1912,1316,2792,2052,2884,1308,1041,1284,2805
1782219330.0819,5.8942,1,lf,0.0986,0.0986,-0.1000,0,0.3310,0.3320,-0.1018,-0.0011,0.0010,-0.0060,CLIMB,5,1,0,12.0,0.000,1.800,0,-1,0,-2.0,-12.0,-1.0,0.0,0.0,0.0,2037,2826,1212,1912,1298,2788,2050,2901,1310,1039,1278,2804,2035,2814,1211,1912,1316,2792,2052,2884,1308,1041,1284,2805
1782219330.1020,5.9144,1,lf,0.0986,0.0986,-0.1000,0,0.3310,0.3320,-0.1018,-0.0010,0.0010,-0.0060,CLIMB,5,1,0,12.0,0.000,1.820,0,-1,0,-2.0,-12.0,-1.0,0.0,0.0,0.0,2037,2826,1212,1912,1298,2788,2050,2901,1310,1039,1278,2804,2035,2814,1211,1913,1316,2792,2052,2884,1309,1040,1284,2805
1782219330.1219,5.9343,1,lf,0.0986,0.0986,-0.1000,0,0.3310,0.3320,-0.1018,-0.0010,0.0010,-0.0060,CLIMB,5,1,0,12.0,0.000,1.840,0,-1,0,-1.0,-12.0,-1.0,0.0,0.0,0.0,2037,2826,1212,1912,1298,2788,2050,2901,1310,1039,1278,2804,2035,2814,1211,1913,1316,2792,2052,2884,1309,1040,1284,2805
1782219330.1419,5.9542,1,lf,0.0986,0.0986,-0.1000,0,0.3310,0.3320,-0.1018,-0.0010,0.0010,-0.0060,CLIMB,5,1,0,12.0,0.000,1.860,0,-1,0,-2.0,-12.0,-1.0,0.0,0.0,0.0,2037,2826,1212,1912,1298,2788,2050,2901,1310,1039,1278,2804,2036,2814,1211,1912,1316,2791,2052,2884,1309,1041,1284,2805
1782219330.1620,5.9743,1,lf,0.0986,0.0986,-0.1000,0,0.3313,0.3318,-0.1018,-0.0011,0.0011,-0.0060,CLIMB,5,1,0,12.0,0.000,1.880,0,-1,0,-2.0,-12.0,-1.0,0.0,0.0,0.0,2037,2826,1212,1912,1298,2788,2050,2901,1310,1039,1278,2804,2036,2814,1211,1912,1316,2791,2052,2884,1309,1041,1284,2805
1782219330.1820,5.9943,1,lf,0.0986,0.0986,-0.1000,0,0.3313,0.3318,-0.1018,-0.0012,0.0012,-0.0060,CLIMB,5,1,0,12.0,0.000,1.900,0,-1,0,-1.0,-12.0,-1.0,0.0,0.0,0.0,2037,2826,1212,1912,1298,2788,2050,2901,1310,1039,1278,2804,2036,2814,1211,1912,1316,2791,2052,2884,1309,1041,1284,2805
1782219330.2020,6.0143,1,lf,0.0986,0.0986,-0.1000,0,0.3313,0.3318,-0.1018,-0.0012,0.0012,-0.0060,CLIMB,5,1,0,12.0,0.000,1.920,0,-1,0,-1.0,-12.0,-1.0,0.0,0.0,0.0,2037,2826,1212,1912,1298,2788,2050,2901,1310,1039,1278,2804,2036,2814,1211,1912,1316,2791,2052,2884,1308,1041,1283,2805
1782219330.2220,6.0344,1,lf,0.0986,0.0986,-0.1000,0,0.3313,0.3318,-0.1018,-0.0012,0.0013,-0.0060,CLIMB,5,1,0,12.0,0.000,1.940,0,-1,0,-1.0,-12.0,-1.0,0.0,0.0,0.0,2037,2826,1212,1912,1298,2788,2050,2901,1310,1039,1278,2804,2036,2814,1211,1912,1316,2791,2052,2884,1308,1041,1283,2805
1782219330.2419,6.0543,1,lf,0.0986,0.0986,-0.1000,0,0.3313,0.3318,-0.1018,-0.0012,0.0013,-0.0060,CLIMB,5,1,0,12.0,0.000,1.960,0,-1,0,-2.0,-12.0,-1.0,0.0,0.0,0.0,2037,2826,1212,1912,1298,2788,2050,2901,1310,1039,1278,2804,2035,2814,1211,1912,1315,2792,2052,2884,1309,1041,1284,2805
1782219330.2619,6.0743,1,lf,0.0986,0.0986,-0.1000,0,0.3310,0.3320,-0.1018,-0.0011,0.0011,-0.0060,CLIMB,5,1,0,12.0,0.000,1.980,0,-1,0,-2.0,-12.0,-1.0,0.0,0.0,0.0,2037,2826,1212,1912,1298,2788,2050,2901,1310,1039,1278,2804,2035,2814,1211,1912,1315,2792,2052,2884,1309,1041,1284,2805
1782219330.2819,6.0943,1,lf,0.0986,0.0986,-0.1000,0,0.3310,0.3320,-0.1018,-0.0011,0.0011,-0.0060,CLIMB,5,1,0,12.0,0.000,2.000,0,-1,0,-1.0,-12.0,-1.0,0.0,0.0,0.0,2037,2826,1212,1912,1298,2788,2050,2901,1310,1039,1278,2804,2035,2814,1211,1912,1315,2792,2052,2884,1309,1041,1284,2805
1782219330.3019,6.1143,1,lf,0.0986,0.0986,-0.1000,0,0.3313,0.3318,-0.1018,-0.0012,0.0012,-0.0060,CLIMB,5,1,0,12.0,0.000,2.020,0,-1,0,-1.0,-12.0,-1.0,0.0,0.0,0.0,2037,2826,1212,1912,1298,2788,2050,2901,1310,1039,1278,2804,2036,2814,1211,1912,1316,2792,2052,2884,1308,1040,1284,2805
1782219330.3220,6.1344,1,lf,0.0986,0.0986,-0.1000,0,0.3313,0.3318,-0.1018,-0.0012,0.0012,-0.0060,CLIMB,5,1,0,12.0,0.000,2.040,0,-1,0,-1.0,-12.0,-1.0,0.0,0.0,0.0,2037,2826,1212,1912,1298,2788,2050,2901,1310,1039,1278,2804,2036,2814,1211,1912,1316,2792,2052,2884,1308,1040,1284,2805
1782219330.3419,6.1543,1,lf,0.0986,0.0986,-0.1000,0,0.3313,0.3318,-0.1018,-0.0012,0.0012,-0.0060,CLIMB,5,1,0,12.0,0.000,2.060,0,-1,0,-1.0,-12.0,-1.0,0.0,0.0,0.0,2037,2826,1212,1912,1298,2788,2050,2901,1310,1039,1278,2804,2036,2814,1211,1912,1316,2792,2052,2884,1309,1041,1284,2805
1782219330.3619,6.1743,1,lf,0.0986,0.0986,-0.1000,0,0.3313,0.3318,-0.1018,-0.0012,0.0013,-0.0060,CLIMB,5,1,0,12.0,0.000,2.080,0,-1,0,-1.0,-12.0,-1.0,0.0,0.0,0.0,2037,2826,1212,1912,1298,2788,2050,2901,1310,1039,1278,2804,2036,2814,1211,1912,1316,2792,2052,2884,1309,1041,1284,2805
1782219330.3820,6.1943,1,lf,0.0986,0.0986,-0.1000,0,0.3313,0.3318,-0.1018,-0.0012,0.0013,-0.0060,CLIMB,5,1,0,12.0,0.000,2.100,0,-1,0,-2.0,-12.0,-1.0,0.0,0.0,0.0,2037,2826,1212,1912,1298,2788,2050,2901,1310,1039,1278,2804,2036,2814,1211,1912,1316,2792,2052,2884,1309,1041,1284,2805
1782219330.4019,6.2142,1,lf,0.0986,0.0986,-0.1000,0,0.3310,0.3320,-0.1018,-0.0011,0.0011,-0.0060,CLIMB,5,1,0,12.0,0.000,2.120,0,-1,0,-2.0,-12.0,-1.0,0.0,0.0,0.0,2037,2826,1212,1912,1298,2788,2050,2901,1310,1039,1278,2804,2035,2814,1211,1912,1316,2791,2052,2884,1308,1041,1284,2805
1782219330.4219,6.2343,1,lf,0.0986,0.0986,-0.1000,0,0.3310,0.3320,-0.1018,-0.0011,0.0010,-0.0060,CLIMB,5,1,0,12.0,0.000,2.140,0,-1,0,-2.0,-12.0,-1.0,0.0,0.0,0.0,2037,2826,1212,1912,1298,2788,2050,2901,1310,1039,1278,2804,2035,2814,1211,1912,1316,2791,2052,2884,1308,1041,1284,2805
1782219330.4419,6.2542,1,lf,0.0986,0.0986,-0.1000,0,0.3310,0.3320,-0.1018,-0.0011,0.0010,-0.0060,CLIMB,5,1,0,12.0,0.000,2.160,0,-1,0,-2.0,-12.0,-1.0,0.0,0.0,0.0,2037,2826,1212,1912,1298,2788,2050,2901,1310,1039,1278,2804,2035,2814,1211,1912,1316,2792,2052,2884,1309,1041,1284,2805
1782219330.4620,6.2744,1,lf,0.0986,0.0986,-0.1000,0,0.3310,0.3320,-0.1018,-0.0010,0.0010,-0.0060,CLIMB,5,1,0,12.0,0.000,2.180,0,-1,0,-2.0,-12.0,-1.0,0.0,0.0,0.0,2037,2826,1212,1912,1298,2788,2050,2901,1310,1039,1278,2804,2035,2814,1211,1912,1316,2792,2052,2884,1309,1041,1284,2805
1782219330.4819,6.2942,1,lf,0.0986,0.0986,-0.1000,0,0.3310,0.3320,-0.1018,-0.0010,0.0010,-0.0060,CLIMB,5,1,0,12.0,0.000,2.200,0,-1,0,-2.0,-12.0,-1.0,0.0,0.0,0.0,2037,2826,1212,1912,1298,2788,2050,2901,1310,1039,1278,2804,2035,2814,1211,1912,1316,2792,2052,2884,1309,1041,1284,2805
1782219330.5020,6.3144,1,lf,0.0986,0.0986,-0.1000,0,0.3310,0.3320,-0.1018,-0.0010,0.0010,-0.0061,CLIMB,5,1,0,12.0,0.000,2.220,0,-1,0,-2.0,-12.0,-1.0,0.0,0.0,0.0,2037,2826,1212,1912,1298,2788,2050,2901,1310,1039,1278,2804,2035,2814,1211,1912,1316,2791,2052,2884,1308,1041,1284,2805
1782219330.5219,6.3342,1,lf,0.0986,0.0986,-0.1000,0,0.3310,0.3320,-0.1018,-0.0010,0.0010,-0.0060,CLIMB,5,1,0,12.0,0.000,2.240,0,-1,0,-2.0,-12.0,-1.0,0.0,0.0,0.0,2037,2826,1212,1912,1298,2788,2050,2901,1310,1039,1278,2804,2035,2814,1211,1912,1316,2791,2052,2884,1308,1041,1284,2805
1782219330.5420,6.3543,1,lf,0.0986,0.0986,-0.1000,0,0.3310,0.3320,-0.1018,-0.0010,0.0010,-0.0061,CLIMB,5,1,0,12.0,0.000,2.260,0,-1,0,-2.0,-12.0,-1.0,0.0,0.0,0.0,2037,2826,1212,1912,1298,2788,2050,2901,1310,1039,1278,2804,2035,2814,1211,1912,1316,2792,2052,2884,1309,1040,1284,2805
1782219330.5619,6.3743,1,lf,0.0986,0.0986,-0.1000,0,0.3310,0.3320,-0.1018,-0.0010,0.0010,-0.0061,CLIMB,5,1,0,12.0,0.000,2.280,0,-1,0,-2.0,-12.0,-1.0,0.0,0.0,0.0,2037,2826,1212,1912,1298,2788,2050,2901,1310,1039,1278,2804,2035,2814,1211,1912,1316,2792,2052,2884,1309,1040,1284,2805
1782219330.5819,6.3943,1,lf,0.0986,0.0986,-0.1000,0,0.3310,0.3320,-0.1018,-0.0010,0.0010,-0.0060,CLIMB,5,1,0,12.0,0.000,2.300,0,-1,0,-2.0,-12.0,-1.0,0.0,0.0,0.0,2037,2826,1212,1912,1298,2788,2050,2901,1310,1039,1278,2804,2035,2814,1211,1912,1316,2792,2052,2884,1309,1040,1284,2805
1782219330.6020,6.4143,1,lf,0.0986,0.0986,-0.1000,0,0.3310,0.3320,-0.1018,-0.0010,0.0010,-0.0060,CLIMB,5,1,0,12.0,0.000,2.320,0,-1,0,-2.0,-12.0,-1.0,0.0,0.0,0.0,2037,2826,1212,1912,1298,2788,2050,2901,1310,1039,1278,2804,2035,2814,1211,1912,1316,2791,2052,2884,1308,1041,1284,2805
1782219330.6219,6.4343,1,lf,0.0986,0.0986,-0.1000,0,0.3310,0.3320,-0.1018,-0.0010,0.0010,-0.0060,CLIMB,5,1,0,12.0,0.000,2.340,0,-1,0,-2.0,-12.0,-1.0,0.0,0.0,0.0,2037,2826,1212,1912,1298,2788,2050,2901,1310,1039,1278,2804,2035,2814,1211,1912,1316,2791,2052,2884,1308,1041,1284,2805
1782219330.6420,6.4544,1,lf,0.0986,0.0986,-0.1000,0,0.3310,0.3320,-0.1018,-0.0010,0.0010,-0.0060,CLIMB,5,1,0,12.0,0.000,2.360,0,-1,0,-2.0,-12.0,-1.0,0.0,0.0,0.0,2037,2826,1212,1912,1298,2788,2050,2901,1310,1039,1278,2804,2035,2814,1211,1912,1316,2792,2052,2884,1309,1041,1284,2806
1782219330.6620,6.4743,1,lf,0.0986,0.0986,-0.1000,0,0.3310,0.3320,-0.1018,-0.0010,0.0010,-0.0060,CLIMB,5,1,0,12.0,0.000,2.380,0,-1,0,-1.0,-12.0,-1.0,0.0,0.0,0.0,2037,2826,1212,1912,1298,2788,2050,2901,1310,1039,1278,2804,2035,2814,1211,1912,1316,2792,2052,2884,1309,1041,1284,2806
1782219330.6819,6.4943,1,lf,0.0986,0.0986,-0.1000,0,0.3310,0.3320,-0.1018,-0.0010,0.0010,-0.0060,CLIMB,5,1,0,12.0,0.000,2.400,0,-1,0,-1.0,-12.0,-1.0,0.0,0.0,0.0,2037,2826,1212,1912,1298,2788,2050,2901,1310,1039,1278,2804,2035,2814,1211,1912,1316,2792,2052,2884,1309,1041,1284,2806
1782219330.7020,6.5144,1,lf,0.0986,0.0986,-0.1000,0,0.3309,0.3319,-0.1020,-0.0010,0.0010,-0.0059,CLIMB,5,1,0,13.0,0.000,2.420,0,-1,0,-2.0,-13.0,-1.0,0.0,0.0,0.0,2037,2826,1212,1912,1298,2788,2050,2901,1310,1039,1278,2804,2035,2813,1211,1912,1316,2792,2052,2884,1308,1040,1284,2805
1782219330.7220,6.5344,1,lf,0.0986,0.0986,-0.1000,0,0.3309,0.3319,-0.1020,-0.0009,0.0011,-0.0059,CLIMB,5,1,0,12.0,0.000,2.440,0,-1,0,-1.0,-12.0,-1.0,0.0,0.0,0.0,2037,2826,1212,1912,1298,2788,2050,2901,1310,1039,1278,2804,2035,2813,1211,1912,1316,2792,2052,2884,1308,1040,1284,2805
1782219330.7419,6.5543,1,lf,0.0986,0.0986,-0.1000,0,0.3309,0.3319,-0.1020,-0.0009,0.0011,-0.0058,CLIMB,5,1,0,12.0,0.000,2.460,0,-1,0,-1.0,-12.0,-1.0,0.0,0.0,0.0,2037,2826,1212,1912,1298,2788,2050,2901,1310,1039,1278,2804,2036,2814,1211,1912,1316,2792,2052,2884,1309,1041,1284,2805
1782219330.7619,6.5743,1,lf,0.0986,0.0986,-0.1000,0,0.3313,0.3318,-0.1018,-0.0011,0.0012,-0.0059,CLIMB,5,1,0,12.0,0.000,2.480,0,-1,0,-2.0,-12.0,-1.0,0.0,0.0,0.0,2037,2826,1212,1912,1298,2788,2050,2901,1310,1039,1278,2804,2036,2814,1211,1912,1316,2792,2052,2884,1309,1041,1284,2805
1782219330.7819,6.5942,1,lf,0.0986,0.0986,-0.1000,0,0.3313,0.3318,-0.1018,-0.0011,0.0012,-0.0060,CLIMB,5,1,0,12.0,0.000,2.500,0,-1,0,-1.0,-12.0,-1.0,0.0,0.0,0.0,2037,2826,1212,1912,1298,2788,2050,2901,1310,1039,1278,2804,2036,2814,1211,1912,1316,2792,2052,2884,1309,1041,1284,2805
1782219330.8020,6.6144,1,lf,0.0986,0.0986,-0.1000,0,0.3313,0.3318,-0.1018,-0.0012,0.0013,-0.0060,CLIMB,5,1,0,12.0,0.000,2.520,0,-1,0,-1.0,-12.0,-1.0,0.0,0.0,0.0,2037,2826,1212,1912,1298,2788,2050,2901,1310,1039,1278,2804,2036,2814,1211,1912,1316,2792,2052,2884,1309,1040,1284,2805
1782219330.8219,6.6342,1,lf,0.0986,0.0986,-0.1000,0,0.3313,0.3318,-0.1018,-0.0012,0.0013,-0.0060,CLIMB,5,1,0,12.0,0.000,2.540,0,-1,0,-1.0,-12.0,-1.0,0.0,0.0,0.0,2037,2826,1212,1912,1298,2788,2050,2901,1310,1039,1278,2804,2036,2814,1211,1912,1316,2792,2052,2884,1309,1040,1284,2805
1782219330.8419,6.6543,1,lf,0.0986,0.0986,-0.1000,0,0.3313,0.3318,-0.1018,-0.0012,0.0013,-0.0060,CLIMB,5,1,0,12.0,0.000,2.560,0,-1,0,-1.0,-12.0,-1.0,0.0,0.0,0.0,2037,2826,1212,1912,1298,2788,2050,2901,1310,1039,1278,2804,2036,2814,1211,1912,1316,2792,2052,2884,1309,1040,1284,2805
1782219330.8620,6.6744,1,lf,0.0986,0.0986,-0.1000,0,0.3313,0.3318,-0.1018,-0.0012,0.0013,-0.0061,CLIMB,5,1,0,12.0,0.000,2.580,0,-1,0,-1.0,-12.0,-1.0,0.0,0.0,0.0,2037,2826,1212,1912,1298,2788,2050,2901,1310,1039,1278,2804,2036,2814,1211,1912,1316,2792,2052,2884,1309,1040,1284,2805
1782219330.8819,6.6943,1,lf,0.0986,0.0986,-0.1000,0,0.3313,0.3318,-0.1018,-0.0012,0.0013,-0.0061,CLIMB,5,1,0,12.0,0.000,2.600,0,-1,0,-1.0,-12.0,-1.0,0.0,0.0,0.0,2037,2826,1212,1912,1298,2788,2050,2901,1310,1039,1278,2804,2036,2814,1211,1912,1316,2792,2052,2884,1309,1040,1284,2805
1782219330.9023,6.7146,1,lf,0.0986,0.0986,-0.1000,0,0.3313,0.3318,-0.1018,-0.0012,0.0013,-0.0060,CLIMB,5,1,0,12.0,0.000,2.620,0,-1,0,-1.0,-12.0,-1.0,0.0,0.0,0.0,2037,2826,1212,1912,1298,2788,2050,2901,1310,1039,1278,2804,2036,2814,1211,1912,1316,2792,2052,2884,1309,1041,1284,2805
1782219330.9220,6.7344,1,lf,0.0986,0.0986,-0.1000,0,0.3313,0.3318,-0.1018,-0.0012,0.0013,-0.0060,CLIMB,5,1,0,12.0,0.000,2.640,0,-1,0,-1.0,-12.0,-1.0,0.0,0.0,0.0,2037,2826,1212,1912,1298,2788,2050,2901,1310,1039,1278,2804,2036,2814,1211,1912,1316,2792,2052,2884,1309,1041,1284,2805
1782219330.9420,6.7544,1,lf,0.0986,0.0986,-0.1000,0,0.3313,0.3318,-0.1018,-0.0012,0.0013,-0.0060,CLIMB,5,1,0,12.0,0.000,2.660,0,-1,0,-2.0,-12.0,-1.0,0.0,0.0,0.0,2037,2826,1212,1912,1298,2788,2050,2901,1310,1039,1278,2804,2036,2814,1211,1912,1316,2792,2052,2884,1309,1041,1283,2805
1782219330.9620,6.7744,1,lf,0.0986,0.0986,-0.1000,0,0.3313,0.3318,-0.1018,-0.0012,0.0013,-0.0060,CLIMB,5,1,0,12.0,0.000,2.680,0,-1,0,-2.0,-12.0,-1.0,0.0,0.0,0.0,2037,2826,1212,1912,1298,2788,2050,2901,1310,1039,1278,2804,2036,2814,1211,1912,1316,2792,2052,2884,1309,1041,1283,2805
1782219330.9819,6.7942,1,lf,0.0986,0.0986,-0.1000,0,0.3313,0.3318,-0.1018,-0.0012,0.0013,-0.0060,CLIMB,5,1,0,12.0,0.000,2.700,0,-1,0,-1.0,-12.0,-1.0,0.0,0.0,0.0,2037,2826,1212,1912,1298,2788,2050,2901,1310,1039,1278,2804,2036,2814,1211,1912,1316,2792,2052,2884,1309,1041,1283,2805
1782219331.0018,6.8142,1,lf,0.0986,0.0986,-0.1000,0,0.3313,0.3318,-0.1018,-0.0012,0.0013,-0.0060,CLIMB,5,1,0,12.0,0.000,2.720,0,-1,0,-1.0,-12.0,-1.0,0.0,0.0,0.0,2037,2826,1212,1912,1298,2788,2050,2901,1310,1039,1278,2804,2036,2814,1211,1912,1316,2792,2052,2884,1308,1040,1283,2805
1782219331.0219,6.8343,1,lf,0.0986,0.0986,-0.1000,0,0.3313,0.3318,-0.1018,-0.0012,0.0013,-0.0060,CLIMB,5,1,0,12.0,0.000,2.740,0,-1,0,-2.0,-12.0,-1.0,0.0,0.0,0.0,2037,2826,1212,1912,1298,2788,2050,2901,1310,1039,1278,2804,2036,2814,1211,1912,1316,2792,2052,2884,1308,1040,1283,2805
1782219331.0419,6.8543,1,lf,0.0986,0.0986,-0.1000,0,0.3313,0.3318,-0.1018,-0.0012,0.0013,-0.0060,CLIMB,5,1,0,12.0,0.000,2.760,0,-1,0,-1.0,-12.0,-1.0,0.0,0.0,0.0,2037,2826,1212,1912,1298,2788,2050,2901,1310,1039,1278,2804,2036,2814,1211,1912,1316,2791,2052,2884,1309,1040,1284,2805
1782219331.0620,6.8743,1,lf,0.0986,0.0986,-0.1000,0,0.3313,0.3318,-0.1018,-0.0012,0.0013,-0.0060,CLIMB,5,1,0,12.0,0.000,2.780,0,-1,0,-1.0,-12.0,-1.0,0.0,0.0,0.0,2037,2826,1212,1912,1298,2788,2050,2901,1310,1039,1278,2804,2036,2814,1211,1912,1316,2791,2052,2884,1309,1040,1284,2805
1782219331.0819,6.8943,1,lf,0.0986,0.0986,-0.1000,0,0.3313,0.3318,-0.1018,-0.0012,0.0013,-0.0060,CLIMB,5,1,0,12.0,0.000,2.800,0,-1,0,-2.0,-12.0,-1.0,0.0,0.0,0.0,2037,2826,1212,1912,1298,2788,2050,2901,1310,1039,1278,2804,2036,2814,1211,1912,1316,2791,2052,2884,1309,1040,1284,2805
1782219331.1019,6.9142,1,lf,0.0986,0.0986,-0.1000,0,0.3310,0.3320,-0.1018,-0.0011,0.0011,-0.0060,CLIMB,5,1,0,12.0,0.000,2.820,0,-1,0,-1.0,-12.0,-1.0,0.0,0.0,0.0,2037,2826,1212,1912,1298,2788,2050,2901,1310,1039,1278,2804,2035,2814,1211,1912,1315,2792,2052,2884,1308,1041,1284,2805
1782219331.1220,6.9344,1,lf,0.0986,0.0986,-0.1000,0,0.3310,0.3320,-0.1018,-0.0011,0.0011,-0.0060,CLIMB,5,1,0,12.0,0.000,2.840,0,-1,0,-1.0,-12.0,-1.0,0.0,0.0,0.0,2037,2826,1212,1912,1298,2788,2050,2901,1310,1039,1278,2804,2035,2814,1211,1912,1315,2792,2052,2884,1308,1041,1284,2805
1782219331.1419,6.9543,1,lf,0.0986,0.0986,-0.1000,0,0.3310,0.3320,-0.1018,-0.0011,0.0010,-0.0060,CLIMB,5,1,0,12.0,0.000,2.860,0,-1,0,-2.0,-12.0,-1.0,0.0,0.0,0.0,2037,2826,1212,1912,1298,2788,2050,2901,1310,1039,1278,2804,2035,2814,1211,1912,1316,2792,2052,2884,1309,1041,1283,2805
1782219331.1619,6.9743,1,lf,0.0986,0.0986,-0.1000,0,0.3310,0.3320,-0.1018,-0.0011,0.0010,-0.0060,CLIMB,5,1,0,12.0,0.000,2.880,0,-1,0,-2.0,-12.0,-1.0,0.0,0.0,0.0,2037,2826,1212,1912,1298,2788,2050,2901,1310,1039,1278,2804,2035,2814,1211,1912,1316,2792,2052,2884,1309,1041,1283,2805
1782219331.1819,6.9943,1,lf,0.0986,0.0986,-0.1000,0,0.3310,0.3320,-0.1018,-0.0010,0.0010,-0.0060,CLIMB,5,1,0,12.0,0.000,2.900,0,-1,0,-2.0,-12.0,-1.0,0.0,0.0,0.0,2037,2826,1212,1912,1298,2788,2050,2901,1310,1039,1278,2804,2035,2814,1211,1912,1316,2792,2052,2884,1309,1041,1283,2805
1782219331.2020,7.0143,1,lf,0.0986,0.0986,-0.1000,0,0.3310,0.3320,-0.1018,-0.0010,0.0010,-0.0060,CLIMB,5,1,0,12.0,0.000,2.920,0,-1,0,-1.0,-12.0,-1.0,0.0,0.0,0.0,2037,2826,1212,1912,1298,2788,2050,2901,1310,1039,1278,2804,2035,2814,1211,1912,1316,2792,2052,2884,1309,1041,1284,2805
1782219331.2220,7.0343,1,lf,0.0986,0.0986,-0.1000,0,0.3310,0.3320,-0.1018,-0.0010,0.0010,-0.0060,CLIMB,5,1,0,12.0,0.000,2.940,0,-1,0,-1.0,-12.0,-1.0,0.0,0.0,0.0,2037,2826,1212,1912,1298,2788,2050,2901,1310,1039,1278,2804,2035,2814,1211,1912,1316,2792,2052,2884,1309,1041,1284,2805
1782219331.2420,7.0543,1,lf,0.0986,0.0986,-0.1000,0,0.3310,0.3320,-0.1018,-0.0010,0.0010,-0.0060,CLIMB,5,1,0,12.0,0.000,2.960,0,-1,0,-1.0,-12.0,-1.0,0.0,0.0,0.0,2037,2826,1212,1912,1298,2788,2050,2901,1310,1039,1278,2804,2036,2814,1211,1912,1316,2792,2052,2884,1309,1041,1284,2805
1782219331.2620,7.0743,1,lf,0.0986,0.0986,-0.1000,0,0.3313,0.3318,-0.1018,-0.0011,0.0011,-0.0060,CLIMB,5,1,0,12.0,0.000,2.980,0,-1,0,-1.0,-12.0,-1.0,0.0,0.0,0.0,2037,2826,1212,1912,1298,2788,2050,2901,1310,1039,1278,2804,2036,2814,1211,1912,1316,2792,2052,2884,1309,1041,1284,2805
1782219331.2820,7.0943,1,lf,0.0986,0.0986,-0.1000,0,0.3313,0.3318,-0.1018,-0.0012,0.0012,-0.0060,CLIMB,5,1,0,12.0,0.000,3.000,1,-1,0,-1.0,-12.0,-1.0,0.0,0.0,0.0,2037,2826,1212,1912,1298,2788,2050,2901,1310,1039,1278,2804,2036,2814,1211,1912,1316,2792,2052,2884,1309,1041,1284,2805
1782219331.3020,7.1143,1,lf,0.0986,0.0986,-0.1000,0,0.3313,0.3318,-0.1018,-0.0012,0.0013,-0.0060,CLIMB,5,1,0,12.0,0.000,3.020,1,-1,0,-1.0,-12.0,-1.0,0.0,0.0,0.0,2037,2826,1212,1912,1298,2788,2050,2901,1310,1039,1278,2804,2036,2814,1211,1912,1316,2792,2052,2884,1308,1041,1284,2805
1782219331.3220,7.1344,1,lf,0.0986,0.0986,-0.1000,0,0.3313,0.3318,-0.1018,-0.0012,0.0013,-0.0060,CLIMB,5,1,0,12.0,0.000,3.040,1,-1,0,-1.0,-12.0,-1.0,0.0,0.0,0.0,2037,2826,1212,1912,1298,2788,2050,2901,1310,1039,1278,2804,2036,2814,1211,1912,1316,2792,2052,2884,1308,1041,1284,2805
1782219331.3420,7.1543,1,lf,0.0986,0.0986,-0.1000,0,0.3313,0.3318,-0.1018,-0.0012,0.0013,-0.0060,CLIMB,5,1,0,12.0,0.000,3.060,1,-1,0,-2.0,-12.0,-1.0,0.0,0.0,0.0,2037,2826,1212,1912,1298,2788,2050,2901,1310,1039,1278,2804,2035,2814,1211,1912,1316,2791,2052,2884,1308,1040,1284,2805
1782219331.3618,7.1742,1,lf,0.0986,0.0986,-0.1000,0,0.3310,0.3320,-0.1018,-0.0011,0.0011,-0.0060,CLIMB,5,1,0,12.0,0.000,3.080,1,-1,0,-2.0,-12.0,-1.0,0.0,0.0,0.0,2037,2826,1212,1912,1298,2788,2050,2901,1310,1039,1278,2804,2035,2814,1211,1912,1316,2791,2052,2884,1308,1040,1284,2805
1782219331.3819,7.1943,1,lf,0.0986,0.0986,-0.1000,0,0.3310,0.3320,-0.1018,-0.0011,0.0011,-0.0060,CLIMB,5,1,0,12.0,0.000,3.100,1,-1,0,-2.0,-12.0,-1.0,0.0,0.0,0.0,2037,2826,1212,1912,1298,2788,2050,2901,1310,1039,1278,2804,2035,2814,1211,1912,1316,2791,2052,2884,1308,1040,1284,2805
1782219331.4019,7.2143,1,lf,0.0986,0.0986,-0.1000,0,0.3313,0.3318,-0.1018,-0.0012,0.0012,-0.0060,CLIMB,5,1,0,12.0,0.000,3.120,1,-1,0,-1.0,-12.0,-1.0,0.0,0.0,0.0,2037,2826,1212,1912,1298,2788,2050,2901,1310,1039,1278,2804,2036,2814,1211,1912,1316,2792,2052,2884,1308,1041,1284,2805
1782219331.4219,7.2343,1,lf,0.0986,0.0986,-0.1000,0,0.3313,0.3318,-0.1018,-0.0012,0.0012,-0.0060,CLIMB,5,1,0,12.0,0.000,3.140,1,-1,0,-1.0,-12.0,-1.0,0.0,0.0,0.0,2037,2826,1212,1912,1298,2788,2050,2901,1310,1039,1278,2804,2036,2814,1211,1912,1316,2792,2052,2884,1308,1041,1284,2805
1782219331.4420,7.2544,1,lf,0.0986,0.0986,-0.1000,0,0.3313,0.3318,-0.1018,-0.0012,0.0013,-0.0060,CLIMB,5,1,0,12.0,0.000,3.160,1,-1,0,-1.0,-12.0,-1.0,0.0,0.0,0.0,2037,2826,1212,1912,1298,2788,2050,2901,1310,1039,1278,2804,2036,2814,1211,1912,1316,2791,2052,2884,1308,1041,1284,2805
1782219331.4619,7.2743,1,lf,0.0986,0.0986,-0.1000,0,0.3313,0.3318,-0.1018,-0.0012,0.0013,-0.0060,CLIMB,5,1,0,12.0,0.000,3.180,1,-1,0,-2.0,-12.0,-1.0,0.0,0.0,0.0,2037,2826,1212,1912,1298,2788,2050,2901,1310,1039,1278,2804,2036,2814,1211,1912,1316,2791,2052,2884,1308,1041,1284,2805
1782219331.4819,7.2943,1,lf,0.0986,0.0986,-0.1000,0,0.3313,0.3318,-0.1018,-0.0012,0.0013,-0.0060,CLIMB,5,1,0,12.0,0.000,3.200,1,-1,0,-2.0,-12.0,-1.0,0.0,0.0,0.0,2037,2826,1212,1912,1298,2788,2050,2901,1310,1039,1278,2804,2036,2814,1211,1912,1316,2791,2052,2884,1308,1041,1284,2805
1782219331.5020,7.3144,1,lf,0.0986,0.0986,-0.1000,0,0.3310,0.3320,-0.1018,-0.0011,0.0011,-0.0060,CLIMB,5,1,0,12.0,0.000,3.220,1,-1,0,-2.0,-12.0,-1.0,0.0,0.0,0.0,2037,2826,1212,1912,1298,2788,2050,2901,1310,1039,1278,2804,2035,2814,1211,1912,1316,2792,2052,2884,1308,1041,1284,2805
1782219331.5219,7.3343,1,lf,0.0986,0.0986,-0.1000,0,0.3310,0.3320,-0.1018,-0.0011,0.0011,-0.0060,CLIMB,5,1,0,12.0,0.000,3.240,1,-1,0,-1.0,-12.0,-1.0,0.0,0.0,0.0,2037,2826,1212,1912,1298,2788,2050,2901,1310,1039,1278,2804,2035,2814,1211,1912,1316,2792,2052,2884,1308,1041,1284,2805
1782219331.5420,7.3544,1,lf,0.0986,0.0986,-0.1000,0,0.3310,0.3320,-0.1018,-0.0010,0.0010,-0.0060,CLIMB,5,1,0,12.0,0.000,3.260,1,-1,0,-1.0,-12.0,-1.0,0.0,0.0,0.0,2037,2826,1212,1912,1298,2788,2050,2901,1310,1039,1278,2804,2036,2814,1211,1912,1315,2792,2052,2884,1309,1041,1284,2805
1782219331.5620,7.3744,1,lf,0.0986,0.0986,-0.1000,0,0.3313,0.3318,-0.1018,-0.0011,0.0012,-0.0060,CLIMB,5,1,0,12.0,0.000,3.280,1,-1,0,-1.0,-12.0,-1.0,0.0,0.0,0.0,2037,2826,1212,1912,1298,2788,2050,2901,1310,1039,1278,2804,2036,2814,1211,1912,1315,2792,2052,2884,1309,1041,1284,2805
1782219331.5820,7.3944,1,lf,0.0986,0.0986,-0.1000,0,0.3313,0.3318,-0.1018,-0.0012,0.0012,-0.0060,CLIMB,5,1,0,12.0,0.000,3.300,1,-1,0,-1.0,-12.0,-1.0,0.0,0.0,0.0,2037,2826,1212,1912,1298,2788,2050,2901,1310,1039,1278,2804,2036,2814,1211,1912,1315,2792,2052,2884,1309,1041,1284,2805
1782219331.6020,7.4143,1,lf,0.0986,0.0986,-0.1000,0,0.3313,0.3318,-0.1018,-0.0012,0.0012,-0.0060,CLIMB,5,1,0,12.0,0.000,3.320,1,-1,0,-1.0,-12.0,-1.0,0.0,0.0,0.0,2037,2826,1212,1912,1298,2788,2050,2901,1310,1039,1278,2804,2036,2814,1211,1912,1316,2792,2052,2884,1309,1041,1284,2805
1782219331.6220,7.4343,1,lf,0.0986,0.0986,-0.1000,0,0.3313,0.3318,-0.1018,-0.0012,0.0013,-0.0060,CLIMB,5,1,0,12.0,0.000,3.340,1,-1,0,-2.0,-12.0,-1.0,0.0,0.0,0.0,2037,2826,1212,1912,1298,2788,2050,2901,1310,1039,1278,2804,2036,2814,1211,1912,1316,2792,2052,2884,1309,1041,1284,2805
1782219331.6420,7.4543,1,lf,0.0986,0.0986,-0.1000,0,0.3313,0.3318,-0.1018,-0.0012,0.0013,-0.0060,CLIMB,5,1,0,12.0,0.000,3.360,1,-1,0,-2.0,-12.0,-1.0,0.0,0.0,0.0,2037,2826,1212,1912,1298,2788,2050,2901,1310,1039,1278,2804,2035,2814,1211,1912,1316,2792,2052,2884,1308,1041,1284,2805
1782219331.6620,7.4743,1,lf,0.0986,0.0986,-0.1000,0,0.3310,0.3320,-0.1018,-0.0011,0.0011,-0.0060,CLIMB,5,1,0,12.0,0.000,3.380,1,-1,0,-2.0,-12.0,-1.0,0.0,0.0,0.0,2037,2826,1212,1912,1298,2788,2050,2901,1310,1039,1278,2804,2035,2814,1211,1912,1316,2792,2052,2884,1308,1041,1284,2805
1782219331.6821,7.4944,1,lf,0.0986,0.0986,-0.1000,0,0.3310,0.3320,-0.1018,-0.0011,0.0010,-0.0060,CLIMB,5,1,0,12.0,0.000,3.400,1,-1,0,-2.0,-12.0,-1.0,0.0,0.0,0.0,2037,2826,1212,1912,1298,2788,2050,2901,1310,1039,1278,2804,2035,2814,1211,1912,1316,2792,2052,2884,1308,1041,1284,2805
1782219331.7020,7.5144,1,lf,0.0986,0.0986,-0.1000,0,0.3310,0.3320,-0.1018,-0.0010,0.0010,-0.0060,CLIMB,5,1,0,12.0,0.000,3.420,1,-1,0,-2.0,-12.0,-1.0,0.0,0.0,0.0,2037,2826,1212,1912,1298,2788,2050,2901,1310,1039,1278,2804,2035,2814,1211,1912,1316,2792,2052,2885,1309,1041,1284,2805
1782219331.7220,7.5343,1,lf,0.0986,0.0986,-0.1000,0,0.3310,0.3320,-0.1018,-0.0010,0.0010,-0.0060,CLIMB,5,1,0,12.0,0.000,3.440,1,-1,0,-2.0,-12.0,-1.0,0.0,0.0,0.0,2037,2826,1212,1912,1298,2788,2050,2901,1310,1039,1278,2804,2035,2814,1211,1912,1316,2792,2052,2885,1309,1041,1284,2805
1782219331.7420,7.5543,1,lf,0.0986,0.0986,-0.1000,0,0.3310,0.3320,-0.1018,-0.0010,0.0010,-0.0060,CLIMB,5,1,0,12.0,0.000,3.460,1,-1,0,-1.0,-12.0,-1.0,0.0,0.0,0.0,2037,2826,1212,1912,1298,2788,2050,2901,1310,1039,1278,2804,2035,2814,1211,1912,1315,2792,2052,2884,1308,1041,1284,2805
1782219331.7620,7.5743,1,lf,0.0986,0.0986,-0.1000,0,0.3310,0.3320,-0.1018,-0.0010,0.0010,-0.0060,CLIMB,5,1,0,12.0,0.000,3.480,1,-1,0,-1.0,-12.0,-1.0,0.0,0.0,0.0,2037,2826,1212,1912,1298,2788,2050,2901,1310,1039,1278,2804,2035,2814,1211,1912,1315,2792,2052,2884,1308,1041,1284,2805
1782219331.7819,7.5943,1,lf,0.0986,0.0986,-0.1000,0,0.3310,0.3320,-0.1018,-0.0010,0.0010,-0.0060,CLIMB,5,1,0,12.0,0.000,3.500,1,-1,0,-1.0,-12.0,-1.0,0.0,0.0,0.0,2037,2826,1212,1912,1298,2788,2050,2901,1310,1039,1278,2804,2035,2814,1211,1912,1315,2792,2052,2884,1308,1041,1284,2805
1782219331.8020,7.6143,1,lf,0.0986,0.0986,-0.1000,0,0.3313,0.3318,-0.1018,-0.0011,0.0011,-0.0060,CLIMB,5,1,0,12.0,0.000,3.520,1,-1,0,-1.0,-12.0,-1.0,0.0,0.0,0.0,2037,2826,1212,1912,1298,2788,2050,2901,1310,1039,1278,2804,2036,2814,1211,1912,1316,2792,2052,2884,1309,1041,1284,2805
1782219331.8220,7.6343,1,lf,0.0986,0.0986,-0.1000,0,0.3313,0.3318,-0.1018,-0.0012,0.0012,-0.0060,CLIMB,5,1,0,12.0,0.000,3.540,1,-1,0,-2.0,-12.0,-1.0,0.0,0.0,0.0,2037,2826,1212,1912,1298,2788,2050,2901,1310,1039,1278,2804,2036,2814,1211,1912,1316,2792,2052,2884,1309,1041,1284,2805
1782219331.8419,7.6542,1,lf,0.0986,0.0986,-0.1000,0,0.3313,0.3318,-0.1018,-0.0012,0.0013,-0.0060,CLIMB,5,1,0,12.0,0.000,3.560,1,-1,0,-2.0,-12.0,-1.0,0.0,0.0,0.0,2037,2826,1212,1912,1298,2788,2050,2901,1310,1039,1278,2804,2035,2814,1211,1912,1316,2792,2052,2884,1308,1040,1283,2805
1782219331.8620,7.6743,1,lf,0.0986,0.0986,-0.1000,0,0.3310,0.3320,-0.1018,-0.0011,0.0011,-0.0060,CLIMB,5,1,0,12.0,0.000,3.580,1,-1,0,-2.0,-12.0,-1.0,0.0,0.0,0.0,2037,2826,1212,1912,1298,2788,2050,2901,1310,1039,1278,2804,2035,2814,1211,1912,1316,2792,2052,2884,1308,1040,1283,2805
1782219331.8819,7.6943,1,lf,0.0986,0.0986,-0.1000,0,0.3310,0.3320,-0.1018,-0.0011,0.0011,-0.0060,CLIMB,5,1,0,12.0,0.000,3.600,1,-1,0,-2.0,-12.0,-1.0,0.0,0.0,0.0,2037,2826,1212,1912,1298,2788,2050,2901,1310,1039,1278,2804,2035,2814,1211,1912,1316,2792,2052,2884,1308,1040,1283,2805
1782219331.9020,7.7143,1,lf,0.0986,0.0986,-0.1000,0,0.3310,0.3320,-0.1018,-0.0011,0.0010,-0.0060,CLIMB,5,1,0,12.0,0.000,3.620,1,-1,0,-2.0,-12.0,-1.0,0.0,0.0,0.0,2037,2826,1212,1912,1298,2788,2050,2901,1310,1039,1278,2804,2035,2814,1211,1912,1316,2792,2052,2884,1308,1041,1284,2805
1782219331.9220,7.7344,1,lf,0.0986,0.0986,-0.1000,0,0.3310,0.3320,-0.1018,-0.0010,0.0010,-0.0060,CLIMB,5,1,0,12.0,0.000,3.640,1,-1,0,-2.0,-12.0,-1.0,0.0,0.0,0.0,2037,2826,1212,1912,1298,2788,2050,2901,1310,1039,1278,2804,2035,2814,1211,1912,1316,2792,2052,2884,1308,1041,1284,2805
1782219331.9420,7.7543,1,lf,0.0986,0.0986,-0.1000,0,0.3310,0.3320,-0.1018,-0.0010,0.0010,-0.0060,CLIMB,5,1,0,12.0,0.000,3.660,1,-1,0,-2.0,-12.0,-1.0,0.0,0.0,0.0,2037,2826,1212,1912,1298,2788,2050,2901,1310,1039,1278,2804,2035,2814,1211,1912,1316,2792,2052,2884,1309,1040,1284,2805
1782219331.9620,7.7743,1,lf,0.0986,0.0986,-0.1000,0,0.3310,0.3320,-0.1018,-0.0010,0.0010,-0.0060,CLIMB,5,1,0,12.0,0.000,3.680,1,-1,0,-2.0,-12.0,-1.0,0.0,0.0,0.0,2037,2826,1212,1912,1298,2788,2050,2901,1310,1039,1278,2804,2035,2814,1211,1912,1316,2792,2052,2884,1309,1040,1284,2805
1782219331.9820,7.7944,1,lf,0.0986,0.0986,-0.1000,0,0.3310,0.3320,-0.1018,-0.0010,0.0010,-0.0060,CLIMB,5,1,0,12.0,0.000,3.700,1,-1,0,-2.0,-12.0,-1.0,0.0,0.0,0.0,2037,2826,1212,1912,1298,2788,2050,2901,1310,1039,1278,2804,2035,2814,1211,1912,1316,2792,2052,2884,1309,1040,1284,2805
1782219332.0020,7.8143,1,lf,0.0986,0.0986,-0.1000,0,0.3310,0.3320,-0.1018,-0.0010,0.0010,-0.0060,CLIMB,5,1,0,12.0,0.000,3.720,1,-1,0,-1.0,-12.0,-1.0,0.0,0.0,0.0,2037,2826,1212,1912,1298,2788,2050,2901,1310,1039,1278,2804,2035,2814,1211,1912,1316,2792,2052,2884,1308,1040,1284,2805
1782219332.0219,7.8343,1,lf,0.0986,0.0986,-0.1000,0,0.3310,0.3320,-0.1018,-0.0010,0.0010,-0.0060,CLIMB,5,1,0,12.0,0.000,3.740,1,-1,0,-1.0,-12.0,-1.0,0.0,0.0,0.0,2037,2826,1212,1912,1298,2788,2050,2901,1310,1039,1278,2804,2035,2814,1211,1912,1316,2792,2052,2884,1308,1040,1284,2805
1782219332.0419,7.8543,1,lf,0.0986,0.0986,-0.1000,0,0.3310,0.3320,-0.1018,-0.0010,0.0010,-0.0060,CLIMB,5,1,0,12.0,0.000,3.760,1,-1,0,-1.0,-12.0,-1.0,0.0,0.0,0.0,2037,2826,1212,1912,1298,2788,2050,2901,1310,1039,1278,2804,2036,2814,1211,1912,1315,2792,2052,2884,1308,1040,1284,2805
1782219332.0621,7.8744,1,lf,0.0986,0.0986,-0.1000,0,0.3313,0.3318,-0.1018,-0.0011,0.0012,-0.0060,CLIMB,5,1,0,12.0,0.000,3.780,1,-1,0,-1.0,-12.0,-1.0,0.0,0.0,0.0,2037,2826,1212,1912,1298,2788,2050,2901,1310,1039,1278,2804,2036,2814,1211,1912,1315,2792,2052,2884,1308,1040,1284,2805
1782219332.0820,7.8944,1,lf,0.0986,0.0986,-0.1000,0,0.3313,0.3318,-0.1018,-0.0012,0.0012,-0.0060,CLIMB,5,1,0,12.0,0.000,3.800,1,-1,0,-1.0,-12.0,-1.0,0.0,0.0,0.0,2037,2826,1212,1912,1298,2788,2050,2901,1310,1039,1278,2804,2036,2814,1211,1912,1315,2792,2052,2884,1308,1040,1284,2805
1782219332.1020,7.9144,1,lf,0.0986,0.0986,-0.1000,0,0.3313,0.3318,-0.1018,-0.0012,0.0013,-0.0060,CLIMB,5,1,0,12.0,0.000,3.820,1,-1,0,-2.0,-12.0,-1.0,0.0,0.0,0.0,2037,2826,1212,1912,1298,2788,2050,2901,1310,1039,1278,2804,2036,2814,1211,1912,1315,2792,2052,2884,1309,1041,1284,2805
1782219332.1220,7.9344,1,lf,0.0986,0.0986,-0.1000,0,0.3313,0.3318,-0.1018,-0.0012,0.0013,-0.0060,CLIMB,5,1,0,12.0,0.000,3.840,1,-1,0,-2.0,-12.0,-1.0,0.0,0.0,0.0,2037,2826,1212,1912,1298,2788,2050,2901,1310,1039,1278,2804,2036,2814,1211,1912,1315,2792,2052,2884,1309,1041,1284,2805
1782219332.1420,7.9544,1,lf,0.0986,0.0986,-0.1000,0,0.3313,0.3318,-0.1018,-0.0012,0.0013,-0.0060,CLIMB,5,1,0,12.0,0.000,3.860,1,-1,0,-1.0,-12.0,-1.0,0.0,0.0,0.0,2037,2826,1212,1912,1298,2788,2050,2901,1310,1039,1278,2804,2036,2814,1211,1912,1316,2792,2052,2884,1308,1041,1284,2805
1782219332.1619,7.9743,1,lf,0.0986,0.0986,-0.1000,0,0.3313,0.3318,-0.1018,-0.0012,0.0013,-0.0060,CLIMB,5,1,0,12.0,0.000,3.880,1,-1,0,-1.0,-12.0,-1.0,0.0,0.0,0.0,2037,2826,1212,1912,1298,2788,2050,2901,1310,1039,1278,2804,2036,2814,1211,1912,1316,2792,2052,2884,1308,1041,1284,2805
1782219332.1819,7.9943,1,lf,0.0986,0.0986,-0.1000,0,0.3313,0.3318,-0.1018,-0.0012,0.0013,-0.0060,CLIMB,5,1,0,12.0,0.000,3.900,1,-1,0,-1.0,-12.0,-1.0,0.0,0.0,0.0,2037,2826,1212,1912,1298,2788,2050,2901,1310,1039,1278,2804,2036,2814,1211,1912,1316,2792,2052,2884,1308,1041,1284,2805
1782219332.2020,8.0143,1,lf,0.0986,0.0986,-0.1000,0,0.3310,0.3320,-0.1018,-0.0011,0.0011,-0.0060,CLIMB,5,1,0,12.0,0.000,3.920,1,-1,0,-2.0,-12.0,-1.0,0.0,0.0,0.0,2037,2826,1212,1912,1298,2788,2050,2901,1310,1039,1278,2804,2035,2814,1211,1912,1316,2792,2052,2884,1308,1041,1284,2805
1782219332.2219,8.0343,1,lf,0.0986,0.0986,-0.1000,0,0.3310,0.3320,-0.1018,-0.0011,0.0011,-0.0060,CLIMB,5,1,0,12.0,0.000,3.940,1,-1,0,-2.0,-12.0,-1.0,0.0,0.0,0.0,2037,2826,1212,1912,1298,2788,2050,2901,1310,1039,1278,2804,2035,2814,1211,1912,1316,2792,2052,2884,1308,1041,1284,2805
1782219332.2420,8.0543,1,lf,0.0986,0.0986,-0.1000,0,0.3310,0.3320,-0.1018,-0.0011,0.0010,-0.0060,CLIMB,5,1,0,12.0,0.000,3.960,1,-1,0,-2.0,-12.0,-1.0,0.0,0.0,0.0,2037,2826,1212,1912,1298,2788,2050,2901,1310,1039,1278,2804,2035,2814,1211,1912,1316,2792,2052,2884,1308,1040,1284,2805
1782219332.2620,8.0743,1,lf,0.0986,0.0986,-0.1000,0,0.3310,0.3320,-0.1018,-0.0010,0.0010,-0.0060,CLIMB,5,1,0,12.0,0.000,3.980,1,-1,0,-2.0,-12.0,-1.0,0.0,0.0,0.0,2037,2826,1212,1912,1298,2788,2050,2901,1310,1039,1278,2804,2035,2814,1211,1912,1316,2792,2052,2884,1308,1040,1284,2805
1782219332.2819,8.0943,1,lf,0.0986,0.0986,-0.1000,0,0.3310,0.3320,-0.1018,-0.0010,0.0010,-0.0060,CLIMB,5,1,0,12.0,0.000,4.000,1,-1,0,-2.0,-12.0,-1.0,0.0,0.0,0.0,2037,2826,1212,1912,1298,2788,2050,2901,1310,1039,1278,2804,2035,2814,1211,1912,1316,2792,2052,2884,1308,1040,1284,2805
1782219332.3019,8.1142,1,lf,0.0986,0.0986,-0.1000,0,0.3313,0.3318,-0.1018,-0.0011,0.0011,-0.0060,CLIMB,5,1,0,12.0,0.000,4.020,1,-1,0,-1.0,-12.0,-1.0,0.0,0.0,0.0,2037,2826,1212,1912,1298,2788,2050,2901,1310,1039,1278,2804,2036,2814,1211,1912,1315,2792,2052,2884,1309,1040,1284,2806
1782219332.3219,8.1343,1,lf,0.0986,0.0986,-0.1000,0,0.3313,0.3318,-0.1018,-0.0012,0.0012,-0.0060,CLIMB,5,1,0,12.0,0.000,4.040,1,-1,0,-2.0,-12.0,-1.0,0.0,0.0,0.0,2037,2826,1212,1912,1298,2788,2050,2901,1310,1039,1278,2804,2036,2814,1211,1912,1315,2792,2052,2884,1309,1040,1284,2806
1782219332.3420,8.1543,1,lf,0.0986,0.0986,-0.1000,0,0.3313,0.3318,-0.1018,-0.0012,0.0012,-0.0060,CLIMB,5,1,0,12.0,0.000,4.060,1,-1,0,-2.0,-12.0,-1.0,0.0,0.0,0.0,2037,2826,1212,1912,1298,2788,2050,2901,1310,1039,1278,2804,2035,2814,1211,1912,1316,2791,2052,2884,1308,1040,1283,2805
1782219332.3620,8.1743,1,lf,0.0986,0.0986,-0.1000,0,0.3310,0.3320,-0.1018,-0.0011,0.0011,-0.0060,CLIMB,5,1,0,12.0,0.000,4.080,1,-1,0,-1.0,-12.0,-1.0,0.0,0.0,0.0,2037,2826,1212,1912,1298,2788,2050,2901,1310,1039,1278,2804,2035,2814,1211,1912,1316,2791,2052,2884,1308,1040,1283,2805
1782219332.3820,8.1944,1,lf,0.0986,0.0986,-0.1000,0,0.3310,0.3320,-0.1018,-0.0011,0.0010,-0.0060,CLIMB,5,1,0,12.0,0.000,4.100,1,-1,0,-1.0,-12.0,-1.0,0.0,0.0,0.0,2037,2826,1212,1912,1298,2788,2050,2901,1310,1039,1278,2804,2035,2814,1211,1912,1316,2791,2052,2884,1308,1040,1283,2805
1782219332.4020,8.2143,1,lf,0.0986,0.0986,-0.1000,0,0.3313,0.3318,-0.1018,-0.0012,0.0012,-0.0060,CLIMB,5,1,0,12.0,0.000,4.120,1,-1,0,-1.0,-12.0,-1.0,0.0,0.0,0.0,2037,2826,1212,1912,1298,2788,2050,2901,1310,1039,1278,2804,2036,2814,1211,1913,1316,2792,2052,2884,1308,1040,1284,2805
1782219332.4219,8.2343,1,lf,0.0986,0.0986,-0.1000,0,0.3313,0.3318,-0.1018,-0.0012,0.0012,-0.0060,CLIMB,5,1,0,12.0,0.000,4.140,1,-1,0,-1.0,-12.0,-1.0,0.0,0.0,0.0,2037,2826,1212,1912,1298,2788,2050,2901,1310,1039,1278,2804,2036,2814,1211,1913,1316,2792,2052,2884,1308,1040,1284,2805
1782219332.4419,8.2543,1,lf,0.0986,0.0986,-0.1000,0,0.3313,0.3318,-0.1018,-0.0012,0.0012,-0.0060,CLIMB,5,1,0,12.0,0.000,4.160,1,-1,0,-1.0,-12.0,-1.0,0.0,0.0,0.0,2037,2826,1212,1912,1298,2788,2050,2901,1310,1039,1278,2804,2036,2814,1211,1912,1316,2791,2052,2884,1308,1040,1284,2805
1782219332.4620,8.2744,1,lf,0.0986,0.0986,-0.1000,0,0.3313,0.3318,-0.1018,-0.0012,0.0013,-0.0060,CLIMB,5,1,0,12.0,0.000,4.180,1,-1,0,-2.0,-12.0,-1.0,0.0,0.0,0.0,2037,2826,1212,1912,1298,2788,2050,2901,1310,1039,1278,2804,2036,2814,1211,1912,1316,2791,2052,2884,1308,1040,1284,2805
1782219332.4820,8.2943,1,lf,0.0986,0.0986,-0.1000,0,0.3313,0.3318,-0.1018,-0.0012,0.0013,-0.0060,CLIMB,5,1,0,12.0,0.000,4.200,1,-1,0,-1.0,-12.0,-1.0,0.0,0.0,0.0,2037,2826,1212,1912,1298,2788,2050,2901,1310,1039,1278,2804,2036,2814,1211,1912,1316,2791,2052,2884,1308,1040,1284,2805
1782219332.5020,8.3144,1,lf,0.0986,0.0986,-0.1000,0,0.3313,0.3318,-0.1018,-0.0012,0.0013,-0.0060,CLIMB,5,1,0,12.0,0.000,4.220,1,-1,0,-1.0,-12.0,-1.0,0.0,0.0,0.0,2037,2826,1212,1912,1298,2788,2050,2901,1310,1039,1278,2804,2036,2814,1211,1912,1316,2792,2052,2884,1308,1040,1284,2805
1782219332.5220,8.3343,1,lf,0.0986,0.0986,-0.1000,0,0.3313,0.3318,-0.1018,-0.0012,0.0013,-0.0060,CLIMB,5,1,0,12.0,0.000,4.240,1,-1,0,-1.0,-12.0,-1.0,0.0,0.0,0.0,2037,2826,1212,1912,1298,2788,2050,2901,1310,1039,1278,2804,2036,2814,1211,1912,1316,2792,2052,2884,1308,1040,1284,2805
1782219332.5420,8.3543,1,lf,0.0986,0.0986,-0.1000,0,0.3313,0.3318,-0.1018,-0.0012,0.0013,-0.0060,CLIMB,5,1,0,12.0,0.000,4.260,1,-1,0,-2.0,-12.0,-1.0,0.0,0.0,0.0,2037,2826,1212,1912,1298,2788,2050,2901,1310,1039,1278,2804,2036,2814,1211,1912,1316,2792,2052,2884,1309,1041,1284,2805
1782219332.5620,8.3743,1,lf,0.0986,0.0986,-0.1000,0,0.3313,0.3318,-0.1018,-0.0012,0.0013,-0.0061,CLIMB,5,1,0,12.0,0.000,4.280,1,-1,0,-2.0,-12.0,-1.0,0.0,0.0,0.0,2037,2826,1212,1912,1298,2788,2050,2901,1310,1039,1278,2804,2036,2814,1211,1912,1316,2792,2052,2884,1309,1041,1284,2805
1782219332.5819,8.3943,1,lf,0.0986,0.0986,-0.1000,0,0.3313,0.3318,-0.1018,-0.0012,0.0013,-0.0061,CLIMB,5,1,0,12.0,0.000,4.300,1,-1,0,-1.0,-12.0,-1.0,0.0,0.0,0.0,2037,2826,1212,1912,1298,2788,2050,2901,1310,1039,1278,2804,2036,2814,1211,1912,1316,2792,2052,2884,1309,1041,1284,2805
1782219332.6020,8.4143,1,lf,0.0986,0.0986,-0.1000,0,0.3313,0.3318,-0.1018,-0.0012,0.0013,-0.0061,CLIMB,5,1,0,12.0,0.000,4.320,1,-1,0,-1.0,-12.0,-1.0,0.0,0.0,0.0,2037,2826,1212,1912,1298,2788,2050,2901,1310,1039,1278,2804,2036,2814,1211,1912,1315,2791,2052,2884,1308,1040,1284,2805
1782219332.6219,8.4342,1,lf,0.0986,0.0986,-0.1000,0,0.3313,0.3318,-0.1018,-0.0012,0.0013,-0.0061,CLIMB,5,1,0,12.0,0.000,4.340,1,-1,0,-1.0,-12.0,-1.0,0.0,0.0,0.0,2037,2826,1212,1912,1298,2788,2050,2901,1310,1039,1278,2804,2036,2814,1211,1912,1315,2791,2052,2884,1308,1040,1284,2805
1782219332.6419,8.4542,1,lf,0.0986,0.0986,-0.1000,0,0.3313,0.3318,-0.1018,-0.0012,0.0013,-0.0061,CLIMB,5,1,0,12.0,0.000,4.360,1,-1,0,-1.0,-12.0,-1.0,0.0,0.0,0.0,2037,2826,1212,1912,1298,2788,2050,2901,1310,1039,1278,2804,2036,2814,1211,1912,1316,2792,2052,2884,1308,1040,1284,2805
1782219332.6619,8.4743,1,lf,0.0986,0.0986,-0.1000,0,0.3313,0.3318,-0.1018,-0.0012,0.0013,-0.0061,CLIMB,5,1,0,12.0,0.000,4.380,1,-1,0,-1.0,-12.0,-1.0,0.0,0.0,0.0,2037,2826,1212,1912,1298,2788,2050,2901,1310,1039,1278,2804,2036,2814,1211,1912,1316,2792,2052,2884,1308,1040,1284,2805
1782219332.6819,8.4943,1,lf,0.0986,0.0986,-0.1000,0,0.3313,0.3318,-0.1018,-0.0012,0.0013,-0.0061,CLIMB,5,1,0,12.0,0.000,4.400,1,-1,0,-2.0,-12.0,-1.0,0.0,0.0,0.0,2037,2826,1212,1912,1298,2788,2050,2901,1310,1039,1278,2804,2036,2814,1211,1912,1316,2792,2052,2884,1308,1040,1284,2805
1782219332.7019,8.5143,1,lf,0.0986,0.0986,-0.1000,0,0.3310,0.3320,-0.1018,-0.0011,0.0011,-0.0061,CLIMB,5,1,0,13.0,0.000,4.420,1,-1,0,-2.0,-13.0,-1.0,0.0,0.0,0.0,2037,2826,1212,1912,1298,2788,2050,2901,1310,1039,1278,2804,2035,2814,1211,1912,1316,2792,2052,2884,1308,1041,1283,2805
1782219332.7219,8.5343,1,lf,0.0986,0.0986,-0.1000,0,0.3310,0.3320,-0.1018,-0.0011,0.0010,-0.0061,CLIMB,5,1,0,13.0,0.000,4.440,1,-1,0,-2.0,-13.0,-1.0,0.0,0.0,0.0,2037,2826,1212,1912,1298,2788,2050,2901,1310,1039,1278,2804,2035,2814,1211,1912,1316,2792,2052,2884,1308,1041,1283,2805
1782219332.7420,8.5543,1,lf,0.0986,0.0986,-0.1000,0,0.3310,0.3320,-0.1018,-0.0011,0.0010,-0.0061,CLIMB,5,1,0,12.0,0.000,4.460,1,-1,0,-1.0,-12.0,-1.0,0.0,0.0,0.0,2037,2826,1212,1912,1298,2788,2050,2901,1310,1039,1278,2804,2036,2814,1211,1912,1316,2792,2052,2884,1308,1040,1283,2805
1782219332.7619,8.5743,1,lf,0.0986,0.0986,-0.1000,0,0.3313,0.3318,-0.1018,-0.0012,0.0011,-0.0061,CLIMB,5,1,0,12.0,0.000,4.480,1,-1,0,-1.0,-12.0,-1.0,0.0,0.0,0.0,2037,2826,1212,1912,1298,2788,2050,2901,1310,1039,1278,2804,2036,2814,1211,1912,1316,2792,2052,2884,1308,1040,1283,2805
1782219332.7819,8.5943,1,lf,0.0986,0.0986,-0.1000,0,0.3313,0.3318,-0.1018,-0.0012,0.0012,-0.0061,CLIMB,5,1,0,12.0,0.000,4.500,1,-1,0,-1.0,-12.0,-1.0,0.0,0.0,0.0,2037,2826,1212,1912,1298,2788,2050,2901,1310,1039,1278,2804,2036,2814,1211,1912,1316,2792,2052,2884,1308,1040,1283,2805
1782219332.8019,8.6142,1,lf,0.0986,0.0986,-0.1000,0,0.3313,0.3318,-0.1018,-0.0012,0.0012,-0.0061,CLIMB,5,1,0,13.0,0.000,4.520,1,-1,0,-1.0,-13.0,-1.0,0.0,0.0,0.0,2037,2826,1212,1912,1298,2788,2050,2901,1310,1039,1278,2804,2036,2814,1211,1912,1316,2792,2052,2884,1308,1040,1284,2805
1782219332.8219,8.6343,1,lf,0.0986,0.0986,-0.1000,0,0.3313,0.3318,-0.1018,-0.0012,0.0013,-0.0061,CLIMB,5,1,0,13.0,0.000,4.540,1,-1,0,-1.0,-13.0,-1.0,0.0,0.0,0.0,2037,2826,1212,1912,1298,2788,2050,2901,1310,1039,1278,2804,2036,2814,1211,1912,1316,2792,2052,2884,1308,1040,1284,2805
1782219332.8420,8.6543,1,lf,0.0986,0.0986,-0.1000,0,0.3313,0.3318,-0.1018,-0.0012,0.0013,-0.0061,CLIMB,5,1,0,12.0,0.000,4.560,1,-1,0,-2.0,-12.0,-1.0,0.0,0.0,0.0,2037,2826,1212,1912,1298,2788,2050,2901,1310,1039,1278,2804,2035,2814,1211,1912,1316,2792,2052,2884,1309,1041,1283,2805
1782219332.8619,8.6743,1,lf,0.0986,0.0986,-0.1000,0,0.3310,0.3320,-0.1018,-0.0011,0.0011,-0.0061,CLIMB,5,1,0,12.0,0.000,4.580,1,-1,0,-1.0,-12.0,-1.0,0.0,0.0,0.0,2037,2826,1212,1912,1298,2788,2050,2901,1310,1039,1278,2804,2035,2814,1211,1912,1316,2792,2052,2884,1309,1041,1283,2805
1782219332.8822,8.6946,1,lf,0.0986,0.0986,-0.1000,0,0.3310,0.3320,-0.1018,-0.0011,0.0010,-0.0061,CLIMB,5,1,0,12.0,0.000,4.600,1,-1,0,-1.0,-12.0,-1.0,0.0,0.0,0.0,2037,2826,1212,1912,1298,2788,2050,2901,1310,1039,1278,2804,2036,2814,1211,1912,1316,2792,2052,2884,1308,1040,1284,2805
1782219332.9019,8.7143,1,lf,0.0986,0.0986,-0.1000,0,0.3313,0.3318,-0.1018,-0.0012,0.0012,-0.0061,CLIMB,5,1,0,12.0,0.000,4.620,1,-1,0,-2.0,-12.0,-1.0,0.0,0.0,0.0,2037,2826,1212,1912,1298,2788,2050,2901,1310,1039,1278,2804,2036,2814,1211,1912,1316,2792,2052,2884,1308,1040,1284,2805
1782219332.9219,8.7343,1,lf,0.0986,0.0986,-0.1000,0,0.3313,0.3318,-0.1018,-0.0012,0.0012,-0.0061,CLIMB,5,1,0,12.0,0.000,4.640,1,-1,0,-2.0,-12.0,-1.0,0.0,0.0,0.0,2037,2826,1212,1912,1298,2788,2050,2901,1310,1039,1278,2804,2036,2814,1211,1912,1316,2792,2052,2884,1308,1040,1284,2805
1782219332.9420,8.7543,1,lf,0.0986,0.0986,-0.1000,0,0.3313,0.3318,-0.1018,-0.0012,0.0012,-0.0061,CLIMB,5,1,0,12.0,0.000,4.660,1,-1,0,-2.0,-12.0,-1.0,0.0,0.0,0.0,2037,2826,1212,1912,1298,2788,2050,2901,1310,1039,1278,2804,2035,2814,1211,1912,1316,2792,2052,2884,1308,1041,1283,2805
1782219332.9619,8.7742,1,lf,0.0986,0.0986,-0.1000,0,0.3310,0.3320,-0.1018,-0.0011,0.0011,-0.0061,CLIMB,5,1,0,12.0,0.000,4.680,1,-1,0,-2.0,-12.0,-1.0,0.0,0.0,0.0,2037,2826,1212,1912,1298,2788,2050,2901,1310,1039,1278,2804,2035,2814,1211,1912,1316,2792,2052,2884,1308,1041,1283,2805
1782219332.9819,8.7943,1,lf,0.0986,0.0986,-0.1000,0,0.3310,0.3320,-0.1018,-0.0011,0.0010,-0.0061,CLIMB,5,1,0,12.0,0.000,4.700,1,-1,0,-2.0,-12.0,-1.0,0.0,0.0,0.0,2037,2826,1212,1912,1298,2788,2050,2901,1310,1039,1278,2804,2035,2814,1211,1912,1316,2792,2052,2884,1308,1041,1283,2805
1782219333.0020,8.8143,1,lf,0.0986,0.0986,-0.1000,0,0.3313,0.3318,-0.1018,-0.0012,0.0012,-0.0061,CLIMB,5,1,0,12.0,0.000,4.720,1,-1,0,-1.0,-12.0,-1.0,0.0,0.0,0.0,2037,2826,1212,1912,1298,2788,2050,2901,1310,1039,1278,2804,2036,2814,1211,1912,1316,2792,2052,2884,1309,1040,1284,2805
1782219333.0220,8.8344,1,lf,0.0986,0.0986,-0.1000,0,0.3313,0.3318,-0.1018,-0.0012,0.0012,-0.0061,CLIMB,5,1,0,12.0,0.000,4.740,1,-1,0,-2.0,-12.0,-1.0,0.0,0.0,0.0,2037,2826,1212,1912,1298,2788,2050,2901,1310,1039,1278,2804,2036,2814,1211,1912,1316,2792,2052,2884,1309,1040,1284,2805
1782219333.0420,8.8544,1,lf,0.0986,0.0986,-0.1000,0,0.3313,0.3318,-0.1018,-0.0012,0.0013,-0.0061,CLIMB,5,1,0,12.0,0.000,4.760,1,-1,0,-2.0,-12.0,-1.0,0.0,0.0,0.0,2037,2826,1212,1912,1298,2788,2050,2901,1310,1039,1278,2804,2035,2814,1211,1912,1316,2792,2052,2884,1309,1040,1284,2805
1782219333.0620,8.8744,1,lf,0.0986,0.0986,-0.1000,0,0.3310,0.3320,-0.1018,-0.0011,0.0011,-0.0061,CLIMB,5,1,0,12.0,0.000,4.780,1,-1,0,-1.0,-12.0,-1.0,0.0,0.0,0.0,2037,2826,1212,1912,1298,2788,2050,2901,1310,1039,1278,2804,2035,2814,1211,1912,1316,2792,2052,2884,1309,1040,1284,2805
1782219333.0819,8.8943,1,lf,0.0986,0.0986,-0.1000,0,0.3310,0.3320,-0.1018,-0.0011,0.0011,-0.0061,CLIMB,5,1,0,12.0,0.000,4.800,1,-1,0,-1.0,-12.0,-1.0,0.0,0.0,0.0,2037,2826,1212,1912,1298,2788,2050,2901,1310,1039,1278,2804,2035,2814,1211,1912,1316,2792,2052,2884,1309,1040,1284,2805
1782219333.1021,8.9144,1,lf,0.0986,0.0986,-0.1000,0,0.3310,0.3320,-0.1018,-0.0011,0.0010,-0.0061,CLIMB,5,1,0,12.0,0.000,4.820,1,-1,0,-2.0,-12.0,-1.0,0.0,0.0,0.0,2037,2826,1212,1912,1298,2788,2050,2901,1310,1039,1278,2804,2035,2814,1211,1912,1316,2791,2052,2884,1308,1041,1284,2805
1782219333.1219,8.9343,1,lf,0.0986,0.0986,-0.1000,0,0.3310,0.3320,-0.1018,-0.0011,0.0010,-0.0061,CLIMB,5,1,0,12.0,0.000,4.840,1,-1,0,-1.0,-12.0,-1.0,0.0,0.0,0.0,2037,2826,1212,1912,1298,2788,2050,2901,1310,1039,1278,2804,2035,2814,1211,1912,1316,2791,2052,2884,1308,1041,1284,2805
1782219333.1420,8.9544,1,lf,0.0986,0.0986,-0.1000,0,0.3310,0.3320,-0.1018,-0.0011,0.0010,-0.0061,CLIMB,5,1,0,12.0,0.000,4.860,1,-1,0,-1.0,-12.0,-1.0,0.0,0.0,0.0,2037,2826,1212,1912,1298,2788,2050,2901,1310,1039,1278,2804,2036,2814,1211,1912,1316,2791,2052,2884,1308,1041,1284,2805
1782219333.1620,8.9744,1,lf,0.0986,0.0986,-0.1000,0,0.3313,0.3318,-0.1018,-0.0012,0.0011,-0.0061,CLIMB,5,1,0,12.0,0.000,4.880,1,-1,0,-2.0,-12.0,-1.0,0.0,0.0,0.0,2037,2826,1212,1912,1298,2788,2050,2901,1310,1039,1278,2804,2036,2814,1211,1912,1316,2791,2052,2884,1308,1041,1284,2805
1782219333.1819,8.9943,1,lf,0.0986,0.0986,-0.1000,0,0.3313,0.3318,-0.1018,-0.0012,0.0012,-0.0061,CLIMB,5,1,0,12.0,0.000,4.900,1,-1,0,-2.0,-12.0,-1.0,0.0,0.0,0.0,2037,2826,1212,1912,1298,2788,2050,2901,1310,1039,1278,2804,2036,2814,1211,1912,1316,2791,2052,2884,1308,1041,1284,2805
1782219333.2019,9.0143,1,lf,0.0986,0.0986,-0.1000,0,0.3310,0.3320,-0.1018,-0.0011,0.0011,-0.0061,CLIMB,5,1,0,12.0,0.000,4.920,1,-1,0,-2.0,-12.0,-1.0,0.0,0.0,0.0,2037,2826,1212,1912,1298,2788,2050,2901,1310,1039,1278,2804,2035,2814,1211,1912,1316,2792,2052,2884,1308,1040,1284,2805
1782219333.2218,9.0342,1,lf,0.0986,0.0986,-0.1000,0,0.3310,0.3320,-0.1018,-0.0011,0.0010,-0.0061,CLIMB,5,1,0,12.0,0.000,4.940,1,-1,0,-1.0,-12.0,-1.0,0.0,0.0,0.0,2037,2826,1212,1912,1298,2788,2050,2901,1310,1039,1278,2804,2035,2814,1211,1912,1316,2792,2052,2884,1308,1040,1284,2805
1782219333.2419,9.0543,1,lf,0.0986,0.0986,-0.1000,0,0.3310,0.3320,-0.1018,-0.0011,0.0010,-0.0061,CLIMB,5,1,0,12.0,0.000,4.960,1,-1,0,-1.0,-12.0,-1.0,0.0,0.0,0.0,2037,2826,1212,1912,1298,2788,2050,2901,1310,1039,1278,2804,2036,2814,1211,1912,1316,2792,2052,2884,1309,1041,1284,2805
1782219333.2620,9.0744,1,lf,0.0986,0.0986,-0.1000,0,0.3313,0.3318,-0.1018,-0.0012,0.0012,-0.0061,CLIMB,5,1,0,12.0,0.000,4.980,1,-1,0,-2.0,-12.0,-1.0,0.0,0.0,0.0,2037,2826,1212,1912,1298,2788,2050,2901,1310,1039,1278,2804,2036,2814,1211,1912,1316,2792,2052,2884,1309,1041,1284,2805
1782219333.2819,9.0943,1,lf,0.0986,0.0986,-0.1000,0,0.3313,0.3318,-0.1018,-0.0012,0.0012,-0.0061,CLIMB,5,1,0,12.0,0.000,5.000,1,-1,0,-2.0,-12.0,-1.0,0.0,0.0,0.0,2037,2826,1212,1912,1298,2788,2050,2901,1310,1039,1278,2804,2036,2814,1211,1912,1316,2792,2052,2884,1309,1041,1284,2805
1782219333.3020,9.1144,1,lf,0.0986,0.0986,-0.1000,0,0.3310,0.3320,-0.1018,-0.0011,0.0011,-0.0061,CLIMB,5,1,0,12.0,0.000,5.020,1,-1,0,-2.0,-12.0,-1.0,0.0,0.0,0.0,2037,2826,1212,1912,1298,2788,2050,2901,1310,1039,1278,2804,2035,2814,1211,1912,1316,2791,2052,2884,1308,1041,1284,2805
1782219333.3219,9.1343,1,lf,0.0986,0.0986,-0.1000,0,0.3310,0.3320,-0.1018,-0.0011,0.0010,-0.0061,CLIMB,5,1,0,12.0,0.000,5.040,1,-1,0,-2.0,-12.0,-1.0,0.0,0.0,0.0,2037,2826,1212,1912,1298,2788,2050,2901,1310,1039,1278,2804,2035,2814,1211,1912,1316,2791,2052,2884,1308,1041,1284,2805
1782219333.3419,9.1543,1,lf,0.0986,0.0986,-0.1000,0,0.3310,0.3320,-0.1018,-0.0011,0.0010,-0.0061,CLIMB,5,1,0,12.0,0.000,5.060,1,-1,0,-1.0,-12.0,-1.0,0.0,0.0,0.0,2037,2826,1212,1912,1298,2788,2050,2901,1310,1039,1278,2804,2035,2814,1211,1912,1316,2792,2052,2884,1308,1041,1284,2805
1782219333.3619,9.1743,1,lf,0.0986,0.0986,-0.1000,0,0.3310,0.3320,-0.1018,-0.0011,0.0010,-0.0061,CLIMB,5,1,0,12.0,0.000,5.080,1,-1,0,-1.0,-12.0,-1.0,0.0,0.0,0.0,2037,2826,1212,1912,1298,2788,2050,2901,1310,1039,1278,2804,2035,2814,1211,1912,1316,2792,2052,2884,1308,1041,1284,2805
1782219333.3820,9.1943,1,lf,0.0986,0.0986,-0.1000,0,0.3310,0.3320,-0.1018,-0.0011,0.0010,-0.0061,CLIMB,5,1,0,12.0,0.000,5.100,1,-1,0,-1.0,-12.0,-1.0,0.0,0.0,0.0,2037,2826,1212,1912,1298,2788,2050,2901,1310,1039,1278,2804,2035,2814,1211,1912,1316,2792,2052,2884,1308,1041,1284,2805
1782219333.4019,9.2143,1,lf,0.0986,0.0986,-0.1000,0,0.3313,0.3318,-0.1018,-0.0012,0.0011,-0.0061,CLIMB,5,1,0,12.0,0.000,5.120,1,-1,0,-1.0,-12.0,-1.0,0.0,0.0,0.0,2037,2826,1212,1912,1298,2788,2050,2901,1310,1039,1278,2804,2036,2814,1211,1912,1316,2792,2052,2884,1309,1040,1283,2805
1782219333.4219,9.2343,1,lf,0.0986,0.0986,-0.1000,0,0.3313,0.3318,-0.1018,-0.0012,0.0012,-0.0061,CLIMB,5,1,0,12.0,0.000,5.140,1,-1,0,-1.0,-12.0,-1.0,0.0,0.0,0.0,2037,2826,1212,1912,1298,2788,2050,2901,1310,1039,1278,2804,2036,2814,1211,1912,1316,2792,2052,2884,1309,1040,1283,2805
1782219333.4419,9.2543,1,lf,0.0986,0.0986,-0.1000,0,0.3313,0.3318,-0.1018,-0.0012,0.0012,-0.0061,CLIMB,5,1,0,12.0,0.000,5.160,1,-1,0,-2.0,-12.0,-1.0,0.0,0.0,0.0,2037,2826,1212,1912,1298,2788,2050,2901,1310,1039,1278,2804,2035,2814,1211,1912,1316,2791,2052,2884,1309,1040,1284,2805
1782219333.4620,9.2743,1,lf,0.0986,0.0986,-0.1000,0,0.3310,0.3320,-0.1018,-0.0011,0.0011,-0.0061,CLIMB,5,1,0,12.0,0.000,5.180,1,-1,0,-2.0,-12.0,-1.0,0.0,0.0,0.0,2037,2826,1212,1912,1298,2788,2050,2901,1310,1039,1278,2804,2035,2814,1211,1912,1316,2791,2052,2884,1309,1040,1284,2805
1782219333.4819,9.2943,1,lf,0.0986,0.0986,-0.1000,0,0.3310,0.3320,-0.1018,-0.0011,0.0010,-0.0061,CLIMB,5,1,0,12.0,0.000,5.200,1,-1,0,-2.0,-12.0,-1.0,0.0,0.0,0.0,2037,2826,1212,1912,1298,2788,2050,2901,1310,1039,1278,2804,2035,2814,1211,1912,1316,2791,2052,2884,1309,1040,1284,2805
1782219333.5019,9.3143,1,lf,0.0986,0.0986,-0.1000,0,0.3310,0.3320,-0.1018,-0.0011,0.0010,-0.0061,CLIMB,5,1,0,12.0,0.000,5.220,1,-1,0,-2.0,-12.0,-1.0,0.0,0.0,0.0,2037,2826,1212,1912,1298,2788,2050,2901,1310,1039,1278,2804,2035,2814,1211,1912,1316,2792,2052,2884,1308,1041,1284,2806
1782219333.5220,9.3343,1,lf,0.0986,0.0986,-0.1000,0,0.3310,0.3320,-0.1018,-0.0011,0.0010,-0.0061,CLIMB,5,1,0,12.0,0.000,5.240,1,-1,0,-2.0,-12.0,-1.0,0.0,0.0,0.0,2037,2826,1212,1912,1298,2788,2050,2901,1310,1039,1278,2804,2035,2814,1211,1912,1316,2792,2052,2884,1308,1041,1284,2806
1782219333.5420,9.3544,1,lf,0.0986,0.0986,-0.1000,0,0.3310,0.3320,-0.1018,-0.0011,0.0010,-0.0061,CLIMB,5,1,0,12.0,0.000,5.260,1,-1,0,-1.0,-12.0,-1.0,0.0,0.0,0.0,2037,2826,1212,1912,1298,2788,2050,2901,1310,1039,1278,2804,2036,2814,1211,1912,1316,2791,2052,2884,1308,1041,1284,2805
1782219333.5620,9.3743,1,lf,0.0986,0.0986,-0.1000,0,0.3313,0.3318,-0.1018,-0.0012,0.0011,-0.0061,CLIMB,5,1,0,12.0,0.000,5.280,1,-1,0,-1.0,-12.0,-1.0,0.0,0.0,0.0,2037,2826,1212,1912,1298,2788,2050,2901,1310,1039,1278,2804,2036,2814,1211,1912,1316,2791,2052,2884,1308,1041,1284,2805
1782219333.5819,9.3943,1,lf,0.0986,0.0986,-0.1000,0,0.3313,0.3318,-0.1018,-0.0012,0.0012,-0.0061,CLIMB,5,1,0,12.0,0.000,5.300,1,-1,0,-2.0,-12.0,-1.0,0.0,0.0,0.0,2037,2826,1212,1912,1298,2788,2050,2901,1310,1039,1278,2804,2035,2814,1211,1912,1316,2792,2052,2884,1308,1040,1284,2806
1782219333.6019,9.4143,1,lf,0.0986,0.0986,-0.1000,0,0.3310,0.3320,-0.1018,-0.0011,0.0011,-0.0061,CLIMB,5,1,0,12.0,0.000,5.320,1,-1,0,-1.0,-12.0,-1.0,0.0,0.0,0.0,2037,2826,1212,1912,1298,2788,2050,2901,1310,1039,1278,2804,2035,2814,1211,1912,1316,2792,2052,2884,1308,1040,1284,2806
1782219333.6219,9.4343,1,lf,0.0986,0.0986,-0.1000,0,0.3310,0.3320,-0.1018,-0.0011,0.0010,-0.0061,CLIMB,5,1,0,12.0,0.000,5.340,1,-1,0,-1.0,-12.0,-1.0,0.0,0.0,0.0,2037,2826,1212,1912,1298,2788,2050,2901,1310,1039,1278,2804,2035,2814,1211,1912,1316,2792,2052,2884,1308,1040,1284,2806
1782219333.6420,9.4544,1,lf,0.0986,0.0986,-0.1000,0,0.3310,0.3320,-0.1018,-0.0011,0.0010,-0.0061,CLIMB,5,1,0,12.0,0.000,5.360,1,-1,0,-1.0,-12.0,-1.0,0.0,0.0,0.0,2037,2826,1212,1912,1298,2788,2050,2901,1310,1039,1278,2804,2036,2814,1211,1912,1316,2792,2052,2884,1308,1041,1284,2805
1782219333.6620,9.4744,1,lf,0.0986,0.0986,-0.1000,0,0.3313,0.3318,-0.1018,-0.0012,0.0011,-0.0061,CLIMB,5,1,0,12.0,0.000,5.380,1,-1,0,-1.0,-12.0,-1.0,0.0,0.0,0.0,2037,2826,1212,1912,1298,2788,2050,2901,1310,1039,1278,2804,2036,2814,1211,1912,1316,2792,2052,2884,1308,1041,1284,2805
1782219333.6820,9.4943,1,lf,0.0986,0.0986,-0.1000,0,0.3313,0.3318,-0.1018,-0.0012,0.0012,-0.0061,CLIMB,5,1,0,12.0,0.000,5.400,1,-1,0,-1.0,-12.0,-1.0,0.0,0.0,0.0,2037,2826,1212,1912,1298,2788,2050,2901,1310,1039,1278,2804,2036,2814,1211,1912,1316,2792,2052,2884,1308,1041,1284,2805
1782219333.7020,9.5144,1,lf,0.0986,0.0986,-0.1000,0,0.3313,0.3318,-0.1018,-0.0012,0.0012,-0.0061,CLIMB,5,1,0,12.0,0.000,5.420,1,-1,0,-1.0,-12.0,-1.0,0.0,0.0,0.0,2037,2826,1212,1912,1298,2788,2050,2901,1310,1039,1278,2804,2036,2814,1211,1913,1316,2792,2052,2884,1309,1040,1284,2805
1782219333.7219,9.5343,1,lf,0.0986,0.0986,-0.1000,0,0.3313,0.3318,-0.1018,-0.0012,0.0013,-0.0061,CLIMB,5,1,0,12.0,0.000,5.440,1,-1,0,-1.0,-12.0,-1.0,0.0,0.0,0.0,2037,2826,1212,1912,1298,2788,2050,2901,1310,1039,1278,2804,2036,2814,1211,1913,1316,2792,2052,2884,1309,1040,1284,2805
1782219333.7420,9.5543,1,lf,0.0986,0.0986,-0.1000,0,0.3313,0.3318,-0.1018,-0.0012,0.0013,-0.0061,CLIMB,5,1,0,12.0,0.000,5.460,1,-1,0,-2.0,-12.0,-1.0,0.0,0.0,0.0,2037,2826,1212,1912,1298,2788,2050,2901,1310,1039,1278,2804,2035,2814,1211,1912,1315,2792,2052,2884,1308,1041,1284,2805
1782219333.7619,9.5743,1,lf,0.0986,0.0986,-0.1000,0,0.3310,0.3320,-0.1018,-0.0011,0.0011,-0.0061,CLIMB,5,1,0,12.0,0.000,5.480,1,-1,0,-1.0,-12.0,-1.0,0.0,0.0,0.0,2037,2826,1212,1912,1298,2788,2050,2901,1310,1039,1278,2804,2035,2814,1211,1912,1315,2792,2052,2884,1308,1041,1284,2805
1782219333.7819,9.5943,1,lf,0.0986,0.0986,-0.1000,0,0.3310,0.3320,-0.1018,-0.0011,0.0011,-0.0061,CLIMB,5,1,0,12.0,0.000,5.500,1,-1,0,-1.0,-12.0,-1.0,0.0,0.0,0.0,2037,2826,1212,1912,1298,2788,2050,2901,1310,1039,1278,2804,2035,2814,1211,1912,1315,2792,2052,2884,1308,1041,1284,2805
1782219333.8020,9.6143,1,lf,0.0986,0.0986,-0.1000,0,0.3310,0.3320,-0.1018,-0.0011,0.0010,-0.0061,CLIMB,5,1,0,12.0,0.000,5.520,1,-1,0,-2.0,-12.0,-1.0,0.0,0.0,0.0,2037,2826,1212,1912,1298,2788,2050,2901,1310,1039,1278,2804,2035,2814,1211,1912,1316,2791,2052,2884,1309,1041,1284,2805
1782219333.8219,9.6343,1,lf,0.0986,0.0986,-0.1000,0,0.3310,0.3320,-0.1018,-0.0011,0.0010,-0.0061,CLIMB,5,1,0,12.0,0.000,5.540,1,-1,0,-2.0,-12.0,-1.0,0.0,0.0,0.0,2037,2826,1212,1912,1298,2788,2050,2901,1310,1039,1278,2804,2035,2814,1211,1912,1316,2791,2052,2884,1309,1041,1284,2805
1782219333.8419,9.6543,1,lf,0.0986,0.0986,-0.1000,0,0.3310,0.3320,-0.1018,-0.0011,0.0010,-0.0061,CLIMB,5,1,0,12.0,0.000,5.560,1,-1,0,-2.0,-12.0,-1.0,0.0,0.0,0.0,2037,2826,1212,1912,1298,2788,2050,2901,1310,1039,1278,2804,2035,2814,1211,1912,1316,2791,2052,2884,1309,1041,1284,2805
1782219333.8620,9.6744,1,lf,0.0986,0.0986,-0.1000,0,0.3310,0.3320,-0.1018,-0.0011,0.0010,-0.0061,CLIMB,5,1,0,12.0,0.000,5.580,1,-1,0,-2.0,-12.0,-1.0,0.0,0.0,0.0,2037,2826,1212,1912,1298,2788,2050,2901,1310,1039,1278,2804,2035,2814,1211,1912,1316,2791,2052,2884,1309,1041,1284,2805
1782219333.8819,9.6943,1,lf,0.0986,0.0986,-0.1000,0,0.3310,0.3320,-0.1018,-0.0011,0.0010,-0.0061,CLIMB,5,1,0,12.0,0.000,5.600,1,-1,0,-2.0,-12.0,-1.0,0.0,0.0,0.0,2037,2826,1212,1912,1298,2788,2050,2901,1310,1039,1278,2804,2035,2814,1211,1912,1316,2791,2052,2884,1309,1041,1284,2805
1782219333.9019,9.7143,1,lf,0.0986,0.0986,-0.1000,0,0.3313,0.3318,-0.1018,-0.0012,0.0011,-0.0061,CLIMB,5,1,0,12.0,0.000,5.620,1,-1,0,-1.0,-12.0,-1.0,0.0,0.0,0.0,2037,2826,1212,1912,1298,2788,2050,2901,1310,1039,1278,2804,2036,2814,1211,1912,1316,2792,2052,2884,1309,1041,1284,2805
1782219333.9219,9.7343,1,lf,0.0986,0.0986,-0.1000,0,0.3313,0.3318,-0.1018,-0.0012,0.0012,-0.0061,CLIMB,5,1,0,12.0,0.000,5.640,1,-1,0,-2.0,-12.0,-1.0,0.0,0.0,0.0,2037,2826,1212,1912,1298,2788,2050,2901,1310,1039,1278,2804,2036,2814,1211,1912,1316,2792,2052,2884,1309,1041,1284,2805
1782219333.9419,9.7543,1,lf,0.0986,0.0986,-0.1000,0,0.3313,0.3318,-0.1018,-0.0012,0.0013,-0.0061,CLIMB,5,1,0,12.0,0.000,5.660,1,-1,0,-2.0,-12.0,-1.0,0.0,0.0,0.0,2037,2826,1212,1912,1298,2788,2050,2901,1310,1039,1278,2804,2035,2814,1211,1912,1315,2792,2052,2884,1308,1040,1284,2805
1782219333.9620,9.7744,1,lf,0.0986,0.0986,-0.1000,0,0.3310,0.3320,-0.1018,-0.0011,0.0011,-0.0061,CLIMB,5,1,0,12.0,0.000,5.680,1,-1,0,-1.0,-12.0,-1.0,0.0,0.0,0.0,2037,2826,1212,1912,1298,2788,2050,2901,1310,1039,1278,2804,2035,2814,1211,1912,1315,2792,2052,2884,1308,1040,1284,2805
1782219333.9819,9.7943,1,lf,0.0986,0.0986,-0.1000,0,0.3310,0.3320,-0.1018,-0.0011,0.0011,-0.0061,CLIMB,5,1,0,12.0,0.000,5.700,1,-1,0,-2.0,-12.0,-1.0,0.0,0.0,0.0,2037,2826,1212,1912,1298,2788,2050,2901,1310,1039,1278,2804,2035,2814,1211,1912,1315,2792,2052,2884,1308,1040,1284,2805
