DreamSnakecc/climbing_ws/test_logs/dxl_autotune_20260623_205243/leg_endpoint/trial_01_id_1_profile_125/single_swing_lf_20260623_205313.csv
wall_time,elapsed_s,cycle,leg,cmd_x,cmd_y,cmd_z,cmd_support,ujc_x,ujc_y,ujc_z,body_x,body_y,body_z,mission_state,servo_phase_id,servo_gate_enabled,servo_ready,servo_max_abs_error_tick,servo_within_tolerance_s,servo_wait_s,servo_timed_out,servo_last_pass_phase_id,servo_last_pass_sequence,servo_error_joint1_tick,servo_error_joint2_tick,servo_error_joint3_tick,servo_last_pass_error_joint1_tick,servo_last_pass_error_joint2_tick,servo_last_pass_error_joint3_tick,ticks_cmd_11,ticks_cmd_1,ticks_cmd_2,ticks_cmd_12,ticks_cmd_3,ticks_cmd_4,ticks_cmd_13,ticks_cmd_5,ticks_cmd_6,ticks_cmd_14,ticks_cmd_7,ticks_cmd_8,ticks_act_11,ticks_act_1,ticks_act_2,ticks_act_12,ticks_act_3,ticks_act_4,ticks_act_13,ticks_act_5,ticks_act_6,ticks_act_14,ticks_act_7,ticks_act_8
1782219195.8032,2.7692,1,lf,0.0986,0.0986,-0.1100,0,0.3315,0.3325,-0.1103,-0.0010,-0.0000,0.0018,CLIMB,4,1,0,0.0,0.000,0.000,0,-1,0,0.0,0.0,0.0,0.0,0.0,0.0,2037,2781,1318,1912,1298,2788,2050,2901,1310,1039,1278,2804,2035,2776,1313,1912,1316,2794,2052,2884,1308,1040,1297,2806
1782219195.8080,2.7740,1,lf,0.0986,0.0986,-0.1100,0,0.3315,0.3325,-0.1103,-0.0010,-0.0000,0.0018,CLIMB,4,1,0,0.0,0.000,0.000,0,-1,0,0.0,0.0,0.0,0.0,0.0,0.0,2037,2781,1318,1912,1298,2788,2050,2901,1310,1039,1278,2804,2035,2776,1313,1912,1316,2794,2052,2884,1308,1040,1297,2806
1782219195.8282,2.7942,1,lf,0.0986,0.0986,-0.1100,0,0.3316,0.3325,-0.1103,-0.0010,-0.0001,0.0019,CLIMB,4,1,0,0.0,0.000,0.000,0,-1,0,0.0,0.0,0.0,0.0,0.0,0.0,2037,2781,1318,1912,1298,2788,2050,2901,1310,1039,1278,2804,2035,2776,1313,1912,1316,2794,2052,2884,1308,1040,1297,2806
1782219195.8483,2.8142,1,lf,0.0986,0.0986,-0.1100,0,0.3316,0.3325,-0.1103,-0.0011,-0.0000,0.0018,CLIMB,4,1,0,0.0,0.000,0.000,0,-1,0,0.0,0.0,0.0,0.0,0.0,0.0,2037,2781,1318,1912,1298,2788,2050,2901,1310,1039,1278,2804,2035,2776,1313,1912,1316,2794,2052,2884,1308,1040,1297,2806
1782219195.8683,2.8343,1,lf,0.0986,0.0986,-0.1100,0,0.3316,0.3325,-0.1103,-0.0011,-0.0000,0.0017,CLIMB,4,1,0,0.0,0.000,0.000,0,-1,0,0.0,0.0,0.0,0.0,0.0,0.0,2037,2781,1318,1912,1298,2788,2050,2901,1310,1039,1278,2804,2035,2776,1313,1912,1316,2793,2052,2884,1308,1040,1297,2806
1782219195.8883,2.8543,1,lf,0.0986,0.0986,-0.1100,0,0.3316,0.3325,-0.1103,-0.0011,-0.0000,0.0017,CLIMB,4,1,0,0.0,0.000,0.000,0,-1,0,0.0,0.0,0.0,0.0,0.0,0.0,2037,2781,1318,1912,1298,2788,2050,2901,1310,1039,1278,2804,2035,2776,1313,1912,1316,2793,2052,2884,1308,1040,1297,2806
1782219195.9082,2.8742,1,lf,0.0986,0.0986,-0.1100,0,0.3316,0.3325,-0.1103,-0.0011,-0.0000,0.0017,CLIMB,4,1,0,0.0,0.000,0.000,0,-1,0,0.0,0.0,0.0,0.0,0.0,0.0,2037,2781,1318,1912,1298,2788,2050,2901,1310,1039,1278,2804,2035,2776,1313,1912,1316,2793,2052,2884,1308,1040,1297,2806
1782219195.9282,2.8941,1,lf,0.0986,0.0986,-0.1100,0,0.3316,0.3325,-0.1103,-0.0011,-0.0000,0.0017,CLIMB,4,1,0,0.0,0.000,0.000,0,-1,0,0.0,0.0,0.0,0.0,0.0,0.0,2037,2781,1318,1912,1298,2788,2050,2901,1310,1039,1278,2804,2035,2776,1313,1912,1316,2793,2052,2884,1308,1040,1297,2806
1782219195.9483,2.9142,1,lf,0.0986,0.0986,-0.1100,0,0.3316,0.3325,-0.1103,-0.0011,0.0000,0.0017,CLIMB,4,1,0,0.0,0.000,0.000,0,-1,0,0.0,0.0,0.0,0.0,0.0,0.0,2037,2781,1318,1912,1298,2788,2050,2901,1310,1039,1278,2804,2035,2776,1313,1912,1316,2793,2052,2884,1308,1040,1297,2806
1782219195.9683,2.9343,1,lf,0.0986,0.0986,-0.1100,0,0.3316,0.3325,-0.1103,-0.0011,0.0000,0.0017,CLIMB,4,1,0,0.0,0.000,0.000,0,-1,0,0.0,0.0,0.0,0.0,0.0,0.0,2037,2781,1318,1912,1298,2788,2050,2901,1310,1039,1278,2804,2036,2776,1312,1912,1316,2793,2052,2884,1308,1040,1297,2806
1782219195.9882,2.9542,1,lf,0.0986,0.0986,-0.1100,0,0.3318,0.3322,-0.1103,-0.0012,0.0002,0.0017,CLIMB,4,1,0,0.0,0.000,0.000,0,-1,0,0.0,0.0,0.0,0.0,0.0,0.0,2037,2781,1318,1912,1298,2788,2050,2901,1310,1039,1278,2804,2036,2776,1312,1912,1316,2793,2052,2884,1308,1040,1297,2806
1782219196.0082,2.9742,1,lf,0.0986,0.0986,-0.1100,0,0.3318,0.3322,-0.1103,-0.0012,0.0003,0.0017,CLIMB,4,1,0,0.0,0.000,0.000,0,-1,0,0.0,0.0,0.0,0.0,0.0,0.0,2037,2781,1318,1912,1298,2788,2050,2901,1310,1039,1278,2804,2035,2776,1312,1912,1316,2793,2052,2884,1308,1040,1297,2806
1782219196.0283,2.9942,1,lf,0.0986,0.0986,-0.1100,0,0.3315,0.3325,-0.1103,-0.0011,0.0001,0.0017,CLIMB,4,1,0,0.0,0.000,0.000,0,-1,0,0.0,0.0,0.0,0.0,0.0,0.0,2037,2781,1318,1912,1298,2788,2050,2901,1310,1039,1278,2804,2035,2776,1312,1912,1316,2793,2052,2884,1308,1040,1297,2806
1782219196.0483,3.0143,1,lf,0.0986,0.0986,-0.1100,0,0.3315,0.3325,-0.1103,-0.0011,0.0001,0.0017,CLIMB,4,1,0,0.0,0.000,0.000,0,-1,0,0.0,0.0,0.0,0.0,0.0,0.0,2037,2781,1318,1912,1298,2788,2050,2901,1310,1039,1278,2804,2035,2776,1312,1912,1316,2793,2052,2884,1308,1040,1297,2806
1782219196.0683,3.0342,1,lf,0.0986,0.0986,-0.1100,0,0.3315,0.3325,-0.1103,-0.0011,0.0001,0.0017,CLIMB,4,1,0,0.0,0.000,0.000,0,-1,0,0.0,0.0,0.0,0.0,0.0,0.0,2037,2781,1318,1912,1298,2788,2050,2901,1310,1039,1278,2804,2035,2776,1313,1912,1316,2793,2052,2884,1308,1040,1297,2806
1782219196.0883,3.0543,1,lf,0.0986,0.0986,-0.1100,0,0.3316,0.3325,-0.1103,-0.0011,0.0000,0.0017,CLIMB,4,1,0,0.0,0.000,0.000,0,-1,0,0.0,0.0,0.0,0.0,0.0,0.0,2037,2781,1318,1912,1298,2788,2050,2901,1310,1039,1278,2804,2035,2776,1313,1912,1316,2793,2052,2884,1308,1040,1297,2806
1782219196.1083,3.0742,1,lf,0.0986,0.0986,-0.1100,0,0.3316,0.3325,-0.1103,-0.0011,0.0000,0.0017,CLIMB,4,1,0,0.0,0.000,0.000,0,-1,0,0.0,0.0,0.0,0.0,0.0,0.0,2037,2781,1318,1912,1298,2788,2050,2901,1310,1039,1278,2804,2036,2776,1312,1912,1316,2793,2052,2884,1308,1040,1297,2806
1782219196.1283,3.0943,1,lf,0.0986,0.0986,-0.1100,0,0.3318,0.3322,-0.1103,-0.0012,0.0002,0.0017,CLIMB,4,1,0,0.0,0.000,0.000,0,-1,0,0.0,0.0,0.0,0.0,0.0,0.0,2037,2781,1318,1912,1298,2788,2050,2901,1310,1039,1278,2804,2036,2776,1312,1912,1316,2793,2052,2884,1308,1040,1297,2806
1782219196.1483,3.1143,1,lf,0.0986,0.0986,-0.1100,0,0.3318,0.3322,-0.1103,-0.0013,0.0003,0.0017,CLIMB,4,1,0,0.0,0.000,0.000,0,-1,0,0.0,0.0,0.0,0.0,0.0,0.0,2037,2781,1318,1912,1298,2788,2050,2901,1310,1039,1278,2804,2036,2776,1312,1912,1316,2793,2052,2884,1308,1040,1297,2806
1782219196.1683,3.1342,1,lf,0.0986,0.0986,-0.1100,0,0.3318,0.3322,-0.1103,-0.0013,0.0003,0.0017,CLIMB,4,1,0,0.0,0.000,0.000,0,-1,0,0.0,0.0,0.0,0.0,0.0,0.0,2037,2781,1318,1912,1298,2788,2050,2901,1310,1039,1278,2804,2035,2776,1313,1912,1316,2793,2052,2884,1308,1040,1297,2806
1782219196.1883,3.1543,1,lf,0.0986,0.0986,-0.1100,0,0.3316,0.3325,-0.1103,-0.0012,0.0002,0.0017,CLIMB,4,1,0,0.0,0.000,0.000,0,-1,0,0.0,0.0,0.0,0.0,0.0,0.0,2037,2781,1318,1912,1298,2788,2050,2901,1310,1039,1278,2804,2035,2776,1313,1912,1316,2793,2052,2884,1308,1040,1297,2806
1782219196.2083,3.1742,1,lf,0.0986,0.0986,-0.1100,0,0.3316,0.3325,-0.1103,-0.0012,0.0001,0.0017,CLIMB,4,1,0,0.0,0.000,0.000,0,-1,0,0.0,0.0,0.0,0.0,0.0,0.0,2037,2781,1318,1912,1298,2788,2050,2901,1310,1039,1278,2804,2036,2776,1313,1912,1316,2793,2052,2884,1308,1040,1297,2806
1782219196.2283,3.1942,1,lf,0.0986,0.0986,-0.1100,0,0.3318,0.3323,-0.1103,-0.0013,0.0002,0.0017,CLIMB,4,1,0,0.0,0.000,0.000,0,-1,0,0.0,0.0,0.0,0.0,0.0,0.0,2037,2781,1318,1912,1298,2788,2050,2901,1310,1039,1278,2804,2036,2776,1313,1912,1316,2793,2052,2884,1308,1040,1297,2806
1782219196.2483,3.2143,1,lf,0.0986,0.0986,-0.1100,0,0.3318,0.3323,-0.1103,-0.0013,0.0003,0.0017,CLIMB,4,1,0,0.0,0.000,0.000,0,-1,0,0.0,0.0,0.0,0.0,0.0,0.0,2037,2781,1318,1912,1298,2788,2050,2901,1310,1039,1278,2804,2036,2776,1313,1912,1316,2793,2052,2884,1308,1040,1297,2806
1782219196.2683,3.2342,1,lf,0.0986,0.0986,-0.1100,0,0.3318,0.3323,-0.1103,-0.0013,0.0003,0.0017,CLIMB,4,1,0,0.0,0.000,0.000,0,-1,0,0.0,0.0,0.0,0.0,0.0,0.0,2037,2781,1318,1912,1298,2788,2050,2901,1310,1039,1278,2804,2035,2776,1313,1912,1316,2794,2052,2884,1308,1040,1297,2806
1782219196.2883,3.2543,1,lf,0.0986,0.0986,-0.1100,0,0.3316,0.3325,-0.1103,-0.0012,0.0002,0.0017,CLIMB,4,1,0,0.0,0.000,0.000,0,-1,0,0.0,0.0,0.0,0.0,0.0,0.0,2037,2781,1318,1912,1298,2788,2050,2901,1310,1039,1278,2804,2035,2776,1313,1912,1316,2794,2052,2884,1308,1040,1297,2806
1782219196.3083,3.2742,1,lf,0.0986,0.0986,-0.1100,0,0.3316,0.3325,-0.1103,-0.0012,0.0001,0.0017,CLIMB,4,1,0,0.0,0.000,0.000,0,-1,0,0.0,0.0,0.0,0.0,0.0,0.0,2037,2781,1318,1912,1298,2788,2050,2901,1310,1039,1278,2804,2036,2776,1313,1912,1316,2793,2052,2884,1308,1040,1297,2806
1782219196.3283,3.2943,1,lf,0.0986,0.0986,-0.1100,0,0.3318,0.3323,-0.1103,-0.0013,0.0002,0.0017,CLIMB,4,1,0,0.0,0.000,0.000,0,-1,0,0.0,0.0,0.0,0.0,0.0,0.0,2037,2781,1318,1912,1298,2788,2050,2901,1310,1039,1278,2804,2036,2776,1313,1912,1316,2793,2052,2884,1308,1040,1297,2806
1782219196.3483,3.3143,1,lf,0.0986,0.0986,-0.1100,0,0.3318,0.3323,-0.1103,-0.0013,0.0003,0.0017,CLIMB,4,1,0,0.0,0.000,0.000,0,-1,0,0.0,0.0,0.0,0.0,0.0,0.0,2037,2781,1318,1912,1298,2788,2050,2901,1310,1039,1278,2804,2036,2776,1313,1912,1316,2793,2052,2884,1308,1040,1297,2806
1782219196.3683,3.3343,1,lf,0.0986,0.0986,-0.1100,0,0.3318,0.3323,-0.1103,-0.0013,0.0003,0.0017,CLIMB,4,1,0,0.0,0.000,0.000,0,-1,0,0.0,0.0,0.0,0.0,0.0,0.0,2037,2781,1318,1912,1298,2788,2050,2901,1310,1039,1278,2804,2035,2776,1312,1912,1316,2793,2052,2884,1308,1040,1297,2806
1782219196.3883,3.3542,1,lf,0.0986,0.0986,-0.1100,0,0.3315,0.3325,-0.1103,-0.0012,0.0002,0.0017,CLIMB,4,1,0,0.0,0.000,0.000,0,-1,0,0.0,0.0,0.0,0.0,0.0,0.0,2037,2781,1318,1912,1298,2788,2050,2901,1310,1039,1278,2804,2035,2776,1312,1912,1316,2793,2052,2884,1308,1040,1297,2806
1782219196.4083,3.3742,1,lf,0.0986,0.0986,-0.1100,0,0.3315,0.3325,-0.1103,-0.0012,0.0001,0.0017,CLIMB,4,1,0,0.0,0.000,0.000,0,-1,0,0.0,0.0,0.0,0.0,0.0,0.0,2037,2781,1318,1912,1298,2788,2050,2901,1310,1039,1278,2804,2035,2776,1312,1912,1316,2793,2052,2884,1308,1040,1297,2806
1782219196.4282,3.3942,1,lf,0.0986,0.0986,-0.1100,0,0.3315,0.3325,-0.1103,-0.0011,0.0001,0.0017,CLIMB,4,1,0,0.0,0.000,0.000,0,-1,0,0.0,0.0,0.0,0.0,0.0,0.0,2037,2781,1318,1912,1298,2788,2050,2901,1310,1039,1278,2804,2035,2776,1312,1912,1316,2793,2052,2884,1308,1040,1297,2806
1782219196.4483,3.4142,1,lf,0.0986,0.0986,-0.1100,0,0.3315,0.3325,-0.1103,-0.0011,0.0001,0.0017,CLIMB,4,1,0,0.0,0.000,0.000,0,-1,0,0.0,0.0,0.0,0.0,0.0,0.0,2037,2781,1318,1912,1298,2788,2050,2901,1310,1039,1278,2804,2035,2776,1312,1912,1316,2793,2052,2884,1308,1040,1297,2806
1782219196.4682,3.4342,1,lf,0.0986,0.0986,-0.1100,0,0.3315,0.3325,-0.1103,-0.0011,0.0001,0.0017,CLIMB,4,1,0,0.0,0.000,0.000,0,-1,0,0.0,0.0,0.0,0.0,0.0,0.0,2037,2781,1318,1912,1298,2788,2050,2901,1310,1039,1278,2804,2035,2776,1312,1912,1316,2793,2052,2884,1308,1040,1297,2806
1782219196.4881,3.4541,1,lf,0.0986,0.0986,-0.1100,0,0.3315,0.3325,-0.1103,-0.0011,0.0000,0.0017,CLIMB,4,1,0,0.0,0.000,0.000,0,-1,0,0.0,0.0,0.0,0.0,0.0,0.0,2037,2781,1318,1912,1298,2788,2050,2901,1310,1039,1278,2804,2035,2776,1312,1912,1316,2793,2052,2884,1308,1040,1297,2806
1782219196.5082,3.4742,1,lf,0.0986,0.0986,-0.1100,0,0.3315,0.3325,-0.1103,-0.0011,0.0000,0.0017,CLIMB,4,1,0,0.0,0.000,0.000,0,-1,0,0.0,0.0,0.0,0.0,0.0,0.0,2037,2781,1318,1912,1298,2788,2050,2901,1310,1039,1278,2804,2035,2776,1313,1912,1316,2793,2052,2884,1308,1040,1297,2806
1782219196.5281,3.4941,1,lf,0.0986,0.0986,-0.1100,0,0.3316,0.3325,-0.1103,-0.0011,0.0000,0.0017,CLIMB,4,1,0,0.0,0.000,0.000,0,-1,0,0.0,0.0,0.0,0.0,0.0,0.0,2037,2781,1318,1912,1298,2788,2050,2901,1310,1039,1278,2804,2035,2776,1313,1912,1316,2793,2052,2884,1308,1040,1297,2806
1782219196.5483,3.5143,1,lf,0.0986,0.0986,-0.1100,0,0.3316,0.3325,-0.1103,-0.0011,0.0000,0.0017,CLIMB,4,1,0,0.0,0.000,0.000,0,-1,0,0.0,0.0,0.0,0.0,0.0,0.0,2037,2781,1318,1912,1298,2788,2050,2901,1310,1039,1278,2804,2035,2776,1313,1912,1316,2793,2052,2884,1308,1040,1297,2806
1782219196.5682,3.5342,1,lf,0.0986,0.0986,-0.1100,0,0.3316,0.3325,-0.1103,-0.0011,0.0000,0.0017,CLIMB,4,1,0,0.0,0.000,0.000,0,-1,0,0.0,0.0,0.0,0.0,0.0,0.0,2037,2781,1318,1912,1298,2788,2050,2901,1310,1039,1278,2804,2036,2776,1313,1912,1316,2793,2052,2884,1308,1040,1297,2806
1782219196.5883,3.5543,1,lf,0.0986,0.0986,-0.1100,0,0.3318,0.3323,-0.1103,-0.0012,0.0002,0.0017,CLIMB,4,1,0,0.0,0.000,0.000,0,-1,0,0.0,0.0,0.0,0.0,0.0,0.0,2037,2781,1318,1912,1298,2788,2050,2901,1310,1039,1278,2804,2036,2776,1313,1912,1316,2793,2052,2884,1308,1040,1297,2806
1782219196.6083,3.5743,1,lf,0.0986,0.0986,-0.1100,0,0.3318,0.3323,-0.1103,-0.0013,0.0002,0.0017,CLIMB,4,1,0,0.0,0.000,0.000,0,-1,0,0.0,0.0,0.0,0.0,0.0,0.0,2037,2781,1318,1912,1298,2788,2050,2901,1310,1039,1278,2804,2036,2776,1313,1912,1316,2793,2052,2884,1308,1040,1297,2806
1782219196.6282,3.5942,1,lf,0.0986,0.0986,-0.1100,0,0.3318,0.3323,-0.1103,-0.0013,0.0003,0.0016,CLIMB,4,1,0,0.0,0.000,0.000,0,-1,0,0.0,0.0,0.0,0.0,0.0,0.0,2037,2781,1318,1912,1298,2788,2050,2901,1310,1039,1278,2804,2036,2776,1313,1912,1316,2793,2052,2884,1308,1040,1297,2806
1782219196.6482,3.6141,1,lf,0.0986,0.0986,-0.1100,0,0.3318,0.3323,-0.1103,-0.0013,0.0003,0.0016,CLIMB,4,1,0,0.0,0.000,0.000,0,-1,0,0.0,0.0,0.0,0.0,0.0,0.0,2037,2781,1318,1912,1298,2788,2050,2901,1310,1039,1278,2804,2036,2776,1313,1912,1316,2793,2052,2884,1308,1040,1297,2806
1782219196.6683,3.6343,1,lf,0.0986,0.0986,-0.1100,0,0.3318,0.3323,-0.1103,-0.0013,0.0003,0.0016,CLIMB,4,1,0,0.0,0.000,0.000,0,-1,0,0.0,0.0,0.0,0.0,0.0,0.0,2037,2781,1318,1912,1298,2788,2050,2901,1310,1039,1278,2804,2036,2776,1313,1912,1316,2793,2052,2884,1308,1040,1297,2806
1782219196.6883,3.6542,1,lf,0.0986,0.0986,-0.1100,0,0.3318,0.3323,-0.1103,-0.0013,0.0003,0.0016,CLIMB,4,1,0,0.0,0.000,0.000,0,-1,0,0.0,0.0,0.0,0.0,0.0,0.0,2037,2781,1318,1912,1298,2788,2050,2901,1310,1039,1278,2804,2036,2776,1313,1912,1316,2793,2052,2884,1308,1040,1297,2806
1782219196.7083,3.6742,1,lf,0.0986,0.0986,-0.1100,0,0.3318,0.3323,-0.1103,-0.0013,0.0003,0.0016,CLIMB,4,1,0,0.0,0.000,0.000,0,-1,0,0.0,0.0,0.0,0.0,0.0,0.0,2037,2781,1318,1912,1298,2788,2050,2901,1310,1039,1278,2804,2035,2776,1313,1912,1316,2793,2052,2884,1308,1040,1297,2806
1782219196.7282,3.6942,1,lf,0.0986,0.0986,-0.1100,0,0.3316,0.3325,-0.1103,-0.0012,0.0002,0.0016,CLIMB,4,1,0,0.0,0.000,0.000,0,-1,0,0.0,0.0,0.0,0.0,0.0,0.0,2037,2781,1318,1912,1298,2788,2050,2901,1310,1039,1278,2804,2035,2776,1313,1912,1316,2793,2052,2884,1308,1040,1297,2806
1782219196.7482,3.7142,1,lf,0.0986,0.0986,-0.1100,0,0.3316,0.3325,-0.1103,-0.0012,0.0001,0.0016,CLIMB,4,1,0,0.0,0.000,0.000,0,-1,0,0.0,0.0,0.0,0.0,0.0,0.0,2037,2781,1318,1912,1298,2788,2050,2901,1310,1039,1278,2804,2035,2776,1313,1912,1316,2793,2052,2884,1308,1040,1297,2806
1782219196.7681,3.7340,1,lf,0.0986,0.0986,-0.1100,0,0.3316,0.3325,-0.1103,-0.0012,0.0001,0.0017,CLIMB,4,1,0,0.0,0.000,0.000,0,-1,0,0.0,0.0,0.0,0.0,0.0,0.0,2037,2781,1318,1912,1298,2788,2050,2901,1310,1039,1278,2804,2035,2775,1313,1912,1316,2793,2052,2884,1308,1041,1297,2806
1782219196.7882,3.7542,1,lf,0.0986,0.0986,-0.1100,0,0.3315,0.3324,-0.1105,-0.0011,0.0001,0.0018,CLIMB,4,1,0,0.0,0.000,0.000,0,-1,0,0.0,0.0,0.0,0.0,0.0,0.0,2037,2781,1318,1912,1298,2788,2050,2901,1310,1039,1278,2804,2035,2775,1313,1912,1316,2793,2052,2884,1308,1041,1297,2806
1782219196.8083,3.7743,1,lf,0.0986,0.0986,-0.1100,0,0.3315,0.3324,-0.1105,-0.0010,0.0001,0.0018,CLIMB,4,1,0,0.0,0.000,0.000,0,-1,0,0.0,0.0,0.0,0.0,0.0,0.0,2037,2781,1318,1912,1298,2788,2050,2901,1310,1039,1278,2804,2036,2776,1313,1912,1316,2793,2052,2884,1308,1040,1297,2806
1782219196.8281,3.7941,1,lf,0.0986,0.0986,-0.1100,0,0.3318,0.3323,-0.1103,-0.0012,0.0002,0.0017,CLIMB,5,1,0,0.0,0.000,0.000,0,-1,0,0.0,0.0,0.0,0.0,0.0,0.0,2037,2781,1318,1912,1298,2788,2050,2901,1310,1039,1278,2804,2036,2776,1313,1912,1316,2793,2052,2884,1308,1040,1297,2806
1782219196.8484,3.8143,1,lf,0.0986,0.0986,-0.1100,0,0.3318,0.3323,-0.1103,-0.0013,0.0003,0.0017,CLIMB,5,1,0,0.0,0.000,0.000,0,-1,0,0.0,0.0,0.0,0.0,0.0,0.0,2037,2781,1318,1912,1298,2788,2050,2901,1310,1039,1278,2804,2036,2776,1313,1912,1316,2793,2052,2884,1308,1040,1297,2806
1782219196.8684,3.8343,1,lf,0.0986,0.0986,-0.1097,0,0.3318,0.3323,-0.1103,-0.0013,0.0003,0.0016,CLIMB,5,1,0,0.0,0.000,0.000,0,-1,0,0.0,0.0,0.0,0.0,0.0,0.0,2037,2782,1315,1912,1298,2788,2050,2901,1310,1039,1278,2804,2035,2776,1313,1912,1316,2793,2052,2884,1308,1041,1297,2806
1782219196.8883,3.8543,1,lf,0.0986,0.0986,-0.1091,0,0.3316,0.3325,-0.1103,-0.0012,0.0001,0.0016,CLIMB,5,1,0,0.0,0.000,0.000,0,-1,0,0.0,0.0,0.0,0.0,0.0,0.0,2037,2785,1308,1912,1298,2788,2050,2901,1310,1039,1278,2804,2035,2776,1313,1912,1316,2793,2052,2884,1308,1041,1297,2806
1782219196.9083,3.8743,1,lf,0.0986,0.0986,-0.1081,0,0.3316,0.3325,-0.1103,-0.0012,0.0001,0.0016,CLIMB,5,1,0,0.0,0.000,0.000,0,-1,0,0.0,0.0,0.0,0.0,0.0,0.0,2037,2789,1297,1912,1298,2788,2050,2901,1310,1039,1278,2804,2035,2776,1313,1912,1316,2793,2052,2884,1308,1040,1297,2806
1782219196.9282,3.8942,1,lf,0.0986,0.0986,-0.1068,0,0.3316,0.3325,-0.1103,-0.0012,0.0000,0.0016,CLIMB,5,1,0,0.0,0.000,0.000,0,-1,0,0.0,0.0,0.0,0.0,0.0,0.0,2037,2795,1283,1912,1298,2788,2050,2901,1310,1039,1278,2804,2035,2776,1313,1912,1316,2793,2052,2884,1308,1040,1297,2806
1782219196.9483,3.9142,1,lf,0.0986,0.0986,-0.1054,0,0.3316,0.3325,-0.1103,-0.0012,0.0000,0.0016,CLIMB,5,1,0,0.0,0.000,0.000,0,-1,0,0.0,0.0,0.0,0.0,0.0,0.0,2037,2802,1267,1912,1298,2788,2050,2901,1310,1039,1278,2804,2035,2776,1313,1912,1316,2793,2052,2884,1308,1040,1297,2806
1782219196.9686,3.9346,1,lf,0.0986,0.0986,-0.1039,0,0.3316,0.3325,-0.1103,-0.0012,0.0000,0.0016,CLIMB,5,1,0,0.0,0.000,0.000,0,-1,0,0.0,0.0,0.0,0.0,0.0,0.0,2037,2809,1251,1912,1298,2788,2050,2901,1310,1039,1278,2804,2036,2776,1312,1912,1316,2793,2052,2884,1308,1040,1297,2806
1782219196.9883,3.9543,1,lf,0.0986,0.0986,-0.1025,0,0.3318,0.3322,-0.1103,-0.0012,0.0002,0.0016,CLIMB,5,1,0,0.0,0.000,0.000,0,-1,0,0.0,0.0,0.0,0.0,0.0,0.0,2037,2815,1237,1912,1298,2788,2050,2901,1310,1039,1278,2804,2036,2776,1312,1912,1316,2793,2052,2884,1308,1040,1297,2806
1782219197.0083,3.9742,1,lf,0.0986,0.0986,-0.1014,0,0.3318,0.3322,-0.1103,-0.0013,0.0003,0.0016,CLIMB,5,1,0,0.0,0.000,0.000,0,-1,0,0.0,0.0,0.0,0.0,0.0,0.0,2037,2820,1225,1912,1298,2788,2050,2901,1310,1039,1278,2804,2036,2776,1313,1912,1316,2794,2052,2884,1308,1040,1297,2806
1782219197.0283,3.9942,1,lf,0.0986,0.0986,-0.1006,0,0.3318,0.3323,-0.1103,-0.0013,0.0003,0.0016,CLIMB,5,1,0,0.0,0.000,0.000,0,-1,0,0.0,0.0,0.0,0.0,0.0,0.0,2037,2823,1217,1912,1298,2788,2050,2901,1310,1039,1278,2804,2036,2776,1313,1912,1316,2794,2052,2884,1308,1040,1297,2806
1782219197.0483,4.0142,1,lf,0.0986,0.0986,-0.1001,0,0.3318,0.3323,-0.1103,-0.0013,0.0003,0.0016,CLIMB,5,1,0,0.0,0.000,0.000,0,-1,0,0.0,0.0,0.0,0.0,0.0,0.0,2037,2825,1213,1912,1298,2788,2050,2901,1310,1039,1278,2804,2036,2776,1313,1912,1316,2794,2052,2884,1308,1040,1297,2806
1782219197.0682,4.0342,1,lf,0.0986,0.0986,-0.1000,0,0.3318,0.3323,-0.1103,-0.0013,0.0003,0.0016,CLIMB,5,1,0,0.0,0.000,0.000,0,-1,0,0.0,0.0,0.0,0.0,0.0,0.0,2037,2826,1212,1912,1298,2788,2050,2901,1310,1039,1278,2804,2036,2776,1312,1912,1316,2793,2052,2884,1308,1040,1297,2806
1782219197.0882,4.0542,1,lf,0.0986,0.0986,-0.1000,0,0.3318,0.3322,-0.1103,-0.0013,0.0004,0.0016,CLIMB,5,1,0,97.0,0.000,0.000,0,-1,0,-2.0,-50.0,97.0,0.0,0.0,0.0,2037,2826,1212,1912,1298,2788,2050,2901,1310,1039,1278,2804,2036,2776,1312,1912,1316,2793,2052,2884,1308,1040,1297,2806
1782219197.1083,4.0742,1,lf,0.0986,0.0986,-0.1000,0,0.3318,0.3322,-0.1103,-0.0013,0.0004,0.0016,CLIMB,5,1,0,90.0,0.000,0.020,0,-1,0,-1.0,-50.0,90.0,0.0,0.0,0.0,2037,2826,1212,1912,1298,2788,2050,2901,1310,1039,1278,2804,2036,2776,1302,1912,1316,2794,2052,2884,1308,1040,1297,2806
1782219197.1282,4.0942,1,lf,0.0986,0.0986,-0.1000,0,0.3313,0.3318,-0.1103,-0.0010,0.0006,0.0016,CLIMB,5,1,0,90.0,0.000,0.040,0,-1,0,-1.0,-50.0,90.0,0.0,0.0,0.0,2037,2826,1212,1912,1298,2788,2050,2901,1310,1039,1278,2804,2036,2776,1302,1912,1316,2794,2052,2884,1308,1040,1297,2806
1782219197.1482,4.1142,1,lf,0.0986,0.0986,-0.1000,0,0.3313,0.3318,-0.1103,-0.0008,0.0007,0.0017,CLIMB,5,1,0,80.0,0.000,0.060,0,-1,0,-1.0,-49.0,80.0,0.0,0.0,0.0,2037,2826,1212,1912,1298,2788,2050,2901,1310,1039,1278,2804,2036,2776,1302,1912,1316,2794,2052,2884,1308,1040,1297,2806
1782219197.1682,4.1342,1,lf,0.0986,0.0986,-0.1000,0,0.3313,0.3318,-0.1103,-0.0007,0.0007,0.0017,CLIMB,5,1,0,67.0,0.000,0.080,0,-1,0,-2.0,-47.0,67.0,0.0,0.0,0.0,2037,2826,1212,1912,1298,2788,2050,2901,1310,1039,1278,2804,2036,2777,1292,1912,1316,2793,2052,2884,1308,1040,1297,2806
1782219197.1883,4.1542,1,lf,0.0986,0.0986,-0.1000,0,0.3309,0.3314,-0.1100,-0.0005,0.0009,0.0015,CLIMB,5,1,0,67.0,0.000,0.100,0,-1,0,-2.0,-47.0,67.0,0.0,0.0,0.0,2037,2826,1212,1912,1298,2788,2050,2901,1310,1039,1278,2804,2036,2777,1292,1912,1316,2793,2052,2884,1308,1040,1297,2806
1782219197.2082,4.1742,1,lf,0.0986,0.0986,-0.1000,0,0.3309,0.3314,-0.1100,-0.0004,0.0010,0.0015,CLIMB,5,1,0,53.0,0.000,0.120,0,-1,0,-2.0,-43.0,53.0,0.0,0.0,0.0,2037,2826,1212,1912,1298,2788,2050,2901,1310,1039,1278,2804,2035,2783,1265,1912,1316,2793,2052,2884,1308,1039,1297,2806
1782219197.2282,4.1942,1,lf,0.0986,0.0986,-0.1000,0,0.3301,0.3310,-0.1087,0.0002,0.0011,0.0007,CLIMB,5,1,0,40.0,0.000,0.140,0,-1,0,-1.0,-40.0,38.0,0.0,0.0,0.0,2037,2826,1212,1912,1298,2788,2050,2901,1310,1039,1278,2804,2035,2783,1265,1912,1316,2793,2052,2884,1308,1039,1297,2806
1782219197.2482,4.2142,1,lf,0.0986,0.0986,-0.1000,0,0.3301,0.3310,-0.1087,0.0004,0.0011,0.0004,CLIMB,5,1,0,40.0,0.000,0.160,0,-1,0,-1.0,-40.0,38.0,0.0,0.0,0.0,2037,2826,1212,1912,1298,2788,2050,2901,1310,1039,1278,2804,2035,2783,1265,1912,1316,2793,2052,2884,1308,1039,1297,2806
1782219197.2682,4.2342,1,lf,0.0986,0.0986,-0.1000,0,0.3301,0.3310,-0.1087,0.0006,0.0012,0.0002,CLIMB,5,1,0,34.0,0.000,0.180,0,-1,0,-1.0,-34.0,27.0,0.0,0.0,0.0,2037,2826,1212,1912,1298,2788,2050,2901,1310,1039,1278,2804,2036,2792,1239,1912,1316,2793,2052,2884,1308,1040,1297,2806
1782219197.2882,4.2542,1,lf,0.0986,0.0986,-0.1000,0,0.3301,0.3306,-0.1066,0.0007,0.0014,-0.0010,CLIMB,5,1,0,34.0,0.000,0.200,0,-1,0,-1.0,-34.0,27.0,0.0,0.0,0.0,2037,2826,1212,1912,1298,2788,2050,2901,1310,1039,1278,2804,2036,2792,1239,1912,1316,2793,2052,2884,1308,1040,1297,2806
1782219197.3083,4.2742,1,lf,0.0986,0.0986,-0.1000,0,0.3301,0.3306,-0.1066,0.0007,0.0015,-0.0016,CLIMB,5,1,0,29.0,0.000,0.220,0,-1,0,-2.0,-29.0,17.0,0.0,0.0,0.0,2037,2826,1212,1912,1298,2788,2050,2901,1310,1039,1278,2804,2035,2797,1229,1912,1316,2793,2052,2884,1308,1040,1297,2806
1782219197.3282,4.2942,1,lf,0.0986,0.0986,-0.1000,0,0.3300,0.3309,-0.1055,0.0008,0.0013,-0.0025,CLIMB,5,1,0,24.0,0.000,0.240,0,-1,0,-2.0,-24.0,10.0,0.0,0.0,0.0,2037,2826,1212,1912,1298,2788,2050,2901,1310,1039,1278,2804,2035,2797,1229,1912,1316,2793,2052,2884,1308,1040,1297,2806
1782219197.3483,4.3142,1,lf,0.0986,0.0986,-0.1000,0,0.3300,0.3309,-0.1055,0.0008,0.0013,-0.0029,CLIMB,5,1,0,24.0,0.000,0.260,0,-1,0,-2.0,-24.0,10.0,0.0,0.0,0.0,2037,2826,1212,1912,1298,2788,2050,2901,1310,1039,1278,2804,2035,2797,1229,1912,1316,2793,2052,2884,1308,1040,1297,2806
1782219197.3682,4.3342,1,lf,0.0986,0.0986,-0.1000,0,0.3300,0.3309,-0.1055,0.0008,0.0012,-0.0031,CLIMB,5,1,0,21.0,0.000,0.280,0,-1,0,-2.0,-21.0,5.0,0.0,0.0,0.0,2037,2826,1212,1912,1298,2788,2050,2901,1310,1039,1278,2804,2035,2805,1217,1912,1316,2793,2052,2884,1308,1040,1297,2806
1782219197.3883,4.3542,1,lf,0.0986,0.0986,-0.1000,0,0.3303,0.3313,-0.1037,0.0006,0.0011,-0.0041,CLIMB,5,1,0,18.0,0.000,0.300,0,-1,0,-1.0,-18.0,1.0,0.0,0.0,0.0,2037,2826,1212,1912,1298,2788,2050,2901,1310,1039,1278,2804,2035,2805,1217,1912,1316,2793,2052,2884,1308,1040,1297,2806
1782219197.4082,4.3741,1,lf,0.0986,0.0986,-0.1000,0,0.3303,0.3313,-0.1037,0.0005,0.0010,-0.0046,CLIMB,5,1,0,18.0,0.000,0.320,0,-1,0,-1.0,-18.0,1.0,0.0,0.0,0.0,2037,2826,1212,1912,1298,2788,2050,2901,1310,1039,1278,2804,2036,2808,1213,1912,1316,2793,2052,2884,1308,1040,1297,2806
1782219197.4282,4.3942,1,lf,0.0986,0.0986,-0.1000,0,0.3307,0.3312,-0.1031,0.0002,0.0011,-0.0052,CLIMB,5,1,0,16.0,0.000,0.340,0,-1,0,-2.0,-16.0,0.0,0.0,0.0,0.0,2037,2826,1212,1912,1298,2788,2050,2901,1310,1039,1278,2804,2036,2808,1213,1912,1316,2793,2052,2884,1308,1040,1297,2806
1782219197.4483,4.4143,1,lf,0.0986,0.0986,-0.1000,0,0.3307,0.3312,-0.1031,0.0001,0.0011,-0.0055,CLIMB,5,1,0,16.0,0.000,0.360,0,-1,0,-2.0,-16.0,0.0,0.0,0.0,0.0,2037,2826,1212,1912,1298,2788,2050,2901,1310,1039,1278,2804,2036,2808,1213,1912,1316,2793,2052,2884,1308,1040,1297,2806
1782219197.4682,4.4342,1,lf,0.0986,0.0986,-0.1000,0,0.3307,0.3312,-0.1031,0.0000,0.0011,-0.0056,CLIMB,5,1,0,16.0,0.000,0.380,0,-1,0,-1.0,-16.0,-1.0,0.0,0.0,0.0,2037,2826,1212,1912,1298,2788,2050,2901,1310,1039,1278,2804,2036,2810,1211,1912,1316,2793,2052,2884,1308,1040,1297,2806
1782219197.4883,4.4543,1,lf,0.0986,0.0986,-0.1000,0,0.3308,0.3313,-0.1026,-0.0001,0.0010,-0.0059,CLIMB,5,1,0,16.0,0.000,0.400,0,-1,0,-1.0,-16.0,-1.0,0.0,0.0,0.0,2037,2826,1212,1912,1298,2788,2050,2901,1310,1039,1278,2804,2036,2810,1211,1912,1316,2793,2052,2884,1308,1040,1297,2806
1782219197.5082,4.4742,1,lf,0.0986,0.0986,-0.1000,0,0.3308,0.3313,-0.1026,-0.0001,0.0010,-0.0060,CLIMB,5,1,0,16.0,0.000,0.420,0,-1,0,-1.0,-16.0,-1.0,0.0,0.0,0.0,2037,2826,1212,1912,1298,2788,2050,2901,1310,1039,1278,2804,2036,2810,1211,1912,1316,2793,2052,2884,1308,1040,1297,2806
1782219197.5283,4.4942,1,lf,0.0986,0.0986,-0.1000,0,0.3308,0.3313,-0.1026,-0.0002,0.0010,-0.0060,CLIMB,5,1,0,15.0,0.000,0.440,0,-1,0,-2.0,-15.0,-1.0,0.0,0.0,0.0,2037,2826,1212,1912,1298,2788,2050,2901,1310,1039,1278,2804,2036,2810,1211,1912,1316,2793,2052,2884,1308,1040,1297,2806
1782219197.5482,4.5141,1,lf,0.0986,0.0986,-0.1000,0,0.3308,0.3313,-0.1026,-0.0002,0.0010,-0.0060,CLIMB,5,1,0,15.0,0.000,0.460,0,-1,0,-1.0,-15.0,-1.0,0.0,0.0,0.0,2037,2826,1212,1912,1298,2788,2050,2901,1310,1039,1278,2804,2036,2810,1211,1912,1316,2793,2052,2884,1308,1040,1297,2806
1782219197.5682,4.5342,1,lf,0.0986,0.0986,-0.1000,0,0.3308,0.3313,-0.1026,-0.0002,0.0010,-0.0060,CLIMB,5,1,0,15.0,0.000,0.480,0,-1,0,-1.0,-15.0,-1.0,0.0,0.0,0.0,2037,2826,1212,1912,1298,2788,2050,2901,1310,1039,1278,2804,2036,2811,1211,1912,1316,2793,2052,2884,1308,1040,1297,2806
1782219197.5882,4.5542,1,lf,0.0986,0.0986,-0.1000,0,0.3309,0.3314,-0.1024,-0.0003,0.0009,-0.0061,CLIMB,5,1,0,15.0,0.000,0.500,0,-1,0,-1.0,-15.0,-1.0,0.0,0.0,0.0,2037,2826,1212,1912,1298,2788,2050,2901,1310,1039,1278,2804,2036,2811,1211,1912,1316,2793,2052,2884,1308,1040,1297,2806
1782219197.6081,4.5741,1,lf,0.0986,0.0986,-0.1000,0,0.3309,0.3314,-0.1024,-0.0003,0.0009,-0.0062,CLIMB,5,1,0,15.0,0.000,0.520,0,-1,0,-1.0,-15.0,-1.0,0.0,0.0,0.0,2037,2826,1212,1912,1298,2788,2050,2901,1310,1039,1278,2804,2036,2811,1211,1912,1316,2793,2052,2884,1308,1040,1297,2806
1782219197.6280,4.5940,1,lf,0.0986,0.0986,-0.1000,0,0.3309,0.3314,-0.1024,-0.0003,0.0009,-0.0062,CLIMB,5,1,0,15.0,0.000,0.540,0,-1,0,-1.0,-15.0,-1.0,0.0,0.0,0.0,2037,2826,1212,1912,1298,2788,2050,2901,1310,1039,1278,2804,2036,2811,1211,1912,1316,2793,2052,2884,1308,1040,1297,2806
1782219197.6481,4.6141,1,lf,0.0986,0.0986,-0.1000,0,0.3309,0.3314,-0.1024,-0.0003,0.0009,-0.0062,CLIMB,5,1,0,15.0,0.000,0.560,0,-1,0,-2.0,-15.0,-1.0,0.0,0.0,0.0,2037,2826,1212,1912,1298,2788,2050,2901,1310,1039,1278,2804,2036,2811,1211,1912,1316,2793,2052,2884,1308,1040,1297,2806
1782219197.6683,4.6343,1,lf,0.0986,0.0986,-0.1000,0,0.3309,0.3314,-0.1024,-0.0003,0.0009,-0.0061,CLIMB,5,1,0,15.0,0.000,0.580,0,-1,0,-2.0,-15.0,-1.0,0.0,0.0,0.0,2037,2826,1212,1912,1298,2788,2050,2901,1310,1039,1278,2804,2035,2811,1211,1912,1316,2793,2052,2884,1308,1040,1297,2806
1782219197.6882,4.6542,1,lf,0.0986,0.0986,-0.1000,0,0.3307,0.3317,-0.1024,-0.0003,0.0007,-0.0061,CLIMB,5,1,0,15.0,0.000,0.600,0,-1,0,-1.0,-15.0,-1.0,0.0,0.0,0.0,2037,2826,1212,1912,1298,2788,2050,2901,1310,1039,1278,2804,2035,2811,1211,1912,1316,2793,2052,2884,1308,1040,1297,2806
1782219197.7083,4.6742,1,lf,0.0986,0.0986,-0.1000,0,0.3307,0.3317,-0.1024,-0.0002,0.0007,-0.0061,CLIMB,5,1,0,15.0,0.000,0.620,0,-1,0,-2.0,-15.0,-1.0,0.0,0.0,0.0,2037,2826,1212,1912,1298,2788,2050,2901,1310,1039,1278,2804,2035,2811,1211,1912,1316,2794,2052,2884,1308,1040,1297,2806
1782219197.7282,4.6942,1,lf,0.0986,0.0986,-0.1000,0,0.3307,0.3317,-0.1024,-0.0002,0.0006,-0.0061,CLIMB,5,1,0,15.0,0.000,0.640,0,-1,0,-2.0,-15.0,-1.0,0.0,0.0,0.0,2037,2826,1212,1912,1298,2788,2050,2901,1310,1039,1278,2804,2035,2811,1211,1912,1316,2794,2052,2884,1308,1040,1297,2806
1782219197.7482,4.7142,1,lf,0.0986,0.0986,-0.1000,0,0.3307,0.3317,-0.1024,-0.0002,0.0006,-0.0061,CLIMB,5,1,0,15.0,0.000,0.660,0,-1,0,-2.0,-15.0,-1.0,0.0,0.0,0.0,2037,2826,1212,1912,1298,2788,2050,2901,1310,1039,1278,2804,2035,2811,1211,1912,1316,2794,2052,2884,1308,1040,1297,2806
1782219197.7682,4.7342,1,lf,0.0986,0.0986,-0.1000,0,0.3307,0.3317,-0.1024,-0.0001,0.0006,-0.0061,CLIMB,5,1,0,15.0,0.000,0.680,0,-1,0,-2.0,-15.0,-1.0,0.0,0.0,0.0,2037,2826,1212,1912,1298,2788,2050,2901,1310,1039,1278,2804,2035,2811,1211,1912,1316,2793,2052,2884,1308,1040,1297,2806
1782219197.7882,4.7541,1,lf,0.0986,0.0986,-0.1000,0,0.3307,0.3317,-0.1024,-0.0001,0.0006,-0.0061,CLIMB,5,1,0,15.0,0.000,0.700,0,-1,0,-2.0,-15.0,-1.0,0.0,0.0,0.0,2037,2826,1212,1912,1298,2788,2050,2901,1310,1039,1278,2804,2035,2811,1211,1912,1316,2793,2052,2884,1308,1040,1297,2806
1782219197.8082,4.7742,1,lf,0.0986,0.0986,-0.1000,0,0.3307,0.3317,-0.1024,-0.0001,0.0006,-0.0060,CLIMB,5,1,0,15.0,0.000,0.720,0,-1,0,-2.0,-15.0,-1.0,0.0,0.0,0.0,2037,2826,1212,1912,1298,2788,2050,2901,1310,1039,1278,2804,2035,2811,1211,1912,1316,2793,2052,2884,1308,1040,1297,2806
1782219197.8282,4.7942,1,lf,0.0986,0.0986,-0.1000,0,0.3307,0.3317,-0.1024,-0.0001,0.0006,-0.0060,CLIMB,5,1,0,15.0,0.000,0.740,0,-1,0,-2.0,-15.0,-1.0,0.0,0.0,0.0,2037,2826,1212,1912,1298,2788,2050,2901,1310,1039,1278,2804,2035,2811,1211,1912,1316,2793,2052,2884,1308,1040,1297,2806
1782219197.8482,4.8142,1,lf,0.0986,0.0986,-0.1000,0,0.3307,0.3317,-0.1024,-0.0001,0.0006,-0.0060,CLIMB,5,1,0,15.0,0.000,0.760,0,-1,0,-2.0,-15.0,-1.0,0.0,0.0,0.0,2037,2826,1212,1912,1298,2788,2050,2901,1310,1039,1278,2804,2035,2811,1211,1912,1316,2793,2052,2884,1308,1040,1297,2806
1782219197.8683,4.8342,1,lf,0.0986,0.0986,-0.1000,0,0.3307,0.3317,-0.1024,-0.0001,0.0006,-0.0060,CLIMB,5,1,0,16.0,0.000,0.780,0,-1,0,-1.0,-16.0,-1.0,0.0,0.0,0.0,2037,2826,1212,1912,1298,2788,2050,2901,1310,1039,1278,2804,2035,2811,1211,1912,1316,2793,2052,2884,1308,1040,1297,2806
1782219197.8882,4.8542,1,lf,0.0986,0.0986,-0.1000,0,0.3307,0.3317,-0.1024,-0.0001,0.0006,-0.0060,CLIMB,5,1,0,16.0,0.000,0.800,0,-1,0,-1.0,-16.0,-1.0,0.0,0.0,0.0,2037,2826,1212,1912,1298,2788,2050,2901,1310,1039,1278,2804,2035,2811,1211,1912,1316,2793,2052,2884,1308,1040,1297,2806
1782219197.9082,4.8742,1,lf,0.0986,0.0986,-0.1000,0,0.3307,0.3317,-0.1024,-0.0001,0.0006,-0.0060,CLIMB,5,1,0,15.0,0.000,0.820,0,-1,0,-2.0,-15.0,-1.0,0.0,0.0,0.0,2037,2826,1212,1912,1298,2788,2050,2901,1310,1039,1278,2804,2035,2811,1211,1912,1316,2794,2052,2884,1308,1040,1297,2806
1782219197.9282,4.8942,1,lf,0.0986,0.0986,-0.1000,0,0.3307,0.3317,-0.1024,-0.0001,0.0006,-0.0060,CLIMB,5,1,0,15.0,0.000,0.840,0,-1,0,-2.0,-15.0,-1.0,0.0,0.0,0.0,2037,2826,1212,1912,1298,2788,2050,2901,1310,1039,1278,2804,2035,2811,1211,1912,1316,2794,2052,2884,1308,1040,1297,2806
1782219197.9482,4.9141,1,lf,0.0986,0.0986,-0.1000,0,0.3307,0.3317,-0.1024,-0.0001,0.0006,-0.0060,CLIMB,5,1,0,15.0,0.000,0.860,0,-1,0,-2.0,-15.0,-1.0,0.0,0.0,0.0,2037,2826,1212,1912,1298,2788,2050,2901,1310,1039,1278,2804,2035,2811,1211,1912,1316,2794,2052,2884,1308,1040,1297,2806
1782219197.9681,4.9341,1,lf,0.0986,0.0986,-0.1000,0,0.3307,0.3317,-0.1024,-0.0001,0.0006,-0.0060,CLIMB,5,1,0,15.0,0.000,0.880,0,-1,0,-2.0,-15.0,-1.0,0.0,0.0,0.0,2037,2826,1212,1912,1298,2788,2050,2901,1310,1039,1278,2804,2035,2811,1211,1912,1316,2793,2052,2884,1308,1040,1297,2806
1782219197.9882,4.9541,1,lf,0.0986,0.0986,-0.1000,0,0.3307,0.3317,-0.1024,-0.0001,0.0006,-0.0059,CLIMB,5,1,0,15.0,0.000,0.900,0,-1,0,-2.0,-15.0,-1.0,0.0,0.0,0.0,2037,2826,1212,1912,1298,2788,2050,2901,1310,1039,1278,2804,2035,2811,1211,1912,1316,2793,2052,2884,1308,1040,1297,2806
1782219198.0083,4.9742,1,lf,0.0986,0.0986,-0.1000,0,0.3307,0.3317,-0.1024,-0.0001,0.0006,-0.0059,CLIMB,5,1,0,15.0,0.000,0.920,0,-1,0,-1.0,-15.0,-1.0,0.0,0.0,0.0,2037,2826,1212,1912,1298,2788,2050,2901,1310,1039,1278,2804,2036,2811,1211,1912,1316,2793,2052,2884,1308,1040,1297,2806
1782219198.0283,4.9942,1,lf,0.0986,0.0986,-0.1000,0,0.3309,0.3314,-0.1024,-0.0002,0.0007,-0.0059,CLIMB,5,1,0,15.0,0.000,0.940,0,-1,0,-2.0,-15.0,-1.0,0.0,0.0,0.0,2037,2826,1212,1912,1298,2788,2050,2901,1310,1039,1278,2804,2036,2811,1211,1912,1316,2793,2052,2884,1308,1040,1297,2806
1782219198.0482,5.0142,1,lf,0.0986,0.0986,-0.1000,0,0.3309,0.3314,-0.1024,-0.0002,0.0008,-0.0059,CLIMB,5,1,0,15.0,0.000,0.960,0,-1,0,-2.0,-15.0,-1.0,0.0,0.0,0.0,2037,2826,1212,1912,1298,2788,2050,2901,1310,1039,1278,2804,2036,2811,1211,1912,1316,2793,2052,2884,1308,1040,1297,2806
1782219198.0684,5.0344,1,lf,0.0986,0.0986,-0.1000,0,0.3309,0.3314,-0.1024,-0.0003,0.0009,-0.0059,CLIMB,5,1,0,15.0,0.000,0.980,0,-1,0,-2.0,-15.0,-1.0,0.0,0.0,0.0,2037,2826,1212,1912,1298,2788,2050,2901,1310,1039,1278,2804,2035,2811,1211,1912,1316,2793,2052,2884,1308,1040,1297,2806
1782219198.0884,5.0544,1,lf,0.0986,0.0986,-0.1000,0,0.3307,0.3317,-0.1024,-0.0002,0.0007,-0.0059,CLIMB,5,1,0,15.0,0.000,1.000,0,-1,0,-2.0,-15.0,-1.0,0.0,0.0,0.0,2037,2826,1212,1912,1298,2788,2050,2901,1310,1039,1278,2804,2035,2811,1211,1912,1316,2793,2052,2884,1308,1040,1297,2806
1782219198.1083,5.0742,1,lf,0.0986,0.0986,-0.1000,0,0.3307,0.3317,-0.1024,-0.0002,0.0007,-0.0059,CLIMB,5,1,0,15.0,0.000,1.020,0,-1,0,-1.0,-15.0,-1.0,0.0,0.0,0.0,2037,2826,1212,1912,1298,2788,2050,2901,1310,1039,1278,2804,2036,2811,1211,1912,1316,2793,2052,2884,1308,1040,1297,2806
1782219198.1282,5.0941,1,lf,0.0986,0.0986,-0.1000,0,0.3309,0.3314,-0.1024,-0.0002,0.0008,-0.0059,CLIMB,5,1,0,15.0,0.000,1.040,0,-1,0,-2.0,-15.0,-1.0,0.0,0.0,0.0,2037,2826,1212,1912,1298,2788,2050,2901,1310,1039,1278,2804,2036,2811,1211,1912,1316,2793,2052,2884,1308,1040,1297,2806
1782219198.1482,5.1142,1,lf,0.0986,0.0986,-0.1000,0,0.3309,0.3314,-0.1024,-0.0003,0.0008,-0.0059,CLIMB,5,1,0,15.0,0.000,1.060,0,-1,0,-2.0,-15.0,-1.0,0.0,0.0,0.0,2037,2826,1212,1912,1298,2788,2050,2901,1310,1039,1278,2804,2036,2811,1211,1912,1316,2793,2052,2884,1308,1040,1297,2806
1782219198.1683,5.1343,1,lf,0.0986,0.0986,-0.1000,0,0.3309,0.3314,-0.1024,-0.0003,0.0009,-0.0059,CLIMB,5,1,0,15.0,0.000,1.080,0,-1,0,-2.0,-15.0,-1.0,0.0,0.0,0.0,2037,2826,1212,1912,1298,2788,2050,2901,1310,1039,1278,2804,2035,2811,1211,1912,1315,2793,2052,2885,1308,1040,1297,2806
1782219198.1883,5.1543,1,lf,0.0986,0.0986,-0.1000,0,0.3307,0.3317,-0.1024,-0.0002,0.0007,-0.0059,CLIMB,5,1,0,15.0,0.000,1.100,0,-1,0,-1.0,-15.0,-1.0,0.0,0.0,0.0,2037,2826,1212,1912,1298,2788,2050,2901,1310,1039,1278,2804,2035,2811,1211,1912,1315,2793,2052,2885,1308,1040,1297,2806
1782219198.2083,5.1743,1,lf,0.0986,0.0986,-0.1000,0,0.3307,0.3317,-0.1024,-0.0001,0.0006,-0.0059,CLIMB,5,1,0,15.0,0.000,1.120,0,-1,0,-1.0,-15.0,-1.0,0.0,0.0,0.0,2037,2826,1212,1912,1298,2788,2050,2901,1310,1039,1278,2804,2036,2811,1211,1912,1316,2793,2052,2884,1308,1040,1297,2806
1782219198.2283,5.1942,1,lf,0.0986,0.0986,-0.1000,0,0.3309,0.3314,-0.1024,-0.0002,0.0007,-0.0059,CLIMB,5,1,0,15.0,0.000,1.140,0,-1,0,-2.0,-15.0,-1.0,0.0,0.0,0.0,2037,2826,1212,1912,1298,2788,2050,2901,1310,1039,1278,2804,2036,2811,1211,1912,1316,2793,2052,2884,1308,1040,1297,2806
1782219198.2484,5.2144,1,lf,0.0986,0.0986,-0.1000,0,0.3309,0.3314,-0.1024,-0.0002,0.0008,-0.0059,CLIMB,5,1,0,15.0,0.000,1.160,0,-1,0,-2.0,-15.0,-1.0,0.0,0.0,0.0,2037,2826,1212,1912,1298,2788,2050,2901,1310,1039,1278,2804,2036,2811,1211,1912,1316,2793,2052,2884,1308,1040,1297,2806
1782219198.2682,5.2342,1,lf,0.0986,0.0986,-0.1000,0,0.3309,0.3314,-0.1024,-0.0003,0.0008,-0.0059,CLIMB,5,1,0,15.0,0.000,1.180,0,-1,0,-2.0,-15.0,-1.0,0.0,0.0,0.0,2037,2826,1212,1912,1298,2788,2050,2901,1310,1039,1278,2804,2035,2811,1211,1912,1316,2793,2052,2884,1308,1040,1297,2806
1782219198.2882,5.2542,1,lf,0.0986,0.0986,-0.1000,0,0.3307,0.3317,-0.1024,-0.0002,0.0007,-0.0059,CLIMB,5,1,0,15.0,0.000,1.200,0,-1,0,-1.0,-15.0,-1.0,0.0,0.0,0.0,2037,2826,1212,1912,1298,2788,2050,2901,1310,1039,1278,2804,2035,2811,1211,1912,1316,2793,2052,2884,1308,1040,1297,2806
1782219198.3083,5.2742,1,lf,0.0986,0.0986,-0.1000,0,0.3307,0.3317,-0.1024,-0.0002,0.0006,-0.0059,CLIMB,5,1,0,15.0,0.000,1.220,0,-1,0,-1.0,-15.0,-1.0,0.0,0.0,0.0,2037,2826,1212,1912,1298,2788,2050,2901,1310,1039,1278,2804,2036,2811,1211,1912,1316,2793,2052,2884,1308,1040,1297,2806
1782219198.3284,5.2944,1,lf,0.0986,0.0986,-0.1000,0,0.3309,0.3314,-0.1024,-0.0002,0.0008,-0.0059,CLIMB,5,1,0,15.0,0.000,1.240,0,-1,0,-1.0,-15.0,-1.0,0.0,0.0,0.0,2037,2826,1212,1912,1298,2788,2050,2901,1310,1039,1278,2804,2036,2811,1211,1912,1316,2793,2052,2884,1308,1040,1297,2806
1782219198.3482,5.3142,1,lf,0.0986,0.0986,-0.1000,0,0.3309,0.3314,-0.1024,-0.0003,0.0008,-0.0059,CLIMB,5,1,0,15.0,0.000,1.260,0,-1,0,-1.0,-15.0,-1.0,0.0,0.0,0.0,2037,2826,1212,1912,1298,2788,2050,2901,1310,1039,1278,2804,2036,2811,1211,1912,1316,2793,2052,2884,1308,1040,1297,2806
1782219198.3682,5.3342,1,lf,0.0986,0.0986,-0.1000,0,0.3309,0.3314,-0.1024,-0.0003,0.0008,-0.0059,CLIMB,5,1,0,15.0,0.000,1.280,0,-1,0,-1.0,-15.0,-1.0,0.0,0.0,0.0,2037,2826,1212,1912,1298,2788,2050,2901,1310,1039,1278,2804,2036,2811,1211,1912,1316,2793,2052,2884,1308,1040,1297,2806
1782219198.3882,5.3542,1,lf,0.0986,0.0986,-0.1000,0,0.3309,0.3314,-0.1024,-0.0003,0.0009,-0.0059,CLIMB,5,1,0,15.0,0.000,1.300,0,-1,0,-2.0,-15.0,-1.0,0.0,0.0,0.0,2037,2826,1212,1912,1298,2788,2050,2901,1310,1039,1278,2804,2036,2811,1211,1912,1316,2793,2052,2884,1308,1040,1297,2806
1782219198.4083,5.3743,1,lf,0.0986,0.0986,-0.1000,0,0.3309,0.3314,-0.1024,-0.0003,0.0009,-0.0059,CLIMB,5,1,0,15.0,0.000,1.320,0,-1,0,-2.0,-15.0,-1.0,0.0,0.0,0.0,2037,2826,1212,1912,1298,2788,2050,2901,1310,1039,1278,2804,2035,2811,1211,1912,1316,2793,2052,2884,1308,1040,1297,2806
1782219198.4283,5.3943,1,lf,0.0986,0.0986,-0.1000,0,0.3307,0.3317,-0.1024,-0.0002,0.0007,-0.0059,CLIMB,5,1,0,15.0,0.000,1.340,0,-1,0,-2.0,-15.0,-1.0,0.0,0.0,0.0,2037,2826,1212,1912,1298,2788,2050,2901,1310,1039,1278,2804,2035,2811,1211,1912,1316,2793,2052,2884,1308,1040,1297,2806
1782219198.4482,5.4142,1,lf,0.0986,0.0986,-0.1000,0,0.3307,0.3317,-0.1024,-0.0002,0.0006,-0.0059,CLIMB,5,1,0,15.0,0.000,1.360,0,-1,0,-2.0,-15.0,-1.0,0.0,0.0,0.0,2037,2826,1212,1912,1298,2788,2050,2901,1310,1039,1278,2804,2035,2811,1211,1912,1316,2793,2052,2884,1308,1040,1297,2806
1782219198.4684,5.4344,1,lf,0.0986,0.0986,-0.1000,0,0.3307,0.3317,-0.1024,-0.0001,0.0006,-0.0059,CLIMB,5,1,0,15.0,0.000,1.380,0,-1,0,-2.0,-15.0,-1.0,0.0,0.0,0.0,2037,2826,1212,1912,1298,2788,2050,2901,1310,1039,1278,2804,2035,2811,1211,1912,1316,2793,2052,2884,1308,1040,1297,2806
1782219198.4883,5.4543,1,lf,0.0986,0.0986,-0.1000,0,0.3307,0.3317,-0.1024,-0.0001,0.0006,-0.0059,CLIMB,5,1,0,16.0,0.000,1.400,0,-1,0,-1.0,-16.0,-1.0,0.0,0.0,0.0,2037,2826,1212,1912,1298,2788,2050,2901,1310,1039,1278,2804,2035,2811,1211,1912,1316,2793,2052,2884,1308,1040,1297,2806
1782219198.5083,5.4743,1,lf,0.0986,0.0986,-0.1000,0,0.3307,0.3317,-0.1024,-0.0001,0.0006,-0.0059,CLIMB,5,1,0,16.0,0.000,1.420,0,-1,0,-1.0,-16.0,-1.0,0.0,0.0,0.0,2037,2826,1212,1912,1298,2788,2050,2901,1310,1039,1278,2804,2036,2810,1211,1912,1316,2793,2052,2884,1308,1040,1297,2806
1782219198.5283,5.4942,1,lf,0.0986,0.0986,-0.1000,0,0.3308,0.3313,-0.1026,-0.0001,0.0008,-0.0058,CLIMB,5,1,0,16.0,0.000,1.440,0,-1,0,-1.0,-16.0,-1.0,0.0,0.0,0.0,2037,2826,1212,1912,1298,2788,2050,2901,1310,1039,1278,2804,2036,2810,1211,1912,1316,2793,2052,2884,1308,1040,1297,2806
1782219198.5483,5.5143,1,lf,0.0986,0.0986,-0.1000,0,0.3308,0.3313,-0.1026,-0.0001,0.0009,-0.0058,CLIMB,5,1,0,15.0,0.000,1.460,0,-1,0,-1.0,-15.0,-1.0,0.0,0.0,0.0,2037,2826,1212,1912,1298,2788,2050,2901,1310,1039,1278,2804,2036,2810,1211,1912,1316,2793,2052,2884,1308,1040,1297,2806
1782219198.5682,5.5342,1,lf,0.0986,0.0986,-0.1000,0,0.3308,0.3313,-0.1026,-0.0002,0.0009,-0.0057,CLIMB,5,1,0,15.0,0.000,1.480,0,-1,0,-1.0,-15.0,-1.0,0.0,0.0,0.0,2037,2826,1212,1912,1298,2788,2050,2901,1310,1039,1278,2804,2036,2811,1211,1912,1316,2793,2052,2884,1308,1040,1297,2806
1782219198.5883,5.5543,1,lf,0.0986,0.0986,-0.1000,0,0.3309,0.3314,-0.1024,-0.0002,0.0009,-0.0058,CLIMB,5,1,0,15.0,0.000,1.500,0,-1,0,-2.0,-15.0,-1.0,0.0,0.0,0.0,2037,2826,1212,1912,1298,2788,2050,2901,1310,1039,1278,2804,2036,2811,1211,1912,1316,2793,2052,2884,1308,1040,1297,2806
1782219198.6083,5.5742,1,lf,0.0986,0.0986,-0.1000,0,0.3309,0.3314,-0.1024,-0.0003,0.0009,-0.0059,CLIMB,5,1,0,15.0,0.000,1.520,0,-1,0,-2.0,-15.0,-1.0,0.0,0.0,0.0,2037,2826,1212,1912,1298,2788,2050,2901,1310,1039,1278,2804,2035,2811,1211,1912,1316,2793,2052,2884,1308,1040,1297,2806
1782219198.6284,5.5943,1,lf,0.0986,0.0986,-0.1000,0,0.3307,0.3317,-0.1024,-0.0002,0.0007,-0.0059,CLIMB,5,1,0,15.0,0.000,1.540,0,-1,0,-2.0,-15.0,-1.0,0.0,0.0,0.0,2037,2826,1212,1912,1298,2788,2050,2901,1310,1039,1278,2804,2035,2811,1211,1912,1316,2793,2052,2884,1308,1040,1297,2806
1782219198.6483,5.6143,1,lf,0.0986,0.0986,-0.1000,0,0.3307,0.3317,-0.1024,-0.0002,0.0006,-0.0059,CLIMB,5,1,0,15.0,0.000,1.560,0,-1,0,-2.0,-15.0,-1.0,0.0,0.0,0.0,2037,2826,1212,1912,1298,2788,2050,2901,1310,1039,1278,2804,2035,2811,1211,1912,1316,2793,2052,2884,1308,1040,1297,2806
1782219198.6683,5.6343,1,lf,0.0986,0.0986,-0.1000,0,0.3307,0.3317,-0.1024,-0.0001,0.0006,-0.0059,CLIMB,5,1,0,15.0,0.000,1.580,0,-1,0,-2.0,-15.0,-1.0,0.0,0.0,0.0,2037,2826,1212,1912,1298,2788,2050,2901,1310,1039,1278,2804,2035,2811,1211,1913,1316,2793,2052,2884,1308,1040,1297,2806
1782219198.6883,5.6543,1,lf,0.0986,0.0986,-0.1000,0,0.3307,0.3317,-0.1024,-0.0001,0.0006,-0.0059,CLIMB,5,1,0,15.0,0.000,1.600,0,-1,0,-2.0,-15.0,-1.0,0.0,0.0,0.0,2037,2826,1212,1912,1298,2788,2050,2901,1310,1039,1278,2804,2035,2811,1211,1913,1316,2793,2052,2884,1308,1040,1297,2806
1782219198.7083,5.6743,1,lf,0.0986,0.0986,-0.1000,0,0.3307,0.3317,-0.1024,-0.0001,0.0006,-0.0059,CLIMB,5,1,0,15.0,0.000,1.620,0,-1,0,-2.0,-15.0,-1.0,0.0,0.0,0.0,2037,2826,1212,1912,1298,2788,2050,2901,1310,1039,1278,2804,2035,2811,1211,1912,1316,2793,2052,2884,1308,1040,1297,2806
1782219198.7283,5.6943,1,lf,0.0986,0.0986,-0.1000,0,0.3307,0.3317,-0.1024,-0.0001,0.0006,-0.0059,CLIMB,5,1,0,15.0,0.000,1.640,0,-1,0,-2.0,-15.0,-1.0,0.0,0.0,0.0,2037,2826,1212,1912,1298,2788,2050,2901,1310,1039,1278,2804,2035,2811,1211,1912,1316,2793,2052,2884,1308,1040,1297,2806
1782219198.7482,5.7141,1,lf,0.0986,0.0986,-0.1000,0,0.3307,0.3317,-0.1024,-0.0001,0.0005,-0.0059,CLIMB,5,1,0,15.0,0.000,1.660,0,-1,0,-1.0,-15.0,-1.0,0.0,0.0,0.0,2037,2826,1212,1912,1298,2788,2050,2901,1310,1039,1278,2804,2035,2811,1211,1912,1316,2793,2052,2884,1308,1040,1297,2806
1782219198.7683,5.7343,1,lf,0.0986,0.0986,-0.1000,0,0.3307,0.3317,-0.1024,-0.0001,0.0005,-0.0059,CLIMB,5,1,0,15.0,0.000,1.680,0,-1,0,-2.0,-15.0,-1.0,0.0,0.0,0.0,2037,2826,1212,1912,1298,2788,2050,2901,1310,1039,1278,2804,2036,2811,1211,1912,1316,2793,2052,2884,1308,1040,1297,2806
1782219198.7883,5.7543,1,lf,0.0986,0.0986,-0.1000,0,0.3309,0.3314,-0.1024,-0.0002,0.0007,-0.0059,CLIMB,5,1,0,15.0,0.000,1.700,0,-1,0,-2.0,-15.0,-1.0,0.0,0.0,0.0,2037,2826,1212,1912,1298,2788,2050,2901,1310,1039,1278,2804,2036,2811,1211,1912,1316,2793,2052,2884,1308,1040,1297,2806
1782219198.8083,5.7743,1,lf,0.0986,0.0986,-0.1000,0,0.3309,0.3314,-0.1024,-0.0002,0.0008,-0.0059,CLIMB,5,1,0,15.0,0.000,1.720,0,-1,0,-2.0,-15.0,-1.0,0.0,0.0,0.0,2037,2826,1212,1912,1298,2788,2050,2901,1310,1039,1278,2804,2035,2811,1211,1912,1316,2793,2052,2884,1308,1040,1297,2806
1782219198.8284,5.7944,1,lf,0.0986,0.0986,-0.1000,0,0.3307,0.3317,-0.1024,-0.0002,0.0006,-0.0059,CLIMB,5,1,0,15.0,0.000,1.740,0,-1,0,-1.0,-15.0,-1.0,0.0,0.0,0.0,2037,2826,1212,1912,1298,2788,2050,2901,1310,1039,1278,2804,2035,2811,1211,1912,1316,2793,2052,2884,1308,1040,1297,2806
1782219198.8483,5.8142,1,lf,0.0986,0.0986,-0.1000,0,0.3307,0.3317,-0.1024,-0.0001,0.0006,-0.0059,CLIMB,5,1,0,15.0,0.000,1.760,0,-1,0,-1.0,-15.0,-1.0,0.0,0.0,0.0,2037,2826,1212,1912,1298,2788,2050,2901,1310,1039,1278,2804,2035,2811,1211,1912,1316,2793,2052,2884,1308,1040,1297,2806
1782219198.8683,5.8343,1,lf,0.0986,0.0986,-0.1000,0,0.3307,0.3317,-0.1024,-0.0001,0.0006,-0.0059,CLIMB,5,1,0,15.0,0.000,1.780,0,-1,0,-2.0,-15.0,-1.0,0.0,0.0,0.0,2037,2826,1212,1912,1298,2788,2050,2901,1310,1039,1278,2804,2035,2811,1211,1912,1316,2793,2052,2884,1308,1040,1297,2806
1782219198.8882,5.8542,1,lf,0.0986,0.0986,-0.1000,0,0.3307,0.3317,-0.1024,-0.0001,0.0005,-0.0059,CLIMB,5,1,0,15.0,0.000,1.800,0,-1,0,-2.0,-15.0,-1.0,0.0,0.0,0.0,2037,2826,1212,1912,1298,2788,2050,2901,1310,1039,1278,2804,2035,2811,1211,1912,1316,2793,2052,2884,1308,1040,1297,2806
1782219198.9082,5.8742,1,lf,0.0986,0.0986,-0.1000,0,0.3307,0.3317,-0.1024,-0.0001,0.0005,-0.0059,CLIMB,5,1,0,15.0,0.000,1.820,0,-1,0,-2.0,-15.0,-1.0,0.0,0.0,0.0,2037,2826,1212,1912,1298,2788,2050,2901,1310,1039,1278,2804,2035,2811,1211,1912,1316,2794,2052,2884,1308,1040,1297,2806
1782219198.9282,5.8942,1,lf,0.0986,0.0986,-0.1000,0,0.3307,0.3317,-0.1024,-0.0001,0.0005,-0.0059,CLIMB,5,1,0,15.0,0.000,1.840,0,-1,0,-1.0,-15.0,-1.0,0.0,0.0,0.0,2037,2826,1212,1912,1298,2788,2050,2901,1310,1039,1278,2804,2035,2811,1211,1912,1316,2794,2052,2884,1308,1040,1297,2806
1782219198.9484,5.9144,1,lf,0.0986,0.0986,-0.1000,0,0.3307,0.3317,-0.1024,-0.0001,0.0005,-0.0059,CLIMB,5,1,0,15.0,0.000,1.860,0,-1,0,-1.0,-15.0,-1.0,0.0,0.0,0.0,2037,2826,1212,1912,1298,2788,2050,2901,1310,1039,1278,2804,2035,2811,1211,1912,1316,2794,2052,2884,1308,1040,1297,2806
1782219198.9682,5.9342,1,lf,0.0986,0.0986,-0.1000,0,0.3307,0.3317,-0.1024,-0.0001,0.0005,-0.0059,CLIMB,5,1,0,15.0,0.000,1.880,0,-1,0,-2.0,-15.0,-1.0,0.0,0.0,0.0,2037,2826,1212,1912,1298,2788,2050,2901,1310,1039,1278,2804,2035,2811,1211,1912,1316,2793,2052,2884,1308,1040,1297,2806
1782219198.9882,5.9542,1,lf,0.0986,0.0986,-0.1000,0,0.3307,0.3317,-0.1024,-0.0001,0.0005,-0.0059,CLIMB,5,1,0,15.0,0.000,1.900,0,-1,0,-2.0,-15.0,-1.0,0.0,0.0,0.0,2037,2826,1212,1912,1298,2788,2050,2901,1310,1039,1278,2804,2035,2811,1211,1912,1316,2793,2052,2884,1308,1040,1297,2806
1782219199.0082,5.9742,1,lf,0.0986,0.0986,-0.1000,0,0.3307,0.3317,-0.1024,-0.0001,0.0006,-0.0059,CLIMB,5,1,0,15.0,0.000,1.920,0,-1,0,-2.0,-15.0,-1.0,0.0,0.0,0.0,2037,2826,1212,1912,1298,2788,2050,2901,1310,1039,1278,2804,2035,2811,1211,1912,1316,2793,2052,2884,1308,1040,1297,2805
1782219199.0282,5.9942,1,lf,0.0986,0.0986,-0.1000,0,0.3307,0.3317,-0.1024,-0.0001,0.0006,-0.0059,CLIMB,5,1,0,15.0,0.000,1.940,0,-1,0,-1.0,-15.0,-1.0,0.0,0.0,0.0,2037,2826,1212,1912,1298,2788,2050,2901,1310,1039,1278,2804,2035,2811,1211,1912,1316,2793,2052,2884,1308,1040,1297,2805
1782219199.0484,6.0144,1,lf,0.0986,0.0986,-0.1000,0,0.3307,0.3317,-0.1024,-0.0001,0.0006,-0.0059,CLIMB,5,1,0,15.0,0.000,1.960,0,-1,0,-1.0,-15.0,-1.0,0.0,0.0,0.0,2037,2826,1212,1912,1298,2788,2050,2901,1310,1039,1278,2804,2035,2811,1211,1912,1316,2793,2052,2884,1308,1040,1297,2805
1782219199.0682,6.0342,1,lf,0.0986,0.0986,-0.1000,0,0.3307,0.3317,-0.1024,-0.0001,0.0006,-0.0059,CLIMB,5,1,0,16.0,0.000,1.980,0,-1,0,-2.0,-16.0,-1.0,0.0,0.0,0.0,2037,2826,1212,1912,1298,2788,2050,2901,1310,1039,1278,2804,2035,2810,1211,1913,1316,2793,2052,2884,1308,1040,1297,2806
1782219199.0884,6.0544,1,lf,0.0986,0.0986,-0.1000,0,0.3306,0.3315,-0.1026,-0.0001,0.0006,-0.0058,CLIMB,5,1,0,15.0,0.000,2.000,0,-1,0,-1.0,-15.0,-1.0,0.0,0.0,0.0,2037,2826,1212,1912,1298,2788,2050,2901,1310,1039,1278,2804,2035,2810,1211,1913,1316,2793,2052,2884,1308,1040,1297,2806
1782219199.1083,6.0743,1,lf,0.0986,0.0986,-0.1000,0,0.3306,0.3315,-0.1026,-0.0000,0.0006,-0.0058,CLIMB,5,1,0,15.0,0.000,2.020,0,-1,0,-1.0,-15.0,-1.0,0.0,0.0,0.0,2037,2826,1212,1912,1298,2788,2050,2901,1310,1039,1278,2804,2036,2811,1211,1912,1316,2793,2052,2884,1308,1040,1297,2806
1782219199.1282,6.0942,1,lf,0.0986,0.0986,-0.1000,0,0.3309,0.3314,-0.1024,-0.0002,0.0007,-0.0058,CLIMB,5,1,0,15.0,0.000,2.040,0,-1,0,-2.0,-15.0,-1.0,0.0,0.0,0.0,2037,2826,1212,1912,1298,2788,2050,2901,1310,1039,1278,2804,2036,2811,1211,1912,1316,2793,2052,2884,1308,1040,1297,2806
1782219199.1481,6.1141,1,lf,0.0986,0.0986,-0.1000,0,0.3309,0.3314,-0.1024,-0.0002,0.0008,-0.0059,CLIMB,5,1,0,15.0,0.000,2.060,0,-1,0,-2.0,-15.0,-1.0,0.0,0.0,0.0,2037,2826,1212,1912,1298,2788,2050,2901,1310,1039,1278,2804,2036,2811,1211,1912,1316,2793,2052,2884,1308,1040,1297,2806
1782219199.1682,6.1342,1,lf,0.0986,0.0986,-0.1000,0,0.3309,0.3314,-0.1024,-0.0003,0.0008,-0.0059,CLIMB,5,1,0,15.0,0.000,2.080,0,-1,0,-2.0,-15.0,-1.0,0.0,0.0,0.0,2037,2826,1212,1912,1298,2788,2050,2901,1310,1039,1278,2804,2035,2811,1211,1912,1316,2793,2052,2884,1308,1040,1297,2806
1782219199.1882,6.1542,1,lf,0.0986,0.0986,-0.1000,0,0.3307,0.3317,-0.1024,-0.0002,0.0007,-0.0059,CLIMB,5,1,0,15.0,0.000,2.100,0,-1,0,-2.0,-15.0,-1.0,0.0,0.0,0.0,2037,2826,1212,1912,1298,2788,2050,2901,1310,1039,1278,2804,2035,2811,1211,1912,1316,2793,2052,2884,1308,1040,1297,2806
1782219199.2082,6.1742,1,lf,0.0986,0.0986,-0.1000,0,0.3307,0.3317,-0.1024,-0.0002,0.0006,-0.0059,CLIMB,5,1,0,15.0,0.000,2.120,0,-1,0,-2.0,-15.0,-1.0,0.0,0.0,0.0,2037,2826,1212,1912,1298,2788,2050,2901,1310,1039,1278,2804,2036,2811,1211,1912,1316,2793,2052,2884,1308,1040,1297,2806
1782219199.2282,6.1942,1,lf,0.0986,0.0986,-0.1000,0,0.3309,0.3314,-0.1024,-0.0002,0.0007,-0.0059,CLIMB,5,1,0,15.0,0.000,2.140,0,-1,0,-1.0,-15.0,-1.0,0.0,0.0,0.0,2037,2826,1212,1912,1298,2788,2050,2901,1310,1039,1278,2804,2036,2811,1211,1912,1316,2793,2052,2884,1308,1040,1297,2806
1782219199.2482,6.2142,1,lf,0.0986,0.0986,-0.1000,0,0.3309,0.3314,-0.1024,-0.0003,0.0008,-0.0059,CLIMB,5,1,0,15.0,0.000,2.160,0,-1,0,-1.0,-15.0,-1.0,0.0,0.0,0.0,2037,2826,1212,1912,1298,2788,2050,2901,1310,1039,1278,2804,2036,2811,1211,1912,1316,2793,2052,2884,1308,1040,1297,2806
1782219199.2683,6.2343,1,lf,0.0986,0.0986,-0.1000,0,0.3309,0.3314,-0.1024,-0.0003,0.0008,-0.0059,CLIMB,5,1,0,15.0,0.000,2.180,0,-1,0,-1.0,-15.0,-1.0,0.0,0.0,0.0,2037,2826,1212,1912,1298,2788,2050,2901,1310,1039,1278,2804,2036,2811,1211,1912,1316,2793,2052,2884,1308,1040,1297,2806
1782219199.2882,6.2542,1,lf,0.0986,0.0986,-0.1000,0,0.3309,0.3314,-0.1024,-0.0003,0.0008,-0.0059,CLIMB,5,1,0,15.0,0.000,2.200,0,-1,0,-2.0,-15.0,-1.0,0.0,0.0,0.0,2037,2826,1212,1912,1298,2788,2050,2901,1310,1039,1278,2804,2036,2811,1211,1912,1316,2793,2052,2884,1308,1040,1297,2806
1782219199.3082,6.2742,1,lf,0.0986,0.0986,-0.1000,0,0.3309,0.3314,-0.1024,-0.0003,0.0008,-0.0059,CLIMB,5,1,0,15.0,0.000,2.220,0,-1,0,-1.0,-15.0,-1.0,0.0,0.0,0.0,2037,2826,1212,1912,1298,2788,2050,2901,1310,1039,1278,2804,2036,2811,1211,1912,1316,2793,2052,2884,1308,1040,1297,2806
1782219199.3282,6.2942,1,lf,0.0986,0.0986,-0.1000,0,0.3309,0.3314,-0.1024,-0.0003,0.0008,-0.0059,CLIMB,5,1,0,15.0,0.000,2.240,0,-1,0,-1.0,-15.0,-1.0,0.0,0.0,0.0,2037,2826,1212,1912,1298,2788,2050,2901,1310,1039,1278,2804,2036,2811,1211,1912,1316,2793,2052,2884,1308,1040,1297,2806
1782219199.3482,6.3142,1,lf,0.0986,0.0986,-0.1000,0,0.3309,0.3314,-0.1024,-0.0003,0.0008,-0.0059,CLIMB,5,1,0,15.0,0.000,2.260,0,-1,0,-2.0,-15.0,-1.0,0.0,0.0,0.0,2037,2826,1212,1912,1298,2788,2050,2901,1310,1039,1278,2804,2036,2811,1211,1912,1316,2793,2052,2884,1308,1040,1297,2806
1782219199.3682,6.3342,1,lf,0.0986,0.0986,-0.1000,0,0.3309,0.3314,-0.1024,-0.0003,0.0008,-0.0059,CLIMB,5,1,0,15.0,0.000,2.280,0,-1,0,-2.0,-15.0,-1.0,0.0,0.0,0.0,2037,2826,1212,1912,1298,2788,2050,2901,1310,1039,1278,2804,2035,2811,1211,1912,1316,2793,2052,2884,1308,1040,1297,2806
1782219199.3882,6.3542,1,lf,0.0986,0.0986,-0.1000,0,0.3307,0.3317,-0.1024,-0.0002,0.0007,-0.0059,CLIMB,5,1,0,15.0,0.000,2.300,0,-1,0,-1.0,-15.0,-1.0,0.0,0.0,0.0,2037,2826,1212,1912,1298,2788,2050,2901,1310,1039,1278,2804,2035,2811,1211,1912,1316,2793,2052,2884,1308,1040,1297,2806
1782219199.4082,6.3742,1,lf,0.0986,0.0986,-0.1000,0,0.3307,0.3317,-0.1024,-0.0002,0.0006,-0.0059,CLIMB,5,1,0,15.0,0.000,2.320,0,-1,0,-1.0,-15.0,-1.0,0.0,0.0,0.0,2037,2826,1212,1912,1298,2788,2050,2901,1310,1039,1278,2804,2036,2811,1211,1912,1316,2793,2052,2884,1308,1040,1297,2806
1782219199.4282,6.3942,1,lf,0.0986,0.0986,-0.1000,0,0.3309,0.3314,-0.1024,-0.0002,0.0007,-0.0059,CLIMB,5,1,0,15.0,0.000,2.340,0,-1,0,-1.0,-15.0,-1.0,0.0,0.0,0.0,2037,2826,1212,1912,1298,2788,2050,2901,1310,1039,1278,2804,2036,2811,1211,1912,1316,2793,2052,2884,1308,1040,1297,2806
1782219199.4482,6.4142,1,lf,0.0986,0.0986,-0.1000,0,0.3309,0.3314,-0.1024,-0.0003,0.0008,-0.0059,CLIMB,5,1,0,15.0,0.000,2.360,0,-1,0,-2.0,-15.0,-1.0,0.0,0.0,0.0,2037,2826,1212,1912,1298,2788,2050,2901,1310,1039,1278,2804,2036,2811,1211,1912,1316,2793,2052,2884,1308,1040,1297,2806
1782219199.4682,6.4342,1,lf,0.0986,0.0986,-0.1000,0,0.3309,0.3314,-0.1024,-0.0003,0.0008,-0.0059,CLIMB,5,1,0,15.0,0.000,2.380,0,-1,0,-1.0,-15.0,-1.0,0.0,0.0,0.0,2037,2826,1212,1912,1298,2788,2050,2901,1310,1039,1278,2804,2035,2811,1211,1912,1316,2793,2052,2884,1308,1040,1297,2806
1782219199.4881,6.4541,1,lf,0.0986,0.0986,-0.1000,0,0.3307,0.3317,-0.1024,-0.0002,0.0007,-0.0059,CLIMB,5,1,0,15.0,0.000,2.400,0,-1,0,-1.0,-15.0,-1.0,0.0,0.0,0.0,2037,2826,1212,1912,1298,2788,2050,2901,1310,1039,1278,2804,2035,2811,1211,1912,1316,2793,2052,2884,1308,1040,1297,2806
1782219199.5082,6.4742,1,lf,0.0986,0.0986,-0.1000,0,0.3307,0.3317,-0.1024,-0.0002,0.0006,-0.0059,CLIMB,5,1,0,15.0,0.000,2.420,0,-1,0,-2.0,-15.0,-1.0,0.0,0.0,0.0,2037,2826,1212,1912,1298,2788,2050,2901,1310,1039,1278,2804,2035,2811,1211,1912,1316,2793,2052,2885,1308,1040,1297,2806
1782219199.5283,6.4943,1,lf,0.0986,0.0986,-0.1000,0,0.3307,0.3317,-0.1024,-0.0001,0.0006,-0.0059,CLIMB,5,1,0,15.0,0.000,2.440,0,-1,0,-2.0,-15.0,-1.0,0.0,0.0,0.0,2037,2826,1212,1912,1298,2788,2050,2901,1310,1039,1278,2804,2035,2811,1211,1912,1316,2793,2052,2885,1308,1040,1297,2806
1782219199.5483,6.5143,1,lf,0.0986,0.0986,-0.1000,0,0.3307,0.3317,-0.1024,-0.0001,0.0005,-0.0059,CLIMB,5,1,0,15.0,0.000,2.460,0,-1,0,-1.0,-15.0,-1.0,0.0,0.0,0.0,2037,2826,1212,1912,1298,2788,2050,2901,1310,1039,1278,2804,2035,2811,1211,1912,1316,2793,2052,2885,1308,1040,1297,2806
1782219199.5683,6.5343,1,lf,0.0986,0.0986,-0.1000,0,0.3307,0.3317,-0.1024,-0.0001,0.0005,-0.0059,CLIMB,5,1,0,15.0,0.000,2.480,0,-1,0,-2.0,-15.0,-1.0,0.0,0.0,0.0,2037,2826,1212,1912,1298,2788,2050,2901,1310,1039,1278,2804,2036,2811,1211,1912,1316,2793,2052,2884,1308,1040,1297,2806
1782219199.5882,6.5542,1,lf,0.0986,0.0986,-0.1000,0,0.3309,0.3314,-0.1024,-0.0002,0.0007,-0.0059,CLIMB,5,1,0,15.0,0.000,2.500,0,-1,0,-2.0,-15.0,-1.0,0.0,0.0,0.0,2037,2826,1212,1912,1298,2788,2050,2901,1310,1039,1278,2804,2036,2811,1211,1912,1316,2793,2052,2884,1308,1040,1297,2806
1782219199.6082,6.5742,1,lf,0.0986,0.0986,-0.1000,0,0.3309,0.3314,-0.1024,-0.0003,0.0008,-0.0059,CLIMB,5,1,0,15.0,0.000,2.520,0,-1,0,-1.0,-15.0,-1.0,0.0,0.0,0.0,2037,2826,1212,1912,1298,2788,2050,2901,1310,1039,1278,2804,2036,2811,1211,1912,1316,2793,2052,2884,1308,1040,1297,2806
1782219199.6282,6.5942,1,lf,0.0986,0.0986,-0.1000,0,0.3309,0.3314,-0.1024,-0.0003,0.0008,-0.0059,CLIMB,5,1,0,15.0,0.000,2.540,0,-1,0,-2.0,-15.0,-1.0,0.0,0.0,0.0,2037,2826,1212,1912,1298,2788,2050,2901,1310,1039,1278,2804,2036,2811,1211,1912,1316,2793,2052,2884,1308,1040,1297,2806
1782219199.6483,6.6143,1,lf,0.0986,0.0986,-0.1000,0,0.3309,0.3314,-0.1024,-0.0003,0.0008,-0.0060,CLIMB,5,1,0,15.0,0.000,2.560,0,-1,0,-2.0,-15.0,-1.0,0.0,0.0,0.0,2037,2826,1212,1912,1298,2788,2050,2901,1310,1039,1278,2804,2036,2811,1211,1912,1316,2793,2052,2884,1308,1040,1297,2806
1782219199.6683,6.6343,1,lf,0.0986,0.0986,-0.1000,0,0.3309,0.3314,-0.1024,-0.0003,0.0008,-0.0059,CLIMB,5,1,0,15.0,0.000,2.580,0,-1,0,-2.0,-15.0,-1.0,0.0,0.0,0.0,2037,2826,1212,1912,1298,2788,2050,2901,1310,1039,1278,2804,2035,2811,1211,1912,1316,2793,2052,2884,1308,1039,1297,2806
1782219199.6882,6.6542,1,lf,0.0986,0.0986,-0.1000,0,0.3307,0.3317,-0.1024,-0.0002,0.0007,-0.0059,CLIMB,5,1,0,15.0,0.000,2.600,0,-1,0,-2.0,-15.0,-1.0,0.0,0.0,0.0,2037,2826,1212,1912,1298,2788,2050,2901,1310,1039,1278,2804,2035,2811,1211,1912,1316,2793,2052,2884,1308,1039,1297,2806
1782219199.7082,6.6742,1,lf,0.0986,0.0986,-0.1000,0,0.3307,0.3317,-0.1024,-0.0002,0.0006,-0.0059,CLIMB,5,1,0,15.0,0.000,2.620,0,-1,0,-1.0,-15.0,-1.0,0.0,0.0,0.0,2037,2826,1212,1912,1298,2788,2050,2901,1310,1039,1278,2804,2036,2811,1211,1912,1316,2793,2052,2884,1308,1040,1297,2806
1782219199.7282,6.6941,1,lf,0.0986,0.0986,-0.1000,0,0.3309,0.3314,-0.1024,-0.0002,0.0007,-0.0059,CLIMB,5,1,0,15.0,0.000,2.640,0,-1,0,-2.0,-15.0,-1.0,0.0,0.0,0.0,2037,2826,1212,1912,1298,2788,2050,2901,1310,1039,1278,2804,2036,2811,1211,1912,1316,2793,2052,2884,1308,1040,1297,2806
1782219199.7482,6.7142,1,lf,0.0986,0.0986,-0.1000,0,0.3309,0.3314,-0.1024,-0.0003,0.0008,-0.0059,CLIMB,5,1,0,15.0,0.000,2.660,0,-1,0,-2.0,-15.0,-1.0,0.0,0.0,0.0,2037,2826,1212,1912,1298,2788,2050,2901,1310,1039,1278,2804,2036,2811,1211,1912,1316,2793,2052,2884,1308,1040,1297,2806
1782219199.7682,6.7342,1,lf,0.0986,0.0986,-0.1000,0,0.3309,0.3314,-0.1024,-0.0003,0.0008,-0.0059,CLIMB,5,1,0,15.0,0.000,2.680,0,-1,0,-1.0,-15.0,-1.0,0.0,0.0,0.0,2037,2826,1212,1912,1298,2788,2050,2901,1310,1039,1278,2804,2036,2811,1211,1912,1316,2793,2052,2884,1308,1040,1297,2806
1782219199.7883,6.7543,1,lf,0.0986,0.0986,-0.1000,0,0.3309,0.3314,-0.1024,-0.0003,0.0008,-0.0059,CLIMB,5,1,0,15.0,0.000,2.700,0,-1,0,-2.0,-15.0,-1.0,0.0,0.0,0.0,2037,2826,1212,1912,1298,2788,2050,2901,1310,1039,1278,2804,2036,2811,1211,1912,1316,2793,2052,2884,1308,1040,1297,2806
1782219199.8083,6.7743,1,lf,0.0986,0.0986,-0.1000,0,0.3309,0.3314,-0.1024,-0.0003,0.0008,-0.0059,CLIMB,5,1,0,15.0,0.000,2.720,0,-1,0,-2.0,-15.0,-1.0,0.0,0.0,0.0,2037,2826,1212,1912,1298,2788,2050,2901,1310,1039,1278,2804,2035,2811,1211,1913,1316,2793,2052,2884,1308,1040,1297,2806
1782219199.8284,6.7944,1,lf,0.0986,0.0986,-0.1000,0,0.3307,0.3317,-0.1024,-0.0002,0.0007,-0.0059,CLIMB,5,1,0,15.0,0.000,2.740,0,-1,0,-2.0,-15.0,-1.0,0.0,0.0,0.0,2037,2826,1212,1912,1298,2788,2050,2901,1310,1039,1278,2804,2035,2811,1211,1913,1316,2793,2052,2884,1308,1040,1297,2806
1782219199.8484,6.8144,1,lf,0.0986,0.0986,-0.1000,0,0.3307,0.3317,-0.1024,-0.0002,0.0006,-0.0059,CLIMB,5,1,0,15.0,0.000,2.760,0,-1,0,-2.0,-15.0,-1.0,0.0,0.0,0.0,2037,2826,1212,1912,1298,2788,2050,2901,1310,1039,1278,2804,2035,2811,1211,1913,1316,2793,2052,2884,1308,1040,1297,2806
1782219199.8681,6.8341,1,lf,0.0986,0.0986,-0.1000,0,0.3307,0.3317,-0.1024,-0.0002,0.0006,-0.0059,CLIMB,5,1,0,15.0,0.000,2.780,0,-1,0,-2.0,-15.0,-1.0,0.0,0.0,0.0,2037,2826,1212,1912,1298,2788,2050,2901,1310,1039,1278,2804,2035,2811,1211,1912,1316,2793,2052,2884,1308,1040,1297,2806
1782219199.8882,6.8542,1,lf,0.0986,0.0986,-0.1000,0,0.3307,0.3317,-0.1024,-0.0001,0.0006,-0.0059,CLIMB,5,1,0,15.0,0.000,2.800,0,-1,0,-2.0,-15.0,-1.0,0.0,0.0,0.0,2037,2826,1212,1912,1298,2788,2050,2901,1310,1039,1278,2804,2035,2811,1211,1912,1316,2793,2052,2884,1308,1040,1297,2806
1782219199.9083,6.8742,1,lf,0.0986,0.0986,-0.1000,0,0.3307,0.3317,-0.1024,-0.0001,0.0005,-0.0059,CLIMB,5,1,0,15.0,0.000,2.820,0,-1,0,-2.0,-15.0,-1.0,0.0,0.0,0.0,2037,2826,1212,1912,1298,2788,2050,2901,1310,1039,1278,2804,2035,2811,1211,1912,1316,2793,2052,2884,1308,1040,1297,2806
1782219199.9282,6.8942,1,lf,0.0986,0.0986,-0.1000,0,0.3307,0.3317,-0.1024,-0.0001,0.0005,-0.0059,CLIMB,5,1,0,15.0,0.000,2.840,0,-1,0,-1.0,-15.0,-1.0,0.0,0.0,0.0,2037,2826,1212,1912,1298,2788,2050,2901,1310,1039,1278,2804,2035,2811,1211,1912,1316,2793,2052,2884,1308,1040,1297,2806
1782219199.9483,6.9142,1,lf,0.0986,0.0986,-0.1000,0,0.3307,0.3317,-0.1024,-0.0001,0.0005,-0.0059,CLIMB,5,1,0,15.0,0.000,2.860,0,-1,0,-2.0,-15.0,-1.0,0.0,0.0,0.0,2037,2826,1212,1912,1298,2788,2050,2901,1310,1039,1278,2804,2035,2811,1211,1912,1316,2793,2052,2884,1308,1040,1297,2806
1782219199.9681,6.9341,1,lf,0.0986,0.0986,-0.1000,0,0.3307,0.3317,-0.1024,-0.0001,0.0005,-0.0059,CLIMB,5,1,0,15.0,0.000,2.880,0,-1,0,-2.0,-15.0,-1.0,0.0,0.0,0.0,2037,2826,1212,1912,1298,2788,2050,2901,1310,1039,1278,2804,2035,2811,1211,1912,1316,2793,2052,2884,1308,1040,1297,2806
1782219199.9883,6.9543,1,lf,0.0986,0.0986,-0.1000,0,0.3307,0.3317,-0.1024,-0.0001,0.0005,-0.0059,CLIMB,5,1,0,15.0,0.000,2.900,0,-1,0,-2.0,-15.0,-1.0,0.0,0.0,0.0,2037,2826,1212,1912,1298,2788,2050,2901,1310,1039,1278,2804,2035,2811,1211,1912,1316,2793,2052,2884,1308,1040,1297,2806
1782219200.0082,6.9742,1,lf,0.0986,0.0986,-0.1000,0,0.3307,0.3317,-0.1024,-0.0001,0.0005,-0.0059,CLIMB,5,1,0,15.0,0.000,2.920,0,-1,0,-2.0,-15.0,-1.0,0.0,0.0,0.0,2037,2826,1212,1912,1298,2788,2050,2901,1310,1039,1278,2804,2036,2811,1211,1912,1316,2793,2052,2884,1308,1040,1297,2806
1782219200.0283,6.9942,1,lf,0.0986,0.0986,-0.1000,0,0.3309,0.3314,-0.1024,-0.0002,0.0007,-0.0059,CLIMB,5,1,0,15.0,0.000,2.940,0,-1,0,-1.0,-15.0,-1.0,0.0,0.0,0.0,2037,2826,1212,1912,1298,2788,2050,2901,1310,1039,1278,2804,2036,2811,1211,1912,1316,2793,2052,2884,1308,1040,1297,2806
1782219200.0483,7.0143,1,lf,0.0986,0.0986,-0.1000,0,0.3309,0.3314,-0.1024,-0.0003,0.0007,-0.0059,CLIMB,5,1,0,16.0,0.000,2.960,0,-1,0,-1.0,-16.0,-1.0,0.0,0.0,0.0,2037,2826,1212,1912,1298,2788,2050,2901,1310,1039,1278,2804,2036,2811,1211,1912,1316,2793,2052,2884,1308,1040,1297,2806
1782219200.0683,7.0342,1,lf,0.0986,0.0986,-0.1000,0,0.3309,0.3314,-0.1024,-0.0003,0.0008,-0.0059,CLIMB,5,1,0,16.0,0.000,2.980,0,-1,0,-1.0,-16.0,-1.0,0.0,0.0,0.0,2037,2826,1212,1912,1298,2788,2050,2901,1310,1039,1278,2804,2036,2810,1211,1912,1316,2793,2052,2884,1308,1040,1297,2806
1782219200.0882,7.0542,1,lf,0.0986,0.0986,-0.1000,0,0.3308,0.3313,-0.1026,-0.0002,0.0009,-0.0058,CLIMB,5,1,0,15.0,0.000,3.000,1,-1,0,-2.0,-15.0,-1.0,0.0,0.0,0.0,2037,2826,1212,1912,1298,2788,2050,2901,1310,1039,1278,2804,2036,2810,1211,1912,1316,2793,2052,2884,1308,1040,1297,2806
1782219200.1082,7.0742,1,lf,0.0986,0.0986,-0.1000,0,0.3308,0.3313,-0.1026,-0.0002,0.0009,-0.0058,CLIMB,5,1,0,15.0,0.000,3.020,1,-1,0,-1.0,-15.0,-1.0,0.0,0.0,0.0,2037,2826,1212,1912,1298,2788,2050,2901,1310,1039,1278,2804,2036,2811,1211,1912,1316,2793,2052,2884,1308,1040,1297,2806
1782219200.1283,7.0942,1,lf,0.0986,0.0986,-0.1000,0,0.3309,0.3314,-0.1024,-0.0003,0.0009,-0.0058,CLIMB,5,1,0,15.0,0.000,3.040,1,-1,0,-1.0,-15.0,-1.0,0.0,0.0,0.0,2037,2826,1212,1912,1298,2788,2050,2901,1310,1039,1278,2804,2036,2811,1211,1912,1316,2793,2052,2884,1308,1040,1297,2806
1782219200.1483,7.1143,1,lf,0.0986,0.0986,-0.1000,0,0.3309,0.3314,-0.1024,-0.0003,0.0009,-0.0059,CLIMB,5,1,0,15.0,0.000,3.060,1,-1,0,-2.0,-15.0,-1.0,0.0,0.0,0.0,2037,2826,1212,1912,1298,2788,2050,2901,1310,1039,1278,2804,2036,2811,1211,1912,1316,2793,2052,2884,1308,1040,1297,2806
1782219200.1683,7.1343,1,lf,0.0986,0.0986,-0.1000,0,0.3309,0.3314,-0.1024,-0.0003,0.0008,-0.0059,CLIMB,5,1,0,15.0,0.000,3.080,1,-1,0,-2.0,-15.0,-1.0,0.0,0.0,0.0,2037,2826,1212,1912,1298,2788,2050,2901,1310,1039,1278,2804,2035,2811,1211,1912,1316,2793,2052,2884,1308,1040,1297,2806
1782219200.1884,7.1544,1,lf,0.0986,0.0986,-0.1000,0,0.3307,0.3317,-0.1024,-0.0002,0.0007,-0.0059,CLIMB,5,1,0,15.0,0.000,3.100,1,-1,0,-2.0,-15.0,-1.0,0.0,0.0,0.0,2037,2826,1212,1912,1298,2788,2050,2901,1310,1039,1278,2804,2035,2811,1211,1912,1316,2793,2052,2884,1308,1040,1297,2806
1782219200.2083,7.1743,1,lf,0.0986,0.0986,-0.1000,0,0.3307,0.3317,-0.1024,-0.0002,0.0006,-0.0059,CLIMB,5,1,0,15.0,0.000,3.120,1,-1,0,-2.0,-15.0,-1.0,0.0,0.0,0.0,2037,2826,1212,1912,1298,2788,2050,2901,1310,1039,1278,2804,2035,2811,1211,1912,1316,2793,2052,2884,1308,1040,1297,2806
1782219200.2282,7.1942,1,lf,0.0986,0.0986,-0.1000,0,0.3307,0.3317,-0.1024,-0.0001,0.0006,-0.0059,CLIMB,5,1,0,15.0,0.000,3.140,1,-1,0,-2.0,-15.0,-1.0,0.0,0.0,0.0,2037,2826,1212,1912,1298,2788,2050,2901,1310,1039,1278,2804,2035,2811,1211,1912,1316,2793,2052,2884,1308,1040,1297,2806
1782219200.2482,7.2142,1,lf,0.0986,0.0986,-0.1000,0,0.3307,0.3317,-0.1024,-0.0001,0.0005,-0.0059,CLIMB,5,1,0,15.0,0.000,3.160,1,-1,0,-2.0,-15.0,-1.0,0.0,0.0,0.0,2037,2826,1212,1912,1298,2788,2050,2901,1310,1039,1278,2804,2035,2811,1211,1912,1316,2793,2052,2884,1308,1040,1297,2806
1782219200.2684,7.2344,1,lf,0.0986,0.0986,-0.1000,0,0.3307,0.3317,-0.1024,-0.0001,0.0005,-0.0059,CLIMB,5,1,0,15.0,0.000,3.180,1,-1,0,-1.0,-15.0,-1.0,0.0,0.0,0.0,2037,2826,1212,1912,1298,2788,2050,2901,1310,1039,1278,2804,2035,2811,1211,1912,1316,2793,2052,2884,1308,1040,1297,2806
1782219200.2882,7.2541,1,lf,0.0986,0.0986,-0.1000,0,0.3307,0.3317,-0.1024,-0.0001,0.0005,-0.0059,CLIMB,5,1,0,15.0,0.000,3.200,1,-1,0,-1.0,-15.0,-1.0,0.0,0.0,0.0,2037,2826,1212,1912,1298,2788,2050,2901,1310,1039,1278,2804,2035,2811,1211,1912,1316,2793,2052,2884,1308,1040,1297,2806
1782219200.3081,7.2741,1,lf,0.0986,0.0986,-0.1000,0,0.3307,0.3317,-0.1024,-0.0001,0.0005,-0.0059,CLIMB,5,1,0,15.0,0.000,3.220,1,-1,0,-2.0,-15.0,-1.0,0.0,0.0,0.0,2037,2826,1212,1912,1298,2788,2050,2901,1310,1039,1278,2804,2035,2811,1211,1912,1316,2793,2052,2884,1308,1040,1297,2806
1782219200.3282,7.2942,1,lf,0.0986,0.0986,-0.1000,0,0.3307,0.3317,-0.1024,-0.0001,0.0005,-0.0059,CLIMB,5,1,0,15.0,0.000,3.240,1,-1,0,-2.0,-15.0,-1.0,0.0,0.0,0.0,2037,2826,1212,1912,1298,2788,2050,2901,1310,1039,1278,2804,2035,2811,1211,1912,1316,2793,2052,2884,1308,1040,1297,2806
1782219200.3483,7.3142,1,lf,0.0986,0.0986,-0.1000,0,0.3307,0.3317,-0.1024,-0.0001,0.0005,-0.0059,CLIMB,5,1,0,15.0,0.000,3.260,1,-1,0,-1.0,-15.0,-1.0,0.0,0.0,0.0,2037,2826,1212,1912,1298,2788,2050,2901,1310,1039,1278,2804,2035,2811,1211,1912,1316,2793,2052,2884,1308,1040,1297,2806
1782219200.3682,7.3341,1,lf,0.0986,0.0986,-0.1000,0,0.3307,0.3317,-0.1024,-0.0001,0.0005,-0.0059,CLIMB,5,1,0,15.0,0.000,3.280,1,-1,0,-2.0,-15.0,-1.0,0.0,0.0,0.0,2037,2826,1212,1912,1298,2788,2050,2901,1310,1039,1278,2804,2036,2811,1211,1912,1315,2793,2052,2884,1308,1040,1297,2806
1782219200.3882,7.3541,1,lf,0.0986,0.0986,-0.1000,0,0.3309,0.3314,-0.1024,-0.0002,0.0007,-0.0059,CLIMB,5,1,0,15.0,0.000,3.300,1,-1,0,-2.0,-15.0,-1.0,0.0,0.0,0.0,2037,2826,1212,1912,1298,2788,2050,2901,1310,1039,1278,2804,2036,2811,1211,1912,1315,2793,2052,2884,1308,1040,1297,2806
1782219200.4083,7.3743,1,lf,0.0986,0.0986,-0.1000,0,0.3309,0.3314,-0.1024,-0.0003,0.0007,-0.0059,CLIMB,5,1,0,15.0,0.000,3.320,1,-1,0,-2.0,-15.0,-1.0,0.0,0.0,0.0,2037,2826,1212,1912,1298,2788,2050,2901,1310,1039,1278,2804,2035,2811,1211,1912,1316,2793,2052,2884,1308,1040,1297,2806
1782219200.4283,7.3942,1,lf,0.0986,0.0986,-0.1000,0,0.3307,0.3317,-0.1024,-0.0002,0.0006,-0.0059,CLIMB,5,1,0,15.0,0.000,3.340,1,-1,0,-1.0,-15.0,-1.0,0.0,0.0,0.0,2037,2826,1212,1912,1298,2788,2050,2901,1310,1039,1278,2804,2035,2811,1211,1912,1316,2793,2052,2884,1308,1040,1297,2806
1782219200.4483,7.4143,1,lf,0.0986,0.0986,-0.1000,0,0.3307,0.3317,-0.1024,-0.0002,0.0006,-0.0059,CLIMB,5,1,0,15.0,0.000,3.360,1,-1,0,-1.0,-15.0,-1.0,0.0,0.0,0.0,2037,2826,1212,1912,1298,2788,2050,2901,1310,1039,1278,2804,2035,2811,1211,1912,1316,2793,2052,2884,1308,1040,1297,2806
1782219200.4682,7.4342,1,lf,0.0986,0.0986,-0.1000,0,0.3307,0.3317,-0.1024,-0.0001,0.0006,-0.0059,CLIMB,5,1,0,15.0,0.000,3.380,1,-1,0,-1.0,-15.0,-1.0,0.0,0.0,0.0,2037,2826,1212,1912,1298,2788,2050,2901,1310,1039,1278,2804,2036,2811,1211,1912,1316,2793,2052,2884,1308,1040,1297,2806
1782219200.4883,7.4543,1,lf,0.0986,0.0986,-0.1000,0,0.3309,0.3314,-0.1024,-0.0002,0.0007,-0.0059,CLIMB,5,1,0,15.0,0.000,3.400,1,-1,0,-1.0,-15.0,-1.0,0.0,0.0,0.0,2037,2826,1212,1912,1298,2788,2050,2901,1310,1039,1278,2804,2036,2811,1211,1912,1316,2793,2052,2884,1308,1040,1297,2806
1782219200.5083,7.4743,1,lf,0.0986,0.0986,-0.1000,0,0.3309,0.3314,-0.1024,-0.0003,0.0008,-0.0059,CLIMB,5,1,0,15.0,0.000,3.420,1,-1,0,-2.0,-15.0,-1.0,0.0,0.0,0.0,2037,2826,1212,1912,1298,2788,2050,2901,1310,1039,1278,2804,2035,2811,1211,1912,1316,2793,2052,2884,1308,1040,1297,2806
1782219200.5282,7.4942,1,lf,0.0986,0.0986,-0.1000,0,0.3307,0.3317,-0.1024,-0.0002,0.0006,-0.0059,CLIMB,5,1,0,15.0,0.000,3.440,1,-1,0,-1.0,-15.0,-1.0,0.0,0.0,0.0,2037,2826,1212,1912,1298,2788,2050,2901,1310,1039,1278,2804,2035,2811,1211,1912,1316,2793,2052,2884,1308,1040,1297,2806
1782219200.5483,7.5143,1,lf,0.0986,0.0986,-0.1000,0,0.3307,0.3317,-0.1024,-0.0002,0.0006,-0.0059,CLIMB,5,1,0,15.0,0.000,3.460,1,-1,0,-1.0,-15.0,-1.0,0.0,0.0,0.0,2037,2826,1212,1912,1298,2788,2050,2901,1310,1039,1278,2804,2035,2811,1211,1912,1316,2793,2052,2884,1308,1040,1297,2806
1782219200.5682,7.5342,1,lf,0.0986,0.0986,-0.1000,0,0.3307,0.3317,-0.1024,-0.0001,0.0006,-0.0059,CLIMB,5,1,0,15.0,0.000,3.480,1,-1,0,-2.0,-15.0,-1.0,0.0,0.0,0.0,2037,2826,1212,1912,1298,2788,2050,2901,1310,1039,1278,2804,2035,2811,1211,1912,1316,2793,2052,2884,1308,1040,1297,2806
1782219200.5882,7.5542,1,lf,0.0986,0.0986,-0.1000,0,0.3307,0.3317,-0.1024,-0.0001,0.0005,-0.0059,CLIMB,5,1,0,15.0,0.000,3.500,1,-1,0,-2.0,-15.0,-1.0,0.0,0.0,0.0,2037,2826,1212,1912,1298,2788,2050,2901,1310,1039,1278,2804,2035,2811,1211,1912,1316,2793,2052,2884,1308,1040,1297,2806
1782219200.6082,7.5742,1,lf,0.0986,0.0986,-0.1000,0,0.3307,0.3317,-0.1024,-0.0001,0.0005,-0.0059,CLIMB,5,1,0,15.0,0.000,3.520,1,-1,0,-2.0,-15.0,-1.0,0.0,0.0,0.0,2037,2826,1212,1912,1298,2788,2050,2901,1310,1039,1278,2804,2035,2811,1211,1912,1316,2793,2052,2884,1308,1040,1297,2806
1782219200.6284,7.5944,1,lf,0.0986,0.0986,-0.1000,0,0.3307,0.3317,-0.1024,-0.0001,0.0005,-0.0059,CLIMB,5,1,0,15.0,0.000,3.540,1,-1,0,-2.0,-15.0,-1.0,0.0,0.0,0.0,2037,2826,1212,1912,1298,2788,2050,2901,1310,1039,1278,2804,2035,2811,1211,1912,1316,2793,2052,2884,1308,1040,1297,2806
1782219200.6483,7.6143,1,lf,0.0986,0.0986,-0.1000,0,0.3307,0.3317,-0.1024,-0.0001,0.0005,-0.0059,CLIMB,5,1,0,15.0,0.000,3.560,1,-1,0,-2.0,-15.0,-1.0,0.0,0.0,0.0,2037,2826,1212,1912,1298,2788,2050,2901,1310,1039,1278,2804,2035,2811,1211,1912,1316,2793,2052,2884,1308,1040,1297,2806
1782219200.6683,7.6343,1,lf,0.0986,0.0986,-0.1000,0,0.3307,0.3317,-0.1024,-0.0001,0.0005,-0.0059,CLIMB,5,1,0,15.0,0.000,3.580,1,-1,0,-2.0,-15.0,-1.0,0.0,0.0,0.0,2037,2826,1212,1912,1298,2788,2050,2901,1310,1039,1278,2804,2035,2811,1211,1912,1316,2793,2052,2884,1308,1040,1297,2806
1782219200.6883,7.6543,1,lf,0.0986,0.0986,-0.1000,0,0.3307,0.3317,-0.1024,-0.0001,0.0005,-0.0059,CLIMB,5,1,0,15.0,0.000,3.600,1,-1,0,-2.0,-15.0,-1.0,0.0,0.0,0.0,2037,2826,1212,1912,1298,2788,2050,2901,1310,1039,1278,2804,2035,2811,1211,1912,1316,2793,2052,2884,1308,1040,1297,2806
1782219200.7083,7.6742,1,lf,0.0986,0.0986,-0.1000,0,0.3307,0.3317,-0.1024,-0.0001,0.0005,-0.0059,CLIMB,5,1,0,15.0,0.000,3.620,1,-1,0,-2.0,-15.0,-1.0,0.0,0.0,0.0,2037,2826,1212,1912,1298,2788,2050,2901,1310,1039,1278,2804,2035,2811,1211,1912,1316,2793,2052,2884,1308,1040,1297,2806
1782219200.7282,7.6942,1,lf,0.0986,0.0986,-0.1000,0,0.3307,0.3317,-0.1024,-0.0001,0.0005,-0.0059,CLIMB,5,1,0,15.0,0.000,3.640,1,-1,0,-1.0,-15.0,-1.0,0.0,0.0,0.0,2037,2826,1212,1912,1298,2788,2050,2901,1310,1039,1278,2804,2035,2811,1211,1912,1316,2793,2052,2884,1308,1040,1297,2806
1782219200.7482,7.7142,1,lf,0.0986,0.0986,-0.1000,0,0.3307,0.3317,-0.1024,-0.0001,0.0005,-0.0059,CLIMB,5,1,0,15.0,0.000,3.660,1,-1,0,-2.0,-15.0,-1.0,0.0,0.0,0.0,2037,2826,1212,1912,1298,2788,2050,2901,1310,1039,1278,2804,2035,2811,1211,1912,1316,2793,2052,2884,1308,1040,1297,2806
1782219200.7683,7.7342,1,lf,0.0986,0.0986,-0.1000,0,0.3307,0.3317,-0.1024,-0.0001,0.0005,-0.0059,CLIMB,5,1,0,15.0,0.000,3.680,1,-1,0,-2.0,-15.0,-1.0,0.0,0.0,0.0,2037,2826,1212,1912,1298,2788,2050,2901,1310,1039,1278,2804,2035,2811,1211,1912,1316,2793,2052,2884,1308,1040,1297,2806
1782219200.7882,7.7542,1,lf,0.0986,0.0986,-0.1000,0,0.3307,0.3317,-0.1024,-0.0001,0.0005,-0.0059,CLIMB,5,1,0,15.0,0.000,3.700,1,-1,0,-2.0,-15.0,-1.0,0.0,0.0,0.0,2037,2826,1212,1912,1298,2788,2050,2901,1310,1039,1278,2804,2035,2811,1211,1912,1316,2793,2052,2884,1308,1040,1297,2806
1782219200.8082,7.7742,1,lf,0.0986,0.0986,-0.1000,0,0.3307,0.3317,-0.1024,-0.0001,0.0005,-0.0059,CLIMB,5,1,0,15.0,0.000,3.720,1,-1,0,-2.0,-15.0,-1.0,0.0,0.0,0.0,2037,2826,1212,1912,1298,2788,2050,2901,1310,1039,1278,2804,2036,2811,1211,1912,1316,2793,2052,2884,1308,1040,1297,2806
1782219200.8284,7.7944,1,lf,0.0986,0.0986,-0.1000,0,0.3309,0.3314,-0.1024,-0.0002,0.0007,-0.0059,CLIMB,5,1,0,15.0,0.000,3.740,1,-1,0,-1.0,-15.0,-1.0,0.0,0.0,0.0,2037,2826,1212,1912,1298,2788,2050,2901,1310,1039,1278,2804,2036,2811,1211,1912,1316,2793,2052,2884,1308,1040,1297,2806
1782219200.8484,7.8144,1,lf,0.0986,0.0986,-0.1000,0,0.3309,0.3314,-0.1024,-0.0003,0.0008,-0.0059,CLIMB,5,1,0,15.0,0.000,3.760,1,-1,0,-2.0,-15.0,-1.0,0.0,0.0,0.0,2037,2826,1212,1912,1298,2788,2050,2901,1310,1039,1278,2804,2036,2811,1211,1912,1316,2793,2052,2884,1308,1040,1297,2806
1782219200.8681,7.8341,1,lf,0.0986,0.0986,-0.1000,0,0.3309,0.3314,-0.1024,-0.0003,0.0008,-0.0059,CLIMB,5,1,0,15.0,0.000,3.780,1,-1,0,-2.0,-15.0,-1.0,0.0,0.0,0.0,2037,2826,1212,1912,1298,2788,2050,2901,1310,1039,1278,2804,2035,2811,1211,1912,1316,2793,2052,2884,1308,1039,1297,2806
1782219200.8881,7.8540,1,lf,0.0986,0.0986,-0.1000,0,0.3307,0.3317,-0.1024,-0.0002,0.0007,-0.0059,CLIMB,5,1,0,15.0,0.000,3.800,1,-1,0,-1.0,-15.0,-1.0,0.0,0.0,0.0,2037,2826,1212,1912,1298,2788,2050,2901,1310,1039,1278,2804,2035,2811,1211,1912,1316,2793,2052,2884,1308,1039,1297,2806
1782219200.9081,7.8741,1,lf,0.0986,0.0986,-0.1000,0,0.3307,0.3317,-0.1024,-0.0002,0.0006,-0.0059,CLIMB,5,1,0,15.0,0.000,3.820,1,-1,0,-2.0,-15.0,-1.0,0.0,0.0,0.0,2037,2826,1212,1912,1298,2788,2050,2901,1310,1039,1278,2804,2035,2811,1211,1912,1316,2793,2052,2885,1308,1040,1297,2806
1782219200.9281,7.8941,1,lf,0.0986,0.0986,-0.1000,0,0.3307,0.3317,-0.1024,-0.0001,0.0006,-0.0059,CLIMB,5,1,0,15.0,0.000,3.840,1,-1,0,-2.0,-15.0,-1.0,0.0,0.0,0.0,2037,2826,1212,1912,1298,2788,2050,2901,1310,1039,1278,2804,2035,2811,1211,1912,1316,2793,2052,2885,1308,1040,1297,2806
1782219200.9482,7.9142,1,lf,0.0986,0.0986,-0.1000,0,0.3307,0.3317,-0.1024,-0.0001,0.0005,-0.0059,CLIMB,5,1,0,15.0,0.000,3.860,1,-1,0,-1.0,-15.0,-1.0,0.0,0.0,0.0,2037,2826,1212,1912,1298,2788,2050,2901,1310,1039,1278,2804,2035,2811,1211,1912,1316,2793,2052,2885,1308,1040,1297,2806
1782219200.9683,7.9342,1,lf,0.0986,0.0986,-0.1000,0,0.3307,0.3317,-0.1024,-0.0001,0.0005,-0.0059,CLIMB,5,1,0,15.0,0.000,3.880,1,-1,0,-1.0,-15.0,-1.0,0.0,0.0,0.0,2037,2826,1212,1912,1298,2788,2050,2901,1310,1039,1278,2804,2036,2811,1211,1912,1316,2793,2052,2884,1308,1040,1297,2806
1782219200.9881,7.9541,1,lf,0.0986,0.0986,-0.1000,0,0.3309,0.3314,-0.1024,-0.0002,0.0007,-0.0059,CLIMB,5,1,0,15.0,0.000,3.900,1,-1,0,-1.0,-15.0,-1.0,0.0,0.0,0.0,2037,2826,1212,1912,1298,2788,2050,2901,1310,1039,1278,2804,2036,2811,1211,1912,1316,2793,2052,2884,1308,1040,1297,2806
1782219201.0083,7.9743,1,lf,0.0986,0.0986,-0.1000,0,0.3309,0.3314,-0.1024,-0.0003,0.0008,-0.0059,CLIMB,5,1,0,15.0,0.000,3.920,1,-1,0,-2.0,-15.0,-1.0,0.0,0.0,0.0,2037,2826,1212,1912,1298,2788,2050,2901,1310,1039,1278,2804,2035,2811,1211,1912,1316,2794,2052,2884,1308,1040,1297,2806
1782219201.0282,7.9942,1,lf,0.0986,0.0986,-0.1000,0,0.3307,0.3317,-0.1024,-0.0002,0.0006,-0.0059,CLIMB,5,1,0,15.0,0.000,3.940,1,-1,0,-2.0,-15.0,-1.0,0.0,0.0,0.0,2037,2826,1212,1912,1298,2788,2050,2901,1310,1039,1278,2804,2035,2811,1211,1912,1316,2794,2052,2884,1308,1040,1297,2806
1782219201.0486,8.0145,1,lf,0.0986,0.0986,-0.1000,0,0.3307,0.3317,-0.1024,-0.0002,0.0006,-0.0059,CLIMB,5,1,0,15.0,0.000,3.960,1,-1,0,-2.0,-15.0,-1.0,0.0,0.0,0.0,2037,2826,1212,1912,1298,2788,2050,2901,1310,1039,1278,2804,2035,2811,1211,1912,1316,2794,2052,2884,1308,1040,1297,2806
1782219201.0682,8.0342,1,lf,0.0986,0.0986,-0.1000,0,0.3307,0.3317,-0.1024,-0.0001,0.0005,-0.0059,CLIMB,5,1,0,15.0,0.000,3.980,1,-1,0,-2.0,-15.0,-1.0,0.0,0.0,0.0,2037,2826,1212,1912,1298,2788,2050,2901,1310,1039,1278,2804,2035,2811,1211,1912,1316,2793,2052,2884,1308,1040,1297,2806
1782219201.0881,8.0541,1,lf,0.0986,0.0986,-0.1000,0,0.3307,0.3317,-0.1024,-0.0001,0.0005,-0.0059,CLIMB,5,1,0,15.0,0.000,4.000,1,-1,0,-2.0,-15.0,-1.0,0.0,0.0,0.0,2037,2826,1212,1912,1298,2788,2050,2901,1310,1039,1278,2804,2035,2811,1211,1912,1316,2793,2052,2884,1308,1040,1297,2806
1782219201.1081,8.0741,1,lf,0.0986,0.0986,-0.1000,0,0.3307,0.3317,-0.1024,-0.0001,0.0005,-0.0059,CLIMB,5,1,0,15.0,0.000,4.020,1,-1,0,-2.0,-15.0,-1.0,0.0,0.0,0.0,2037,2826,1212,1912,1298,2788,2050,2901,1310,1039,1278,2804,2035,2811,1211,1912,1316,2793,2052,2884,1308,1040,1297,2806
1782219201.1282,8.0942,1,lf,0.0986,0.0986,-0.1000,0,0.3307,0.3317,-0.1024,-0.0001,0.0005,-0.0059,CLIMB,5,1,0,15.0,0.000,4.040,1,-1,0,-2.0,-15.0,-1.0,0.0,0.0,0.0,2037,2826,1212,1912,1298,2788,2050,2901,1310,1039,1278,2804,2035,2811,1211,1912,1316,2793,2052,2884,1308,1040,1297,2806
1782219201.1482,8.1142,1,lf,0.0986,0.0986,-0.1000,0,0.3307,0.3317,-0.1024,-0.0001,0.0005,-0.0059,CLIMB,5,1,0,15.0,0.000,4.060,1,-1,0,-1.0,-15.0,-1.0,0.0,0.0,0.0,2037,2826,1212,1912,1298,2788,2050,2901,1310,1039,1278,2804,2035,2811,1211,1912,1316,2793,2052,2884,1308,1040,1297,2806
1782219201.1682,8.1342,1,lf,0.0986,0.0986,-0.1000,0,0.3307,0.3317,-0.1024,-0.0001,0.0005,-0.0059,CLIMB,5,1,0,15.0,0.000,4.080,1,-1,0,-1.0,-15.0,-1.0,0.0,0.0,0.0,2037,2826,1212,1912,1298,2788,2050,2901,1310,1039,1278,2804,2036,2811,1211,1912,1316,2793,2052,2884,1308,1040,1297,2806
1782219201.1881,8.1541,1,lf,0.0986,0.0986,-0.1000,0,0.3309,0.3314,-0.1024,-0.0002,0.0007,-0.0059,CLIMB,5,1,0,15.0,0.000,4.100,1,-1,0,-1.0,-15.0,-1.0,0.0,0.0,0.0,2037,2826,1212,1912,1298,2788,2050,2901,1310,1039,1278,2804,2036,2811,1211,1912,1316,2793,2052,2884,1308,1040,1297,2806
1782219201.2082,8.1742,1,lf,0.0986,0.0986,-0.1000,0,0.3309,0.3314,-0.1024,-0.0003,0.0008,-0.0059,CLIMB,5,1,0,15.0,0.000,4.120,1,-1,0,-1.0,-15.0,-1.0,0.0,0.0,0.0,2037,2826,1212,1912,1298,2788,2050,2901,1310,1039,1278,2804,2036,2811,1211,1912,1316,2793,2052,2884,1308,1040,1297,2806
1782219201.2281,8.1941,1,lf,0.0986,0.0986,-0.1000,0,0.3309,0.3314,-0.1024,-0.0003,0.0008,-0.0059,CLIMB,5,1,0,15.0,0.000,4.140,1,-1,0,-2.0,-15.0,-1.0,0.0,0.0,0.0,2037,2826,1212,1912,1298,2788,2050,2901,1310,1039,1278,2804,2036,2811,1211,1912,1316,2793,2052,2884,1308,1040,1297,2806
1782219201.2482,8.2142,1,lf,0.0986,0.0986,-0.1000,0,0.3309,0.3314,-0.1024,-0.0003,0.0008,-0.0059,CLIMB,5,1,0,15.0,0.000,4.160,1,-1,0,-2.0,-15.0,-1.0,0.0,0.0,0.0,2037,2826,1212,1912,1298,2788,2050,2901,1310,1039,1278,2804,2036,2811,1211,1912,1316,2793,2052,2884,1308,1040,1297,2806
1782219201.2683,8.2343,1,lf,0.0986,0.0986,-0.1000,0,0.3309,0.3314,-0.1024,-0.0003,0.0008,-0.0059,CLIMB,5,1,0,15.0,0.000,4.180,1,-1,0,-1.0,-15.0,-1.0,0.0,0.0,0.0,2037,2826,1212,1912,1298,2788,2050,2901,1310,1039,1278,2804,2036,2811,1211,1912,1316,2793,2052,2884,1308,1040,1297,2806
1782219201.2883,8.2542,1,lf,0.0986,0.0986,-0.1000,0,0.3309,0.3314,-0.1024,-0.0003,0.0008,-0.0059,CLIMB,5,1,0,15.0,0.000,4.200,1,-1,0,-1.0,-15.0,-1.0,0.0,0.0,0.0,2037,2826,1212,1912,1298,2788,2050,2901,1310,1039,1278,2804,2036,2811,1211,1912,1316,2793,2052,2884,1308,1040,1297,2806
1782219201.3083,8.2743,1,lf,0.0986,0.0986,-0.1000,0,0.3309,0.3314,-0.1024,-0.0003,0.0008,-0.0059,CLIMB,5,1,0,15.0,0.000,4.220,1,-1,0,-1.0,-15.0,-1.0,0.0,0.0,0.0,2037,2826,1212,1912,1298,2788,2050,2901,1310,1039,1278,2804,2036,2811,1211,1912,1316,2793,2052,2884,1308,1040,1297,2806
1782219201.3281,8.2941,1,lf,0.0986,0.0986,-0.1000,0,0.3309,0.3314,-0.1024,-0.0003,0.0008,-0.0059,CLIMB,5,1,0,15.0,0.000,4.240,1,-1,0,-2.0,-15.0,-1.0,0.0,0.0,0.0,2037,2826,1212,1912,1298,2788,2050,2901,1310,1039,1278,2804,2036,2811,1211,1912,1316,2793,2052,2884,1308,1040,1297,2806
1782219201.3482,8.3142,1,lf,0.0986,0.0986,-0.1000,0,0.3309,0.3314,-0.1024,-0.0003,0.0008,-0.0059,CLIMB,5,1,0,15.0,0.000,4.260,1,-1,0,-2.0,-15.0,-1.0,0.0,0.0,0.0,2037,2826,1212,1912,1298,2788,2050,2901,1310,1039,1278,2804,2036,2811,1211,1912,1316,2793,2052,2884,1308,1040,1297,2806
1782219201.3682,8.3342,1,lf,0.0986,0.0986,-0.1000,0,0.3309,0.3314,-0.1024,-0.0003,0.0008,-0.0059,CLIMB,5,1,0,15.0,0.000,4.280,1,-1,0,-2.0,-15.0,-1.0,0.0,0.0,0.0,2037,2826,1212,1912,1298,2788,2050,2901,1310,1039,1278,2804,2035,2811,1211,1912,1316,2793,2052,2884,1308,1040,1297,2806
1782219201.3882,8.3541,1,lf,0.0986,0.0986,-0.1000,0,0.3307,0.3317,-0.1024,-0.0002,0.0007,-0.0059,CLIMB,5,1,0,15.0,0.000,4.300,1,-1,0,-2.0,-15.0,-1.0,0.0,0.0,0.0,2037,2826,1212,1912,1298,2788,2050,2901,1310,1039,1278,2804,2035,2811,1211,1912,1316,2793,2052,2884,1308,1040,1297,2806
1782219201.4082,8.3741,1,lf,0.0986,0.0986,-0.1000,0,0.3307,0.3317,-0.1024,-0.0002,0.0006,-0.0059,CLIMB,5,1,0,15.0,0.000,4.320,1,-1,0,-2.0,-15.0,-1.0,0.0,0.0,0.0,2037,2826,1212,1912,1298,2788,2050,2901,1310,1039,1278,2804,2035,2811,1211,1912,1316,2793,2052,2884,1308,1040,1297,2806
1782219201.4282,8.3942,1,lf,0.0986,0.0986,-0.1000,0,0.3307,0.3317,-0.1024,-0.0002,0.0006,-0.0059,CLIMB,5,1,0,16.0,0.000,4.340,1,-1,0,-1.0,-16.0,-1.0,0.0,0.0,0.0,2037,2826,1212,1912,1298,2788,2050,2901,1310,1039,1278,2804,2035,2811,1211,1912,1316,2793,2052,2884,1308,1040,1297,2806
1782219201.4482,8.4142,1,lf,0.0986,0.0986,-0.1000,0,0.3307,0.3317,-0.1024,-0.0002,0.0006,-0.0059,CLIMB,5,1,0,16.0,0.000,4.360,1,-1,0,-1.0,-16.0,-1.0,0.0,0.0,0.0,2037,2826,1212,1912,1298,2788,2050,2901,1310,1039,1278,2804,2035,2811,1211,1912,1316,2793,2052,2884,1308,1040,1297,2806
1782219201.4681,8.4341,1,lf,0.0986,0.0986,-0.1000,0,0.3307,0.3317,-0.1024,-0.0002,0.0006,-0.0059,CLIMB,5,1,0,15.0,0.000,4.380,1,-1,0,-1.0,-15.0,-1.0,0.0,0.0,0.0,2037,2826,1212,1912,1298,2788,2050,2901,1310,1039,1278,2804,2036,2811,1211,1912,1316,2793,2052,2884,1308,1040,1297,2806
1782219201.4882,8.4542,1,lf,0.0986,0.0986,-0.1000,0,0.3309,0.3314,-0.1024,-0.0002,0.0007,-0.0059,CLIMB,5,1,0,15.0,0.000,4.400,1,-1,0,-1.0,-15.0,-1.0,0.0,0.0,0.0,2037,2826,1212,1912,1298,2788,2050,2901,1310,1039,1278,2804,2036,2811,1211,1912,1316,2793,2052,2884,1308,1040,1297,2806
1782219201.5082,8.4742,1,lf,0.0986,0.0986,-0.1000,0,0.3309,0.3314,-0.1024,-0.0003,0.0008,-0.0060,CLIMB,5,1,0,15.0,0.000,4.420,1,-1,0,-1.0,-15.0,-1.0,0.0,0.0,0.0,2037,2826,1212,1912,1298,2788,2050,2901,1310,1039,1278,2804,2036,2811,1211,1912,1316,2793,2052,2884,1308,1040,1297,2806
1782219201.5284,8.4944,1,lf,0.0986,0.0986,-0.1000,0,0.3309,0.3314,-0.1024,-0.0003,0.0008,-0.0060,CLIMB,5,1,0,15.0,0.000,4.440,1,-1,0,-1.0,-15.0,-1.0,0.0,0.0,0.0,2037,2826,1212,1912,1298,2788,2050,2901,1310,1039,1278,2804,2036,2811,1211,1912,1316,2793,2052,2884,1308,1040,1297,2806
1782219201.5483,8.5143,1,lf,0.0986,0.0986,-0.1000,0,0.3309,0.3314,-0.1024,-0.0003,0.0009,-0.0060,CLIMB,5,1,0,15.0,0.000,4.460,1,-1,0,-2.0,-15.0,-1.0,0.0,0.0,0.0,2037,2826,1212,1912,1298,2788,2050,2901,1310,1039,1278,2804,2036,2811,1211,1912,1316,2793,2052,2884,1308,1040,1297,2806
1782219201.5682,8.5342,1,lf,0.0986,0.0986,-0.1000,0,0.3309,0.3314,-0.1024,-0.0003,0.0009,-0.0060,CLIMB,5,1,0,15.0,0.000,4.480,1,-1,0,-2.0,-15.0,-1.0,0.0,0.0,0.0,2037,2826,1212,1912,1298,2788,2050,2901,1310,1039,1278,2804,2035,2811,1211,1912,1316,2793,2052,2884,1308,1040,1297,2806
1782219201.5882,8.5542,1,lf,0.0986,0.0986,-0.1000,0,0.3307,0.3317,-0.1024,-0.0003,0.0007,-0.0060,CLIMB,5,1,0,15.0,0.000,4.500,1,-1,0,-2.0,-15.0,-1.0,0.0,0.0,0.0,2037,2826,1212,1912,1298,2788,2050,2901,1310,1039,1278,2804,2035,2811,1211,1912,1316,2793,2052,2884,1308,1040,1297,2806
1782219201.6082,8.5742,1,lf,0.0986,0.0986,-0.1000,0,0.3307,0.3317,-0.1024,-0.0002,0.0006,-0.0059,CLIMB,5,1,0,15.0,0.000,4.520,1,-1,0,-2.0,-15.0,-1.0,0.0,0.0,0.0,2037,2826,1212,1912,1298,2788,2050,2901,1310,1039,1278,2804,2036,2811,1211,1912,1316,2793,2052,2884,1308,1040,1297,2806
1782219201.6281,8.5941,1,lf,0.0986,0.0986,-0.1000,0,0.3309,0.3314,-0.1024,-0.0003,0.0008,-0.0059,CLIMB,5,1,0,15.0,0.000,4.540,1,-1,0,-1.0,-15.0,-1.0,0.0,0.0,0.0,2037,2826,1212,1912,1298,2788,2050,2901,1310,1039,1278,2804,2036,2811,1211,1912,1316,2793,2052,2884,1308,1040,1297,2806
1782219201.6482,8.6142,1,lf,0.0986,0.0986,-0.1000,0,0.3309,0.3314,-0.1024,-0.0003,0.0008,-0.0059,CLIMB,5,1,0,16.0,0.000,4.560,1,-1,0,-1.0,-16.0,-1.0,0.0,0.0,0.0,2037,2826,1212,1912,1298,2788,2050,2901,1310,1039,1278,2804,2036,2811,1211,1912,1316,2793,2052,2884,1308,1040,1297,2806
1782219201.6683,8.6342,1,lf,0.0986,0.0986,-0.1000,0,0.3309,0.3314,-0.1024,-0.0003,0.0008,-0.0059,CLIMB,5,1,0,16.0,0.000,4.580,1,-1,0,-1.0,-16.0,-1.0,0.0,0.0,0.0,2037,2826,1212,1912,1298,2788,2050,2901,1310,1039,1278,2804,2036,2810,1211,1912,1316,2793,2052,2885,1308,1040,1297,2806
1782219201.6883,8.6543,1,lf,0.0986,0.0986,-0.1000,0,0.3308,0.3313,-0.1026,-0.0002,0.0009,-0.0058,CLIMB,5,1,0,15.0,0.000,4.600,1,-1,0,-2.0,-15.0,-1.0,0.0,0.0,0.0,2037,2826,1212,1912,1298,2788,2050,2901,1310,1039,1278,2804,2036,2810,1211,1912,1316,2793,2052,2885,1308,1040,1297,2806
1782219201.7082,8.6742,1,lf,0.0986,0.0986,-0.1000,0,0.3308,0.3313,-0.1026,-0.0002,0.0009,-0.0058,CLIMB,5,1,0,15.0,0.000,4.620,1,-1,0,-1.0,-15.0,-1.0,0.0,0.0,0.0,2037,2826,1212,1912,1298,2788,2050,2901,1310,1039,1278,2804,2036,2811,1211,1912,1316,2793,2052,2884,1308,1040,1297,2806
1782219201.7281,8.6941,1,lf,0.0986,0.0986,-0.1000,0,0.3309,0.3314,-0.1024,-0.0003,0.0009,-0.0058,CLIMB,5,1,0,15.0,0.000,4.640,1,-1,0,-1.0,-15.0,-1.0,0.0,0.0,0.0,2037,2826,1212,1912,1298,2788,2050,2901,1310,1039,1278,2804,2036,2811,1211,1912,1316,2793,2052,2884,1308,1040,1297,2806
1782219201.7481,8.7141,1,lf,0.0986,0.0986,-0.1000,0,0.3309,0.3314,-0.1024,-0.0003,0.0009,-0.0059,CLIMB,5,1,0,15.0,0.000,4.660,1,-1,0,-1.0,-15.0,-1.0,0.0,0.0,0.0,2037,2826,1212,1912,1298,2788,2050,2901,1310,1039,1278,2804,2036,2811,1211,1912,1316,2793,2052,2884,1308,1040,1297,2806
1782219201.7683,8.7342,1,lf,0.0986,0.0986,-0.1000,0,0.3309,0.3314,-0.1024,-0.0003,0.0009,-0.0059,CLIMB,5,1,0,15.0,0.000,4.680,1,-1,0,-1.0,-15.0,-1.0,0.0,0.0,0.0,2037,2826,1212,1912,1298,2788,2050,2901,1310,1039,1278,2804,2036,2811,1211,1912,1316,2793,2052,2884,1308,1040,1297,2806
1782219201.7882,8.7542,1,lf,0.0986,0.0986,-0.1000,0,0.3309,0.3314,-0.1024,-0.0003,0.0009,-0.0059,CLIMB,5,1,0,16.0,0.000,4.700,1,-1,0,-2.0,-16.0,-1.0,0.0,0.0,0.0,2037,2826,1212,1912,1298,2788,2050,2901,1310,1039,1278,2804,2036,2811,1211,1912,1316,2793,2052,2884,1308,1040,1297,2806
1782219201.8082,8.7742,1,lf,0.0986,0.0986,-0.1000,0,0.3309,0.3314,-0.1024,-0.0003,0.0009,-0.0059,CLIMB,5,1,0,15.0,0.000,4.720,1,-1,0,-2.0,-15.0,-1.0,0.0,0.0,0.0,2037,2826,1212,1912,1298,2788,2050,2901,1310,1039,1278,2804,2035,2811,1211,1912,1316,2793,2052,2885,1308,1040,1297,2806
1782219201.8281,8.7941,1,lf,0.0986,0.0986,-0.1000,0,0.3307,0.3317,-0.1024,-0.0002,0.0007,-0.0059,CLIMB,5,1,0,15.0,0.000,4.740,1,-1,0,-2.0,-15.0,-1.0,0.0,0.0,0.0,2037,2826,1212,1912,1298,2788,2050,2901,1310,1039,1278,2804,2035,2811,1211,1912,1316,2793,2052,2885,1308,1040,1297,2806
1782219201.8484,8.8144,1,lf,0.0986,0.0986,-0.1000,0,0.3307,0.3317,-0.1024,-0.0002,0.0006,-0.0059,CLIMB,5,1,0,15.0,0.000,4.760,1,-1,0,-2.0,-15.0,-1.0,0.0,0.0,0.0,2037,2826,1212,1912,1298,2788,2050,2901,1310,1039,1278,2804,2035,2811,1211,1912,1316,2793,2052,2885,1308,1040,1297,2806
1782219201.8682,8.8342,1,lf,0.0986,0.0986,-0.1000,0,0.3307,0.3317,-0.1024,-0.0001,0.0006,-0.0059,CLIMB,5,1,0,15.0,0.000,4.780,1,-1,0,-2.0,-15.0,-1.0,0.0,0.0,0.0,2037,2826,1212,1912,1298,2788,2050,2901,1310,1039,1278,2804,2035,2811,1211,1912,1316,2793,2052,2884,1308,1040,1297,2806
1782219201.8881,8.8541,1,lf,0.0986,0.0986,-0.1000,0,0.3307,0.3317,-0.1024,-0.0001,0.0006,-0.0059,CLIMB,5,1,0,15.0,0.000,4.800,1,-1,0,-2.0,-15.0,-1.0,0.0,0.0,0.0,2037,2826,1212,1912,1298,2788,2050,2901,1310,1039,1278,2804,2035,2811,1211,1912,1316,2793,2052,2884,1308,1040,1297,2806
1782219201.9081,8.8741,1,lf,0.0986,0.0986,-0.1000,0,0.3307,0.3317,-0.1024,-0.0001,0.0006,-0.0059,CLIMB,5,1,0,15.0,0.000,4.820,1,-1,0,-2.0,-15.0,-1.0,0.0,0.0,0.0,2037,2826,1212,1912,1298,2788,2050,2901,1310,1039,1278,2804,2035,2811,1211,1912,1316,2793,2052,2885,1308,1040,1297,2806
1782219201.9281,8.8941,1,lf,0.0986,0.0986,-0.1000,0,0.3307,0.3317,-0.1024,-0.0001,0.0006,-0.0059,CLIMB,5,1,0,15.0,0.000,4.840,1,-1,0,-2.0,-15.0,-1.0,0.0,0.0,0.0,2037,2826,1212,1912,1298,2788,2050,2901,1310,1039,1278,2804,2035,2811,1211,1912,1316,2793,2052,2885,1308,1040,1297,2806
1782219201.9482,8.9142,1,lf,0.0986,0.0986,-0.1000,0,0.3307,0.3317,-0.1024,-0.0001,0.0006,-0.0059,CLIMB,5,1,0,15.0,0.000,4.860,1,-1,0,-1.0,-15.0,-1.0,0.0,0.0,0.0,2037,2826,1212,1912,1298,2788,2050,2901,1310,1039,1278,2804,2035,2811,1211,1912,1316,2793,2052,2885,1308,1040,1297,2806
1782219201.9682,8.9342,1,lf,0.0986,0.0986,-0.1000,0,0.3307,0.3317,-0.1024,-0.0001,0.0006,-0.0059,CLIMB,5,1,0,15.0,0.000,4.880,1,-1,0,-1.0,-15.0,-1.0,0.0,0.0,0.0,2037,2826,1212,1912,1298,2788,2050,2901,1310,1039,1278,2804,2036,2811,1211,1912,1316,2793,2052,2884,1308,1040,1297,2806
1782219201.9881,8.9541,1,lf,0.0986,0.0986,-0.1000,0,0.3309,0.3314,-0.1024,-0.0002,0.0007,-0.0059,CLIMB,5,1,0,15.0,0.000,4.900,1,-1,0,-1.0,-15.0,-1.0,0.0,0.0,0.0,2037,2826,1212,1912,1298,2788,2050,2901,1310,1039,1278,2804,2036,2811,1211,1912,1316,2793,2052,2884,1308,1040,1297,2806
1782219202.0081,8.9741,1,lf,0.0986,0.0986,-0.1000,0,0.3309,0.3314,-0.1024,-0.0003,0.0008,-0.0059,CLIMB,5,1,0,15.0,0.000,4.920,1,-1,0,-1.0,-15.0,-1.0,0.0,0.0,0.0,2037,2826,1212,1912,1298,2788,2050,2901,1310,1039,1278,2804,2036,2811,1211,1913,1316,2793,2052,2884,1308,1040,1297,2806
1782219202.0281,8.9941,1,lf,0.0986,0.0986,-0.1000,0,0.3309,0.3314,-0.1024,-0.0003,0.0008,-0.0059,CLIMB,5,1,0,15.0,0.000,4.940,1,-1,0,-2.0,-15.0,-1.0,0.0,0.0,0.0,2037,2826,1212,1912,1298,2788,2050,2901,1310,1039,1278,2804,2036,2811,1211,1913,1316,2793,2052,2884,1308,1040,1297,2806
1782219202.0480,9.0140,1,lf,0.0986,0.0986,-0.1000,0,0.3309,0.3314,-0.1024,-0.0003,0.0009,-0.0060,CLIMB,5,1,0,15.0,0.000,4.960,1,-1,0,-2.0,-15.0,-1.0,0.0,0.0,0.0,2037,2826,1212,1912,1298,2788,2050,2901,1310,1039,1278,2804,2036,2811,1211,1913,1316,2793,2052,2884,1308,1040,1297,2806
1782219202.0681,9.0341,1,lf,0.0986,0.0986,-0.1000,0,0.3309,0.3314,-0.1024,-0.0003,0.0009,-0.0060,CLIMB,5,1,0,15.0,0.000,4.980,1,-1,0,-1.0,-15.0,-1.0,0.0,0.0,0.0,2037,2826,1212,1912,1298,2788,2050,2901,1310,1039,1278,2804,2036,2811,1211,1912,1316,2793,2052,2884,1308,1040,1297,2806
1782219202.0882,9.0542,1,lf,0.0986,0.0986,-0.1000,0,0.3309,0.3314,-0.1024,-0.0003,0.0009,-0.0060,CLIMB,5,1,0,15.0,0.000,5.000,1,-1,0,-1.0,-15.0,-1.0,0.0,0.0,0.0,2037,2826,1212,1912,1298,2788,2050,2901,1310,1039,1278,2804,2036,2811,1211,1912,1316,2793,2052,2884,1308,1040,1297,2806
1782219202.1081,9.0741,1,lf,0.0986,0.0986,-0.1000,0,0.3309,0.3314,-0.1024,-0.0003,0.0009,-0.0059,CLIMB,5,1,0,15.0,0.000,5.020,1,-1,0,-2.0,-15.0,-1.0,0.0,0.0,0.0,2037,2826,1212,1912,1298,2788,2050,2901,1310,1039,1278,2804,2035,2811,1211,1912,1316,2793,2052,2884,1308,1040,1297,2806
1782219202.1281,9.0941,1,lf,0.0986,0.0986,-0.1000,0,0.3307,0.3317,-0.1024,-0.0002,0.0007,-0.0059,CLIMB,5,1,0,15.0,0.000,5.040,1,-1,0,-1.0,-15.0,-1.0,0.0,0.0,0.0,2037,2826,1212,1912,1298,2788,2050,2901,1310,1039,1278,2804,2035,2811,1211,1912,1316,2793,2052,2884,1308,1040,1297,2806
1782219202.1482,9.1142,1,lf,0.0986,0.0986,-0.1000,0,0.3307,0.3317,-0.1024,-0.0002,0.0006,-0.0059,CLIMB,5,1,0,15.0,0.000,5.060,1,-1,0,-1.0,-15.0,-1.0,0.0,0.0,0.0,2037,2826,1212,1912,1298,2788,2050,2901,1310,1039,1278,2804,2035,2811,1211,1912,1316,2793,2052,2884,1308,1040,1297,2806
1782219202.1683,9.1342,1,lf,0.0986,0.0986,-0.1000,0,0.3307,0.3317,-0.1024,-0.0002,0.0006,-0.0060,CLIMB,5,1,0,15.0,0.000,5.080,1,-1,0,-1.0,-15.0,-1.0,0.0,0.0,0.0,2037,2826,1212,1912,1298,2788,2050,2901,1310,1039,1278,2804,2036,2811,1211,1912,1316,2793,2052,2884,1308,1040,1297,2806
1782219202.1882,9.1542,1,lf,0.0986,0.0986,-0.1000,0,0.3309,0.3314,-0.1024,-0.0003,0.0007,-0.0059,CLIMB,5,1,0,15.0,0.000,5.100,1,-1,0,-2.0,-15.0,-1.0,0.0,0.0,0.0,2037,2826,1212,1912,1298,2788,2050,2901,1310,1039,1278,2804,2036,2811,1211,1912,1316,2793,2052,2884,1308,1040,1297,2806
1782219202.2081,9.1741,1,lf,0.0986,0.0986,-0.1000,0,0.3309,0.3314,-0.1024,-0.0003,0.0008,-0.0060,CLIMB,5,1,0,15.0,0.000,5.120,1,-1,0,-2.0,-15.0,-1.0,0.0,0.0,0.0,2037,2826,1212,1912,1298,2788,2050,2901,1310,1039,1278,2804,2035,2811,1211,1912,1316,2793,2052,2884,1308,1040,1297,2806
1782219202.2281,9.1941,1,lf,0.0986,0.0986,-0.1000,0,0.3307,0.3317,-0.1024,-0.0002,0.0007,-0.0060,CLIMB,5,1,0,15.0,0.000,5.140,1,-1,0,-1.0,-15.0,-1.0,0.0,0.0,0.0,2037,2826,1212,1912,1298,2788,2050,2901,1310,1039,1278,2804,2035,2811,1211,1912,1316,2793,2052,2884,1308,1040,1297,2806
1782219202.2482,9.2142,1,lf,0.0986,0.0986,-0.1000,0,0.3307,0.3317,-0.1024,-0.0002,0.0006,-0.0060,CLIMB,5,1,0,15.0,0.000,5.160,1,-1,0,-1.0,-15.0,-1.0,0.0,0.0,0.0,2037,2826,1212,1912,1298,2788,2050,2901,1310,1039,1278,2804,2035,2811,1211,1912,1316,2793,2052,2884,1308,1040,1297,2806
1782219202.2683,9.2342,1,lf,0.0986,0.0986,-0.1000,0,0.3307,0.3317,-0.1024,-0.0002,0.0006,-0.0060,CLIMB,5,1,0,15.0,0.000,5.180,1,-1,0,-2.0,-15.0,-1.0,0.0,0.0,0.0,2037,2826,1212,1912,1298,2788,2050,2901,1310,1039,1278,2804,2035,2811,1211,1912,1316,2793,2052,2884,1308,1040,1297,2806
1782219202.2881,9.2541,1,lf,0.0986,0.0986,-0.1000,0,0.3307,0.3317,-0.1024,-0.0002,0.0006,-0.0059,CLIMB,5,1,0,15.0,0.000,5.200,1,-1,0,-1.0,-15.0,-1.0,0.0,0.0,0.0,2037,2826,1212,1912,1298,2788,2050,2901,1310,1039,1278,2804,2035,2811,1211,1912,1316,2793,2052,2884,1308,1040,1297,2806
1782219202.3082,9.2742,1,lf,0.0986,0.0986,-0.1000,0,0.3307,0.3317,-0.1024,-0.0002,0.0006,-0.0059,CLIMB,5,1,0,15.0,0.000,5.220,1,-1,0,-1.0,-15.0,-1.0,0.0,0.0,0.0,2037,2826,1212,1912,1298,2788,2050,2901,1310,1039,1278,2804,2036,2811,1211,1912,1316,2793,2053,2884,1308,1040,1297,2806
1782219202.3282,9.2942,1,lf,0.0986,0.0986,-0.1000,0,0.3309,0.3314,-0.1024,-0.0002,0.0007,-0.0059,CLIMB,5,1,0,15.0,0.000,5.240,1,-1,0,-1.0,-15.0,-1.0,0.0,0.0,0.0,2037,2826,1212,1912,1298,2788,2050,2901,1310,1039,1278,2804,2036,2811,1211,1912,1316,2793,2053,2884,1308,1040,1297,2806
1782219202.3483,9.3143,1,lf,0.0986,0.0986,-0.1000,0,0.3309,0.3314,-0.1024,-0.0003,0.0008,-0.0059,CLIMB,5,1,0,15.0,0.000,5.260,1,-1,0,-1.0,-15.0,-1.0,0.0,0.0,0.0,2037,2826,1212,1912,1298,2788,2050,2901,1310,1039,1278,2804,2036,2811,1211,1912,1316,2793,2053,2884,1308,1040,1297,2806
1782219202.3681,9.3341,1,lf,0.0986,0.0986,-0.1000,0,0.3309,0.3314,-0.1024,-0.0003,0.0008,-0.0059,CLIMB,5,1,0,15.0,0.000,5.280,1,-1,0,-1.0,-15.0,-1.0,0.0,0.0,0.0,2037,2826,1212,1912,1298,2788,2050,2901,1310,1039,1278,2804,2036,2811,1211,1912,1316,2793,2052,2884,1308,1040,1297,2806
1782219202.3882,9.3542,1,lf,0.0986,0.0986,-0.1000,0,0.3309,0.3314,-0.1024,-0.0003,0.0008,-0.0059,CLIMB,5,1,0,15.0,0.000,5.300,1,-1,0,-2.0,-15.0,-1.0,0.0,0.0,0.0,2037,2826,1212,1912,1298,2788,2050,2901,1310,1039,1278,2804,2036,2811,1211,1912,1316,2793,2052,2884,1308,1040,1297,2806
1782219202.4083,9.3742,1,lf,0.0986,0.0986,-0.1000,0,0.3309,0.3314,-0.1024,-0.0003,0.0008,-0.0059,CLIMB,5,1,0,15.0,0.000,5.320,1,-1,0,-2.0,-15.0,-1.0,0.0,0.0,0.0,2037,2826,1212,1912,1298,2788,2050,2901,1310,1039,1278,2804,2036,2811,1211,1912,1316,2793,2052,2884,1308,1040,1297,2806
1782219202.4282,9.3942,1,lf,0.0986,0.0986,-0.1000,0,0.3309,0.3314,-0.1024,-0.0003,0.0009,-0.0059,CLIMB,5,1,0,15.0,0.000,5.340,1,-1,0,-1.0,-15.0,-1.0,0.0,0.0,0.0,2037,2826,1212,1912,1298,2788,2050,2901,1310,1039,1278,2804,2036,2811,1211,1912,1316,2793,2052,2884,1308,1040,1297,2806
1782219202.4482,9.4142,1,lf,0.0986,0.0986,-0.1000,0,0.3309,0.3314,-0.1024,-0.0003,0.0009,-0.0059,CLIMB,5,1,0,15.0,0.000,5.360,1,-1,0,-1.0,-15.0,-1.0,0.0,0.0,0.0,2037,2826,1212,1912,1298,2788,2050,2901,1310,1039,1278,2804,2036,2811,1211,1912,1316,2793,2052,2884,1308,1040,1297,2806
1782219202.4681,9.4341,1,lf,0.0986,0.0986,-0.1000,0,0.3309,0.3314,-0.1024,-0.0003,0.0009,-0.0059,CLIMB,5,1,0,15.0,0.000,5.380,1,-1,0,-1.0,-15.0,-1.0,0.0,0.0,0.0,2037,2826,1212,1912,1298,2788,2050,2901,1310,1039,1278,2804,2036,2811,1211,1912,1316,2793,2052,2884,1308,1040,1297,2806
1782219202.4882,9.4542,1,lf,0.0986,0.0986,-0.1000,0,0.3309,0.3314,-0.1024,-0.0003,0.0009,-0.0059,CLIMB,5,1,0,15.0,0.000,5.400,1,-1,0,-1.0,-15.0,-1.0,0.0,0.0,0.0,2037,2826,1212,1912,1298,2788,2050,2901,1310,1039,1278,2804,2036,2811,1211,1912,1316,2793,2052,2884,1308,1040,1297,2806
1782219202.5082,9.4742,1,lf,0.0986,0.0986,-0.1000,0,0.3309,0.3314,-0.1024,-0.0003,0.0009,-0.0059,CLIMB,5,1,0,15.0,0.000,5.420,1,-1,0,-2.0,-15.0,-1.0,0.0,0.0,0.0,2037,2826,1212,1912,1298,2788,2050,2901,1310,1039,1278,2804,2035,2811,1211,1912,1316,2793,2052,2884,1308,1040,1297,2806
1782219202.5281,9.4941,1,lf,0.0986,0.0986,-0.1000,0,0.3307,0.3317,-0.1024,-0.0002,0.0007,-0.0059,CLIMB,5,1,0,15.0,0.000,5.440,1,-1,0,-2.0,-15.0,-1.0,0.0,0.0,0.0,2037,2826,1212,1912,1298,2788,2050,2901,1310,1039,1278,2804,2035,2811,1211,1912,1316,2793,2052,2884,1308,1040,1297,2806
1782219202.5483,9.5142,1,lf,0.0986,0.0986,-0.1000,0,0.3307,0.3317,-0.1024,-0.0002,0.0006,-0.0059,CLIMB,5,1,0,15.0,0.000,5.460,1,-1,0,-1.0,-15.0,-1.0,0.0,0.0,0.0,2037,2826,1212,1912,1298,2788,2050,2901,1310,1039,1278,2804,2035,2811,1211,1912,1316,2793,2052,2884,1308,1040,1297,2806
1782219202.5682,9.5342,1,lf,0.0986,0.0986,-0.1000,0,0.3307,0.3317,-0.1024,-0.0002,0.0006,-0.0059,CLIMB,5,1,0,15.0,0.000,5.480,1,-1,0,-1.0,-15.0,-1.0,0.0,0.0,0.0,2037,2826,1212,1912,1298,2788,2050,2901,1310,1039,1278,2804,2036,2811,1211,1912,1316,2793,2052,2884,1308,1040,1297,2806
1782219202.5881,9.5541,1,lf,0.0986,0.0986,-0.1000,0,0.3309,0.3314,-0.1024,-0.0002,0.0007,-0.0059,CLIMB,5,1,0,15.0,0.000,5.500,1,-1,0,-2.0,-15.0,-1.0,0.0,0.0,0.0,2037,2826,1212,1912,1298,2788,2050,2901,1310,1039,1278,2804,2036,2811,1211,1912,1316,2793,2052,2884,1308,1040,1297,2806
1782219202.6082,9.5742,1,lf,0.0986,0.0986,-0.1000,0,0.3309,0.3314,-0.1024,-0.0003,0.0008,-0.0060,CLIMB,5,1,0,15.0,0.000,5.520,1,-1,0,-1.0,-15.0,-1.0,0.0,0.0,0.0,2037,2826,1212,1912,1298,2788,2050,2901,1310,1039,1278,2804,2036,2811,1211,1912,1316,2793,2052,2884,1308,1040,1297,2806
1782219202.6282,9.5942,1,lf,0.0986,0.0986,-0.1000,0,0.3309,0.3314,-0.1024,-0.0003,0.0008,-0.0060,CLIMB,5,1,0,15.0,0.000,5.540,1,-1,0,-1.0,-15.0,-1.0,0.0,0.0,0.0,2037,2826,1212,1912,1298,2788,2050,2901,1310,1039,1278,2804,2036,2811,1211,1912,1316,2793,2052,2884,1308,1040,1297,2806
1782219202.6482,9.6142,1,lf,0.0986,0.0986,-0.1000,0,0.3309,0.3314,-0.1024,-0.0003,0.0009,-0.0060,CLIMB,5,1,0,15.0,0.000,5.560,1,-1,0,-1.0,-15.0,-1.0,0.0,0.0,0.0,2037,2826,1212,1912,1298,2788,2050,2901,1310,1039,1278,2804,2036,2811,1211,1912,1316,2793,2052,2884,1308,1040,1297,2806
1782219202.6683,9.6342,1,lf,0.0986,0.0986,-0.1000,0,0.3309,0.3314,-0.1024,-0.0003,0.0009,-0.0060,CLIMB,5,1,0,15.0,0.000,5.580,1,-1,0,-1.0,-15.0,-1.0,0.0,0.0,0.0,2037,2826,1212,1912,1298,2788,2050,2901,1310,1039,1278,2804,2036,2811,1211,1912,1316,2793,2052,2884,1308,1040,1297,2806
1782219202.6882,9.6541,1,lf,0.0986,0.0986,-0.1000,0,0.3309,0.3314,-0.1024,-0.0003,0.0009,-0.0060,CLIMB,5,1,0,15.0,0.000,5.600,1,-1,0,-1.0,-15.0,-1.0,0.0,0.0,0.0,2037,2826,1212,1912,1298,2788,2050,2901,1310,1039,1278,2804,2036,2811,1211,1912,1316,2793,2052,2884,1308,1040,1297,2806
1782219202.7082,9.6742,1,lf,0.0986,0.0986,-0.1000,0,0.3309,0.3314,-0.1024,-0.0003,0.0009,-0.0060,CLIMB,5,1,0,15.0,0.000,5.620,1,-1,0,-2.0,-15.0,-1.0,0.0,0.0,0.0,2037,2826,1212,1912,1298,2788,2050,2901,1310,1039,1278,2804,2035,2811,1211,1912,1316,2793,2052,2884,1308,1040,1297,2806
1782219202.7282,9.6942,1,lf,0.0986,0.0986,-0.1000,0,0.3307,0.3317,-0.1024,-0.0002,0.0007,-0.0060,CLIMB,5,1,0,15.0,0.000,5.640,1,-1,0,-2.0,-15.0,-1.0,0.0,0.0,0.0,2037,2826,1212,1912,1298,2788,2050,2901,1310,1039,1278,2804,2035,2811,1211,1912,1316,2793,2052,2884,1308,1040,1297,2806
1782219202.7482,9.7142,1,lf,0.0986,0.0986,-0.1000,0,0.3307,0.3317,-0.1024,-0.0002,0.0006,-0.0060,CLIMB,5,1,0,15.0,0.000,5.660,1,-1,0,-2.0,-15.0,-1.0,0.0,0.0,0.0,2037,2826,1212,1912,1298,2788,2050,2901,1310,1039,1278,2804,2035,2811,1211,1912,1316,2793,2052,2884,1308,1040,1297,2806
1782219202.7681,9.7341,1,lf,0.0986,0.0986,-0.1000,0,0.3307,0.3317,-0.1024,-0.0002,0.0006,-0.0060,CLIMB,5,1,0,15.0,0.000,5.680,1,-1,0,-2.0,-15.0,-1.0,0.0,0.0,0.0,2037,2826,1212,1912,1298,2788,2050,2901,1310,1039,1278,2804,2035,2811,1211,1912,1316,2793,2052,2884,1308,1040,1297,2806
1782219202.7881,9.7541,1,lf,0.0986,0.0986,-0.1000,0,0.3307,0.3317,-0.1024,-0.0001,0.0006,-0.0060,CLIMB,5,1,0,15.0,0.000,5.700,1,-1,0,-2.0,-15.0,-1.0,0.0,0.0,0.0,2037,2826,1212,1912,1298,2788,2050,2901,1310,1039,1278,2804,2035,2811,1211,1912,1316,2793,2052,2884,1308,1040,1297,2806
1782219202.8082,9.7742,1,lf,0.0986,0.0986,-0.1000,0,0.3307,0.3317,-0.1024,-0.0001,0.0006,-0.0059,CLIMB,5,1,0,15.0,0.000,5.720,1,-1,0,-2.0,-15.0,-1.0,0.0,0.0,0.0,2037,2826,1212,1912,1298,2788,2050,2901,1310,1039,1278,2804,2035,2811,1211,1912,1316,2794,2052,2884,1308,1040,1297,2806
1782219202.8282,9.7942,1,lf,0.0986,0.0986,-0.1000,0,0.3307,0.3317,-0.1024,-0.0001,0.0006,-0.0059,CLIMB,5,1,0,15.0,0.000,5.740,1,-1,0,-1.0,-15.0,-1.0,0.0,0.0,0.0,2037,2826,1212,1912,1298,2788,2050,2901,1310,1039,1278,2804,2035,2811,1211,1912,1316,2794,2052,2884,1308,1040,1297,2806
