DreamSnakecc/climbing_ws/test_logs/dxl_autotune_20260623_205243/leg_endpoint/trial_02_id_1_p_110/single_swing_lf_20260623_205335.csv
wall_time,elapsed_s,cycle,leg,cmd_x,cmd_y,cmd_z,cmd_support,ujc_x,ujc_y,ujc_z,body_x,body_y,body_z,mission_state,servo_phase_id,servo_gate_enabled,servo_ready,servo_max_abs_error_tick,servo_within_tolerance_s,servo_wait_s,servo_timed_out,servo_last_pass_phase_id,servo_last_pass_sequence,servo_error_joint1_tick,servo_error_joint2_tick,servo_error_joint3_tick,servo_last_pass_error_joint1_tick,servo_last_pass_error_joint2_tick,servo_last_pass_error_joint3_tick,ticks_cmd_11,ticks_cmd_1,ticks_cmd_2,ticks_cmd_12,ticks_cmd_3,ticks_cmd_4,ticks_cmd_13,ticks_cmd_5,ticks_cmd_6,ticks_cmd_14,ticks_cmd_7,ticks_cmd_8,ticks_act_11,ticks_act_1,ticks_act_2,ticks_act_12,ticks_act_3,ticks_act_4,ticks_act_13,ticks_act_5,ticks_act_6,ticks_act_14,ticks_act_7,ticks_act_8
1782219217.8439,2.7624,1,lf,0.0986,0.0986,-0.1100,0,0.3318,0.3322,-0.1103,-0.0012,0.0001,0.0020,CLIMB,4,1,0,0.0,0.000,0.000,0,-1,0,0.0,0.0,0.0,0.0,0.0,0.0,2037,2781,1318,1912,1298,2788,2050,2901,1310,1039,1278,2804,2036,2776,1312,1912,1316,2793,2052,2884,1308,1040,1297,2806
1782219217.8492,2.7677,1,lf,0.0986,0.0986,-0.1100,0,0.3318,0.3322,-0.1103,-0.0012,0.0001,0.0020,CLIMB,4,1,0,0.0,0.000,0.000,0,-1,0,0.0,0.0,0.0,0.0,0.0,0.0,2037,2781,1318,1912,1298,2788,2050,2901,1310,1039,1278,2804,2035,2776,1313,1912,1316,2794,2052,2884,1308,1040,1297,2806
1782219217.8688,2.7873,1,lf,0.0986,0.0986,-0.1100,0,0.3316,0.3325,-0.1103,-0.0012,0.0000,0.0020,CLIMB,4,1,0,0.0,0.000,0.000,0,-1,0,0.0,0.0,0.0,0.0,0.0,0.0,2037,2781,1318,1912,1298,2788,2050,2901,1310,1039,1278,2804,2035,2776,1313,1912,1316,2794,2052,2884,1308,1040,1297,2806
1782219217.8889,2.8074,1,lf,0.0986,0.0986,-0.1100,0,0.3316,0.3325,-0.1103,-0.0012,0.0000,0.0021,CLIMB,4,1,0,0.0,0.000,0.000,0,-1,0,0.0,0.0,0.0,0.0,0.0,0.0,2037,2781,1318,1912,1298,2788,2050,2901,1310,1039,1278,2804,2035,2776,1313,1912,1316,2794,2052,2884,1308,1040,1297,2806
1782219217.9089,2.8274,1,lf,0.0986,0.0986,-0.1100,0,0.3316,0.3325,-0.1103,-0.0012,0.0001,0.0019,CLIMB,4,1,0,0.0,0.000,0.000,0,-1,0,0.0,0.0,0.0,0.0,0.0,0.0,2037,2781,1318,1912,1298,2788,2050,2901,1310,1039,1278,2804,2036,2776,1312,1912,1316,2793,2052,2884,1308,1040,1297,2806
1782219217.9289,2.8474,1,lf,0.0986,0.0986,-0.1100,0,0.3318,0.3322,-0.1103,-0.0013,0.0005,0.0019,CLIMB,4,1,0,0.0,0.000,0.000,0,-1,0,0.0,0.0,0.0,0.0,0.0,0.0,2037,2781,1318,1912,1298,2788,2050,2901,1310,1039,1278,2804,2036,2776,1312,1912,1316,2793,2052,2884,1308,1040,1297,2806
1782219217.9489,2.8674,1,lf,0.0986,0.0986,-0.1100,0,0.3318,0.3322,-0.1103,-0.0014,0.0005,0.0019,CLIMB,4,1,0,0.0,0.000,0.000,0,-1,0,0.0,0.0,0.0,0.0,0.0,0.0,2037,2781,1318,1912,1298,2788,2050,2901,1310,1039,1278,2804,2035,2776,1312,1912,1316,2793,2052,2884,1308,1040,1297,2806
1782219217.9689,2.8874,1,lf,0.0986,0.0986,-0.1100,0,0.3315,0.3325,-0.1103,-0.0012,0.0003,0.0019,CLIMB,4,1,0,0.0,0.000,0.000,0,-1,0,0.0,0.0,0.0,0.0,0.0,0.0,2037,2781,1318,1912,1298,2788,2050,2901,1310,1039,1278,2804,2035,2776,1312,1912,1316,2793,2052,2884,1308,1040,1297,2806
1782219217.9888,2.9073,1,lf,0.0986,0.0986,-0.1100,0,0.3315,0.3325,-0.1103,-0.0012,0.0002,0.0019,CLIMB,4,1,0,0.0,0.000,0.000,0,-1,0,0.0,0.0,0.0,0.0,0.0,0.0,2037,2781,1318,1912,1298,2788,2050,2901,1310,1039,1278,2804,2035,2776,1312,1912,1316,2793,2052,2884,1308,1040,1297,2806
1782219218.0088,2.9273,1,lf,0.0986,0.0986,-0.1100,0,0.3315,0.3325,-0.1103,-0.0012,0.0002,0.0019,CLIMB,4,1,0,0.0,0.000,0.000,0,-1,0,0.0,0.0,0.0,0.0,0.0,0.0,2037,2781,1318,1912,1298,2788,2050,2901,1310,1039,1278,2804,2036,2776,1313,1912,1316,2793,2052,2884,1308,1040,1297,2806
1782219218.0289,2.9473,1,lf,0.0986,0.0986,-0.1100,0,0.3318,0.3323,-0.1103,-0.0013,0.0003,0.0019,CLIMB,4,1,0,0.0,0.000,0.000,0,-1,0,0.0,0.0,0.0,0.0,0.0,0.0,2037,2781,1318,1912,1298,2788,2050,2901,1310,1039,1278,2804,2036,2776,1313,1912,1316,2793,2052,2884,1308,1040,1297,2806
1782219218.0488,2.9673,1,lf,0.0986,0.0986,-0.1100,0,0.3318,0.3323,-0.1103,-0.0013,0.0004,0.0019,CLIMB,4,1,0,0.0,0.000,0.000,0,-1,0,0.0,0.0,0.0,0.0,0.0,0.0,2037,2781,1318,1912,1298,2788,2050,2901,1310,1039,1278,2804,2036,2776,1312,1912,1316,2793,2052,2884,1308,1040,1297,2806
1782219218.0689,2.9874,1,lf,0.0986,0.0986,-0.1100,0,0.3318,0.3322,-0.1103,-0.0013,0.0004,0.0019,CLIMB,4,1,0,0.0,0.000,0.000,0,-1,0,0.0,0.0,0.0,0.0,0.0,0.0,2037,2781,1318,1912,1298,2788,2050,2901,1310,1039,1278,2804,2036,2776,1312,1912,1316,2793,2052,2884,1308,1040,1297,2806
1782219218.0888,3.0073,1,lf,0.0986,0.0986,-0.1100,0,0.3318,0.3322,-0.1103,-0.0013,0.0005,0.0019,CLIMB,4,1,0,0.0,0.000,0.000,0,-1,0,0.0,0.0,0.0,0.0,0.0,0.0,2037,2781,1318,1912,1298,2788,2050,2901,1310,1039,1278,2804,2036,2776,1312,1912,1316,2793,2052,2884,1308,1040,1297,2806
1782219218.1089,3.0273,1,lf,0.0986,0.0986,-0.1100,0,0.3318,0.3322,-0.1103,-0.0014,0.0005,0.0019,CLIMB,4,1,0,0.0,0.000,0.000,0,-1,0,0.0,0.0,0.0,0.0,0.0,0.0,2037,2781,1318,1912,1298,2788,2050,2901,1310,1039,1278,2804,2036,2776,1312,1912,1316,2793,2052,2884,1308,1040,1297,2806
1782219218.1288,3.0473,1,lf,0.0986,0.0986,-0.1100,0,0.3318,0.3322,-0.1103,-0.0013,0.0005,0.0019,CLIMB,4,1,0,0.0,0.000,0.000,0,-1,0,0.0,0.0,0.0,0.0,0.0,0.0,2037,2781,1318,1912,1298,2788,2050,2901,1310,1039,1278,2804,2036,2776,1312,1912,1316,2793,2052,2884,1308,1040,1297,2806
1782219218.1488,3.0673,1,lf,0.0986,0.0986,-0.1100,0,0.3318,0.3322,-0.1103,-0.0013,0.0005,0.0019,CLIMB,4,1,0,0.0,0.000,0.000,0,-1,0,0.0,0.0,0.0,0.0,0.0,0.0,2037,2781,1318,1912,1298,2788,2050,2901,1310,1039,1278,2804,2035,2776,1312,1912,1316,2794,2052,2884,1308,1040,1297,2806
1782219218.1689,3.0874,1,lf,0.0986,0.0986,-0.1100,0,0.3315,0.3325,-0.1103,-0.0012,0.0003,0.0019,CLIMB,4,1,0,0.0,0.000,0.000,0,-1,0,0.0,0.0,0.0,0.0,0.0,0.0,2037,2781,1318,1912,1298,2788,2050,2901,1310,1039,1278,2804,2035,2776,1312,1912,1316,2794,2052,2884,1308,1040,1297,2806
1782219218.1889,3.1073,1,lf,0.0986,0.0986,-0.1100,0,0.3315,0.3325,-0.1103,-0.0012,0.0002,0.0018,CLIMB,4,1,0,0.0,0.000,0.000,0,-1,0,0.0,0.0,0.0,0.0,0.0,0.0,2037,2781,1318,1912,1298,2788,2050,2901,1310,1039,1278,2804,2035,2776,1312,1912,1316,2794,2052,2884,1308,1040,1297,2806
1782219218.2088,3.1273,1,lf,0.0986,0.0986,-0.1100,0,0.3315,0.3325,-0.1103,-0.0012,0.0002,0.0019,CLIMB,4,1,0,0.0,0.000,0.000,0,-1,0,0.0,0.0,0.0,0.0,0.0,0.0,2037,2781,1318,1912,1298,2788,2050,2901,1310,1039,1278,2804,2036,2776,1313,1912,1316,2794,2052,2884,1308,1040,1297,2806
1782219218.2288,3.1472,1,lf,0.0986,0.0986,-0.1100,0,0.3318,0.3323,-0.1103,-0.0013,0.0003,0.0019,CLIMB,4,1,0,0.0,0.000,0.000,0,-1,0,0.0,0.0,0.0,0.0,0.0,0.0,2037,2781,1318,1912,1298,2788,2050,2901,1310,1039,1278,2804,2036,2776,1313,1912,1316,2794,2052,2884,1308,1040,1297,2806
1782219218.2489,3.1674,1,lf,0.0986,0.0986,-0.1100,0,0.3318,0.3323,-0.1103,-0.0013,0.0003,0.0019,CLIMB,4,1,0,0.0,0.000,0.000,0,-1,0,0.0,0.0,0.0,0.0,0.0,0.0,2037,2781,1318,1912,1298,2788,2050,2901,1310,1039,1278,2804,2035,2777,1313,1912,1316,2793,2052,2884,1308,1040,1297,2806
1782219218.2688,3.1873,1,lf,0.0986,0.0986,-0.1100,0,0.3317,0.3327,-0.1101,-0.0013,0.0002,0.0017,CLIMB,4,1,0,0.0,0.000,0.000,0,-1,0,0.0,0.0,0.0,0.0,0.0,0.0,2037,2781,1318,1912,1298,2788,2050,2901,1310,1039,1278,2804,2035,2777,1313,1912,1316,2793,2052,2884,1308,1040,1297,2806
1782219218.2888,3.2073,1,lf,0.0986,0.0986,-0.1100,0,0.3317,0.3327,-0.1101,-0.0013,0.0001,0.0017,CLIMB,4,1,0,0.0,0.000,0.000,0,-1,0,0.0,0.0,0.0,0.0,0.0,0.0,2037,2781,1318,1912,1298,2788,2050,2901,1310,1039,1278,2804,2035,2777,1313,1912,1316,2793,2052,2884,1308,1040,1297,2806
1782219218.3088,3.2272,1,lf,0.0986,0.0986,-0.1100,0,0.3317,0.3327,-0.1101,-0.0013,0.0001,0.0017,CLIMB,4,1,0,0.0,0.000,0.000,0,-1,0,0.0,0.0,0.0,0.0,0.0,0.0,2037,2781,1318,1912,1298,2788,2050,2901,1310,1039,1278,2804,2036,2776,1312,1912,1316,2793,2052,2884,1308,1040,1297,2806
1782219218.3288,3.2473,1,lf,0.0986,0.0986,-0.1100,0,0.3318,0.3322,-0.1103,-0.0013,0.0002,0.0018,CLIMB,4,1,0,0.0,0.000,0.000,0,-1,0,0.0,0.0,0.0,0.0,0.0,0.0,2037,2781,1318,1912,1298,2788,2050,2901,1310,1039,1278,2804,2036,2776,1312,1912,1316,2793,2052,2884,1308,1040,1297,2806
1782219218.3488,3.2673,1,lf,0.0986,0.0986,-0.1100,0,0.3318,0.3322,-0.1103,-0.0013,0.0003,0.0018,CLIMB,4,1,0,0.0,0.000,0.000,0,-1,0,0.0,0.0,0.0,0.0,0.0,0.0,2037,2781,1318,1912,1298,2788,2050,2901,1310,1039,1278,2804,2036,2776,1313,1912,1316,2793,2052,2884,1308,1040,1297,2806
1782219218.3688,3.2873,1,lf,0.0986,0.0986,-0.1100,0,0.3318,0.3323,-0.1103,-0.0014,0.0004,0.0018,CLIMB,4,1,0,0.0,0.000,0.000,0,-1,0,0.0,0.0,0.0,0.0,0.0,0.0,2037,2781,1318,1912,1298,2788,2050,2901,1310,1039,1278,2804,2036,2776,1313,1912,1316,2793,2052,2884,1308,1040,1297,2806
1782219218.3889,3.3074,1,lf,0.0986,0.0986,-0.1100,0,0.3318,0.3323,-0.1103,-0.0014,0.0004,0.0019,CLIMB,4,1,0,0.0,0.000,0.000,0,-1,0,0.0,0.0,0.0,0.0,0.0,0.0,2037,2781,1318,1912,1298,2788,2050,2901,1310,1039,1278,2804,2036,2776,1313,1912,1316,2793,2052,2884,1308,1040,1297,2806
1782219218.4088,3.3273,1,lf,0.0986,0.0986,-0.1100,0,0.3318,0.3323,-0.1103,-0.0014,0.0004,0.0019,CLIMB,4,1,0,0.0,0.000,0.000,0,-1,0,0.0,0.0,0.0,0.0,0.0,0.0,2037,2781,1318,1912,1298,2788,2050,2901,1310,1039,1278,2804,2036,2776,1313,1912,1316,2793,2052,2884,1308,1040,1297,2806
1782219218.4288,3.3473,1,lf,0.0986,0.0986,-0.1100,0,0.3318,0.3323,-0.1103,-0.0014,0.0004,0.0019,CLIMB,4,1,0,0.0,0.000,0.000,0,-1,0,0.0,0.0,0.0,0.0,0.0,0.0,2037,2781,1318,1912,1298,2788,2050,2901,1310,1039,1278,2804,2036,2776,1313,1912,1316,2793,2052,2884,1308,1040,1297,2806
1782219218.4489,3.3673,1,lf,0.0986,0.0986,-0.1100,0,0.3318,0.3323,-0.1103,-0.0014,0.0004,0.0019,CLIMB,4,1,0,0.0,0.000,0.000,0,-1,0,0.0,0.0,0.0,0.0,0.0,0.0,2037,2781,1318,1912,1298,2788,2050,2901,1310,1039,1278,2804,2035,2776,1313,1912,1316,2793,2052,2885,1308,1040,1297,2806
1782219218.4689,3.3874,1,lf,0.0986,0.0986,-0.1100,0,0.3316,0.3325,-0.1103,-0.0013,0.0003,0.0019,CLIMB,4,1,0,0.0,0.000,0.000,0,-1,0,0.0,0.0,0.0,0.0,0.0,0.0,2037,2781,1318,1912,1298,2788,2050,2901,1310,1039,1278,2804,2035,2776,1313,1912,1316,2793,2052,2885,1308,1040,1297,2806
1782219218.4889,3.4074,1,lf,0.0986,0.0986,-0.1100,0,0.3316,0.3325,-0.1103,-0.0012,0.0002,0.0019,CLIMB,4,1,0,0.0,0.000,0.000,0,-1,0,0.0,0.0,0.0,0.0,0.0,0.0,2037,2781,1318,1912,1298,2788,2050,2901,1310,1039,1278,2804,2035,2776,1313,1912,1316,2793,2052,2885,1308,1040,1297,2806
1782219218.5089,3.4274,1,lf,0.0986,0.0986,-0.1100,0,0.3316,0.3325,-0.1103,-0.0012,0.0001,0.0019,CLIMB,4,1,0,0.0,0.000,0.000,0,-1,0,0.0,0.0,0.0,0.0,0.0,0.0,2037,2781,1318,1912,1298,2788,2050,2901,1310,1039,1278,2804,2036,2776,1313,1912,1316,2793,2052,2884,1308,1040,1297,2806
1782219218.5288,3.4473,1,lf,0.0986,0.0986,-0.1100,0,0.3318,0.3323,-0.1103,-0.0013,0.0003,0.0019,CLIMB,4,1,0,0.0,0.000,0.000,0,-1,0,0.0,0.0,0.0,0.0,0.0,0.0,2037,2781,1318,1912,1298,2788,2050,2901,1310,1039,1278,2804,2036,2776,1313,1912,1316,2793,2052,2884,1308,1040,1297,2806
1782219218.5488,3.4673,1,lf,0.0986,0.0986,-0.1100,0,0.3318,0.3323,-0.1103,-0.0013,0.0004,0.0019,CLIMB,4,1,0,0.0,0.000,0.000,0,-1,0,0.0,0.0,0.0,0.0,0.0,0.0,2037,2781,1318,1912,1298,2788,2050,2901,1310,1039,1278,2804,2036,2776,1313,1912,1316,2793,2052,2884,1308,1040,1297,2806
1782219218.5688,3.4873,1,lf,0.0986,0.0986,-0.1100,0,0.3318,0.3323,-0.1103,-0.0014,0.0004,0.0019,CLIMB,4,1,0,0.0,0.000,0.000,0,-1,0,0.0,0.0,0.0,0.0,0.0,0.0,2037,2781,1318,1912,1298,2788,2050,2901,1310,1039,1278,2804,2036,2776,1313,1912,1316,2793,2052,2884,1308,1040,1297,2806
1782219218.5889,3.5074,1,lf,0.0986,0.0986,-0.1100,0,0.3318,0.3323,-0.1103,-0.0014,0.0004,0.0019,CLIMB,4,1,0,0.0,0.000,0.000,0,-1,0,0.0,0.0,0.0,0.0,0.0,0.0,2037,2781,1318,1912,1298,2788,2050,2901,1310,1039,1278,2804,2036,2776,1313,1912,1316,2793,2052,2884,1308,1040,1297,2806
1782219218.6089,3.5274,1,lf,0.0986,0.0986,-0.1100,0,0.3318,0.3323,-0.1103,-0.0014,0.0004,0.0019,CLIMB,4,1,0,0.0,0.000,0.000,0,-1,0,0.0,0.0,0.0,0.0,0.0,0.0,2037,2781,1318,1912,1298,2788,2050,2901,1310,1039,1278,2804,2035,2776,1313,1912,1316,2793,2052,2884,1308,1040,1297,2806
1782219218.6289,3.5474,1,lf,0.0986,0.0986,-0.1100,0,0.3316,0.3325,-0.1103,-0.0013,0.0003,0.0019,CLIMB,4,1,0,0.0,0.000,0.000,0,-1,0,0.0,0.0,0.0,0.0,0.0,0.0,2037,2781,1318,1912,1298,2788,2050,2901,1310,1039,1278,2804,2035,2776,1313,1912,1316,2793,2052,2884,1308,1040,1297,2806
1782219218.6489,3.5674,1,lf,0.0986,0.0986,-0.1100,0,0.3316,0.3325,-0.1103,-0.0013,0.0002,0.0019,CLIMB,4,1,0,0.0,0.000,0.000,0,-1,0,0.0,0.0,0.0,0.0,0.0,0.0,2037,2781,1318,1912,1298,2788,2050,2901,1310,1039,1278,2804,2036,2776,1313,1912,1316,2793,2052,2884,1308,1040,1297,2806
1782219218.6689,3.5874,1,lf,0.0986,0.0986,-0.1100,0,0.3318,0.3323,-0.1103,-0.0013,0.0003,0.0019,CLIMB,4,1,0,0.0,0.000,0.000,0,-1,0,0.0,0.0,0.0,0.0,0.0,0.0,2037,2781,1318,1912,1298,2788,2050,2901,1310,1039,1278,2804,2036,2776,1313,1912,1316,2793,2052,2884,1308,1040,1297,2806
1782219218.6889,3.6074,1,lf,0.0986,0.0986,-0.1100,0,0.3318,0.3323,-0.1103,-0.0014,0.0004,0.0019,CLIMB,4,1,0,0.0,0.000,0.000,0,-1,0,0.0,0.0,0.0,0.0,0.0,0.0,2037,2781,1318,1912,1298,2788,2050,2901,1310,1039,1278,2804,2036,2776,1313,1912,1316,2793,2052,2884,1308,1040,1297,2806
1782219218.7089,3.6273,1,lf,0.0986,0.0986,-0.1100,0,0.3318,0.3323,-0.1103,-0.0014,0.0004,0.0019,CLIMB,4,1,0,0.0,0.000,0.000,0,-1,0,0.0,0.0,0.0,0.0,0.0,0.0,2037,2781,1318,1912,1298,2788,2050,2901,1310,1039,1278,2804,2036,2776,1313,1912,1316,2793,2052,2884,1308,1040,1297,2806
1782219218.7289,3.6473,1,lf,0.0986,0.0986,-0.1100,0,0.3318,0.3323,-0.1103,-0.0014,0.0004,0.0019,CLIMB,4,1,0,0.0,0.000,0.000,0,-1,0,0.0,0.0,0.0,0.0,0.0,0.0,2037,2781,1318,1912,1298,2788,2050,2901,1310,1039,1278,2804,2036,2776,1313,1912,1316,2793,2052,2884,1308,1040,1297,2806
1782219218.7488,3.6673,1,lf,0.0986,0.0986,-0.1100,0,0.3318,0.3323,-0.1103,-0.0014,0.0004,0.0019,CLIMB,4,1,0,0.0,0.000,0.000,0,-1,0,0.0,0.0,0.0,0.0,0.0,0.0,2037,2781,1318,1912,1298,2788,2050,2901,1310,1039,1278,2804,2036,2776,1312,1912,1316,2793,2052,2884,1308,1041,1296,2806
1782219218.7689,3.6874,1,lf,0.0986,0.0986,-0.1100,0,0.3318,0.3322,-0.1103,-0.0014,0.0004,0.0019,CLIMB,4,1,0,0.0,0.000,0.000,0,-1,0,0.0,0.0,0.0,0.0,0.0,0.0,2037,2781,1318,1912,1298,2788,2050,2901,1310,1039,1278,2804,2036,2776,1312,1912,1316,2793,2052,2884,1308,1041,1296,2806
1782219218.7890,3.7075,1,lf,0.0986,0.0986,-0.1100,0,0.3318,0.3322,-0.1103,-0.0014,0.0005,0.0019,CLIMB,4,1,0,0.0,0.000,0.000,0,-1,0,0.0,0.0,0.0,0.0,0.0,0.0,2037,2781,1318,1912,1298,2788,2050,2901,1310,1039,1278,2804,2036,2776,1312,1912,1316,2793,2052,2884,1308,1041,1296,2806
1782219218.8089,3.7274,1,lf,0.0986,0.0986,-0.1100,0,0.3318,0.3322,-0.1103,-0.0013,0.0005,0.0019,CLIMB,4,1,0,0.0,0.000,0.000,0,-1,0,0.0,0.0,0.0,0.0,0.0,0.0,2037,2781,1318,1912,1298,2788,2050,2901,1310,1039,1278,2804,2036,2776,1313,1912,1316,2793,2052,2884,1308,1040,1297,2806
1782219218.8289,3.7474,1,lf,0.0986,0.0986,-0.1100,0,0.3318,0.3323,-0.1103,-0.0014,0.0004,0.0019,CLIMB,4,1,0,0.0,0.000,0.000,0,-1,0,0.0,0.0,0.0,0.0,0.0,0.0,2037,2781,1318,1912,1298,2788,2050,2901,1310,1039,1278,2804,2036,2776,1313,1912,1316,2793,2052,2884,1308,1040,1297,2806
1782219218.8489,3.7673,1,lf,0.0986,0.0986,-0.1100,0,0.3318,0.3323,-0.1103,-0.0014,0.0004,0.0019,CLIMB,4,1,0,0.0,0.000,0.000,0,-1,0,0.0,0.0,0.0,0.0,0.0,0.0,2037,2781,1318,1912,1298,2788,2050,2901,1310,1039,1278,2804,2035,2776,1313,1912,1316,2793,2052,2884,1308,1040,1297,2806
1782219218.8688,3.7873,1,lf,0.0986,0.0986,-0.1100,0,0.3316,0.3325,-0.1103,-0.0013,0.0003,0.0019,CLIMB,4,1,0,0.0,0.000,0.000,0,-1,0,0.0,0.0,0.0,0.0,0.0,0.0,2037,2781,1318,1912,1298,2788,2050,2901,1310,1039,1278,2804,2035,2776,1313,1912,1316,2793,2052,2884,1308,1040,1297,2806
1782219218.8889,3.8073,1,lf,0.0986,0.0986,-0.1100,0,0.3316,0.3325,-0.1103,-0.0012,0.0002,0.0019,CLIMB,5,1,0,0.0,0.000,0.000,0,-1,0,0.0,0.0,0.0,0.0,0.0,0.0,2037,2781,1318,1912,1298,2788,2050,2901,1310,1039,1278,2804,2035,2776,1313,1912,1316,2793,2052,2884,1308,1040,1297,2806
1782219218.9089,3.8274,1,lf,0.0986,0.0986,-0.1100,0,0.3316,0.3325,-0.1103,-0.0012,0.0002,0.0019,CLIMB,5,1,0,0.0,0.000,0.000,0,-1,0,0.0,0.0,0.0,0.0,0.0,0.0,2037,2781,1318,1912,1298,2788,2050,2901,1310,1039,1278,2804,2035,2776,1312,1912,1316,2793,2052,2885,1308,1040,1297,2806
1782219218.9289,3.8474,1,lf,0.0986,0.0986,-0.1097,0,0.3315,0.3325,-0.1103,-0.0012,0.0002,0.0019,CLIMB,5,1,0,0.0,0.000,0.000,0,-1,0,0.0,0.0,0.0,0.0,0.0,0.0,2037,2782,1315,1912,1298,2788,2050,2901,1310,1039,1278,2804,2035,2776,1312,1912,1316,2793,2052,2885,1308,1040,1297,2806
1782219218.9489,3.8674,1,lf,0.0986,0.0986,-0.1091,0,0.3315,0.3325,-0.1103,-0.0012,0.0001,0.0019,CLIMB,5,1,0,0.0,0.000,0.000,0,-1,0,0.0,0.0,0.0,0.0,0.0,0.0,2037,2785,1308,1912,1298,2788,2050,2901,1310,1039,1278,2804,2036,2776,1313,1912,1316,2793,2052,2884,1308,1040,1297,2806
1782219218.9688,3.8873,1,lf,0.0986,0.0986,-0.1081,0,0.3318,0.3323,-0.1103,-0.0013,0.0003,0.0019,CLIMB,5,1,0,0.0,0.000,0.000,0,-1,0,0.0,0.0,0.0,0.0,0.0,0.0,2037,2789,1297,1912,1298,2788,2050,2901,1310,1039,1278,2804,2036,2776,1313,1912,1316,2793,2052,2884,1308,1040,1297,2806
1782219218.9888,3.9073,1,lf,0.0986,0.0986,-0.1068,0,0.3318,0.3323,-0.1103,-0.0013,0.0004,0.0019,CLIMB,5,1,0,0.0,0.000,0.000,0,-1,0,0.0,0.0,0.0,0.0,0.0,0.0,2037,2789,1297,1912,1298,2788,2050,2901,1310,1039,1278,2804,2036,2776,1313,1912,1316,2793,2052,2884,1308,1040,1297,2806
1782219219.0089,3.9274,1,lf,0.0986,0.0986,-0.1054,0,0.3318,0.3323,-0.1103,-0.0014,0.0004,0.0019,CLIMB,5,1,0,0.0,0.000,0.000,0,-1,0,0.0,0.0,0.0,0.0,0.0,0.0,2037,2802,1267,1912,1298,2788,2050,2901,1310,1039,1278,2804,2035,2776,1312,1912,1316,2793,2052,2884,1308,1040,1297,2806
1782219219.0288,3.9473,1,lf,0.0986,0.0986,-0.1039,0,0.3315,0.3325,-0.1103,-0.0013,0.0003,0.0019,CLIMB,5,1,0,0.0,0.000,0.000,0,-1,0,0.0,0.0,0.0,0.0,0.0,0.0,2037,2809,1251,1912,1298,2788,2050,2901,1310,1039,1278,2804,2035,2776,1312,1912,1316,2793,2052,2884,1308,1040,1297,2806
1782219219.0488,3.9673,1,lf,0.0986,0.0986,-0.1025,0,0.3315,0.3325,-0.1103,-0.0012,0.0002,0.0019,CLIMB,5,1,0,0.0,0.000,0.000,0,-1,0,0.0,0.0,0.0,0.0,0.0,0.0,2037,2815,1237,1912,1298,2788,2050,2901,1310,1039,1278,2804,2035,2776,1312,1912,1316,2793,2052,2884,1308,1040,1297,2806
1782219219.0688,3.9873,1,lf,0.0986,0.0986,-0.1014,0,0.3315,0.3325,-0.1103,-0.0012,0.0002,0.0019,CLIMB,5,1,0,0.0,0.000,0.000,0,-1,0,0.0,0.0,0.0,0.0,0.0,0.0,2037,2820,1225,1912,1298,2788,2050,2901,1310,1039,1278,2804,2035,2776,1312,1912,1316,2793,2052,2884,1308,1040,1297,2806
1782219219.0888,4.0073,1,lf,0.0986,0.0986,-0.1006,0,0.3315,0.3325,-0.1103,-0.0012,0.0001,0.0019,CLIMB,5,1,0,0.0,0.000,0.000,0,-1,0,0.0,0.0,0.0,0.0,0.0,0.0,2037,2823,1217,1912,1298,2788,2050,2901,1310,1039,1278,2804,2035,2776,1312,1912,1316,2793,2052,2884,1308,1040,1297,2806
1782219219.1088,4.0273,1,lf,0.0986,0.0986,-0.1001,0,0.3315,0.3325,-0.1103,-0.0012,0.0001,0.0019,CLIMB,5,1,0,0.0,0.000,0.000,0,-1,0,0.0,0.0,0.0,0.0,0.0,0.0,2037,2825,1213,1912,1298,2788,2050,2901,1310,1039,1278,2804,2035,2776,1312,1912,1316,2794,2052,2884,1308,1040,1297,2806
1782219219.1288,4.0473,1,lf,0.0986,0.0986,-0.1000,0,0.3315,0.3325,-0.1103,-0.0011,0.0001,0.0019,CLIMB,5,1,0,0.0,0.000,0.000,0,-1,0,0.0,0.0,0.0,0.0,0.0,0.0,2037,2826,1212,1912,1298,2788,2050,2901,1310,1039,1278,2804,2035,2776,1312,1912,1316,2794,2052,2884,1308,1040,1297,2806
1782219219.1488,4.0673,1,lf,0.0986,0.0986,-0.1000,0,0.3315,0.3325,-0.1103,-0.0011,0.0001,0.0019,CLIMB,5,1,0,94.0,0.000,0.000,0,-1,0,-1.0,-49.0,94.0,0.0,0.0,0.0,2037,2826,1212,1912,1298,2788,2050,2901,1310,1039,1278,2804,2036,2777,1306,1912,1316,2793,2052,2885,1308,1040,1297,2806
1782219219.1689,4.0874,1,lf,0.0986,0.0986,-0.1000,0,0.3316,0.3321,-0.1101,-0.0011,0.0004,0.0017,CLIMB,5,1,0,94.0,0.000,0.020,0,-1,0,-1.0,-49.0,94.0,0.0,0.0,0.0,2037,2826,1212,1912,1298,2788,2050,2901,1310,1039,1278,2804,2036,2777,1306,1912,1316,2793,2052,2885,1308,1040,1297,2806
1782219219.1889,4.1074,1,lf,0.0986,0.0986,-0.1000,0,0.3316,0.3321,-0.1101,-0.0011,0.0005,0.0017,CLIMB,5,1,0,87.0,0.000,0.040,0,-1,0,-2.0,-48.0,87.0,0.0,0.0,0.0,2037,2826,1212,1912,1298,2788,2050,2901,1310,1039,1278,2804,2036,2777,1306,1912,1316,2793,2052,2885,1308,1040,1297,2806
1782219219.2088,4.1273,1,lf,0.0986,0.0986,-0.1000,0,0.3316,0.3321,-0.1101,-0.0011,0.0005,0.0016,CLIMB,5,1,0,74.0,0.000,0.060,0,-1,0,-2.0,-44.0,74.0,0.0,0.0,0.0,2037,2826,1212,1912,1298,2788,2050,2901,1310,1039,1278,2804,2035,2782,1286,1912,1316,2793,2052,2884,1308,1040,1297,2806
1782219219.2287,4.1472,1,lf,0.0986,0.0986,-0.1000,0,0.3310,0.3319,-0.1090,-0.0008,0.0005,0.0010,CLIMB,5,1,0,74.0,0.000,0.080,0,-1,0,-2.0,-44.0,74.0,0.0,0.0,0.0,2037,2826,1212,1912,1298,2788,2050,2901,1310,1039,1278,2804,2035,2782,1286,1912,1316,2793,2052,2884,1308,1040,1297,2806
1782219219.2487,4.1672,1,lf,0.0986,0.0986,-0.1000,0,0.3310,0.3319,-0.1090,-0.0007,0.0006,0.0007,CLIMB,5,1,0,60.0,0.000,0.100,0,-1,0,-2.0,-39.0,60.0,0.0,0.0,0.0,2037,2826,1212,1912,1298,2788,2050,2901,1310,1039,1278,2804,2035,2787,1272,1912,1316,2793,2052,2884,1308,1040,1297,2806
1782219219.2688,4.1873,1,lf,0.0986,0.0986,-0.1000,0,0.3309,0.3319,-0.1079,-0.0005,0.0006,-0.0000,CLIMB,5,1,0,60.0,0.000,0.120,0,-1,0,-2.0,-39.0,60.0,0.0,0.0,0.0,2037,2826,1212,1912,1298,2788,2050,2901,1310,1039,1278,2804,2035,2787,1272,1912,1316,2793,2052,2884,1308,1040,1297,2806
1782219219.2889,4.2073,1,lf,0.0986,0.0986,-0.1000,0,0.3309,0.3319,-0.1079,-0.0005,0.0006,-0.0004,CLIMB,5,1,0,46.0,0.000,0.140,0,-1,0,-2.0,-34.0,46.0,0.0,0.0,0.0,2037,2826,1212,1912,1298,2788,2050,2901,1310,1039,1278,2804,2035,2787,1272,1912,1316,2793,2052,2884,1308,1040,1297,2806
1782219219.3088,4.2273,1,lf,0.0986,0.0986,-0.1000,0,0.3309,0.3319,-0.1079,-0.0004,0.0006,-0.0006,CLIMB,5,1,0,32.0,0.000,0.160,0,-1,0,-2.0,-27.0,32.0,0.0,0.0,0.0,2037,2826,1212,1912,1298,2788,2050,2901,1310,1039,1278,2804,2035,2799,1244,1912,1316,2793,2052,2884,1308,1040,1297,2806
1782219219.3288,4.2472,1,lf,0.0986,0.0986,-0.1000,0,0.3309,0.3319,-0.1052,-0.0004,0.0006,-0.0021,CLIMB,5,1,0,32.0,0.000,0.180,0,-1,0,-2.0,-27.0,32.0,0.0,0.0,0.0,2037,2826,1212,1912,1298,2788,2050,2901,1310,1039,1278,2804,2035,2799,1244,1912,1316,2793,2052,2884,1308,1040,1297,2806
1782219219.3488,4.2673,1,lf,0.0986,0.0986,-0.1000,0,0.3309,0.3319,-0.1052,-0.0004,0.0006,-0.0028,CLIMB,5,1,0,22.0,0.000,0.200,0,-1,0,-1.0,-22.0,22.0,0.0,0.0,0.0,2037,2826,1212,1912,1298,2788,2050,2901,1310,1039,1278,2804,2036,2804,1234,1912,1316,2793,2052,2884,1308,1040,1297,2806
1782219219.3689,4.2874,1,lf,0.0986,0.0986,-0.1000,0,0.3313,0.3317,-0.1041,-0.0006,0.0007,-0.0038,CLIMB,5,1,0,17.0,0.000,0.220,0,-1,0,-1.0,-17.0,13.0,0.0,0.0,0.0,2037,2826,1212,1912,1298,2788,2050,2901,1310,1039,1278,2804,2036,2804,1234,1912,1316,2793,2052,2884,1308,1040,1297,2806
1782219219.3888,4.3073,1,lf,0.0986,0.0986,-0.1000,0,0.3313,0.3317,-0.1041,-0.0007,0.0007,-0.0042,CLIMB,5,1,0,17.0,0.000,0.240,0,-1,0,-1.0,-17.0,13.0,0.0,0.0,0.0,2037,2826,1212,1912,1298,2788,2050,2901,1310,1039,1278,2804,2036,2804,1234,1912,1316,2793,2052,2884,1308,1040,1297,2806
1782219219.4087,4.3272,1,lf,0.0986,0.0986,-0.1000,0,0.3313,0.3317,-0.1041,-0.0007,0.0007,-0.0045,CLIMB,5,1,0,14.0,0.000,0.260,0,-1,0,-2.0,-14.0,5.0,0.0,0.0,0.0,2037,2826,1212,1912,1298,2788,2050,2901,1310,1039,1278,2804,2035,2812,1217,1912,1316,2793,2052,2884,1308,1040,1297,2806
1782219219.4288,4.3473,1,lf,0.0986,0.0986,-0.1000,0,0.3311,0.3321,-0.1023,-0.0007,0.0005,-0.0056,CLIMB,5,1,0,14.0,0.000,0.280,0,-1,0,-2.0,-14.0,5.0,0.0,0.0,0.0,2037,2826,1212,1912,1298,2788,2050,2901,1310,1039,1278,2804,2035,2812,1217,1912,1316,2793,2052,2884,1308,1040,1297,2806
1782219219.4487,4.3672,1,lf,0.0986,0.0986,-0.1000,0,0.3311,0.3321,-0.1023,-0.0007,0.0005,-0.0061,CLIMB,5,1,0,14.0,0.000,0.300,0,-1,0,-2.0,-14.0,1.0,0.0,0.0,0.0,2037,2826,1212,1912,1298,2788,2050,2901,1310,1039,1278,2804,2035,2812,1213,1912,1316,2793,2052,2884,1308,1040,1297,2806
1782219219.4688,4.3873,1,lf,0.0986,0.0986,-0.1000,0,0.3309,0.3319,-0.1022,-0.0006,0.0005,-0.0063,CLIMB,5,1,0,14.0,0.000,0.320,0,-1,0,-1.0,-14.0,0.0,0.0,0.0,0.0,2037,2826,1212,1912,1298,2788,2050,2901,1310,1039,1278,2804,2035,2812,1213,1912,1316,2793,2052,2884,1308,1040,1297,2806
1782219219.4888,4.4072,1,lf,0.0986,0.0986,-0.1000,0,0.3309,0.3319,-0.1022,-0.0005,0.0005,-0.0065,CLIMB,5,1,0,14.0,0.000,0.340,0,-1,0,-1.0,-14.0,0.0,0.0,0.0,0.0,2037,2826,1212,1912,1298,2788,2050,2901,1310,1039,1278,2804,2035,2812,1213,1912,1316,2793,2052,2884,1308,1040,1297,2806
1782219219.5088,4.4272,1,lf,0.0986,0.0986,-0.1000,0,0.3309,0.3319,-0.1022,-0.0005,0.0005,-0.0065,CLIMB,5,1,0,14.0,0.000,0.360,0,-1,0,-1.0,-14.0,0.0,0.0,0.0,0.0,2037,2826,1212,1912,1298,2788,2050,2901,1310,1039,1278,2804,2036,2812,1212,1912,1316,2794,2052,2884,1308,1040,1297,2806
1782219219.5288,4.4473,1,lf,0.0986,0.0986,-0.1000,0,0.3311,0.3316,-0.1022,-0.0005,0.0007,-0.0065,CLIMB,5,1,0,14.0,0.000,0.380,0,-1,0,-2.0,-14.0,-1.0,0.0,0.0,0.0,2037,2826,1212,1912,1298,2788,2050,2901,1310,1039,1278,2804,2036,2812,1212,1912,1316,2794,2052,2884,1308,1040,1297,2806
1782219219.5488,4.4672,1,lf,0.0986,0.0986,-0.1000,0,0.3311,0.3316,-0.1022,-0.0006,0.0008,-0.0065,CLIMB,5,1,0,14.0,0.000,0.400,0,-1,0,-2.0,-14.0,-1.0,0.0,0.0,0.0,2037,2826,1212,1912,1298,2788,2050,2901,1310,1039,1278,2804,2035,2813,1212,1912,1316,2793,2052,2884,1308,1040,1297,2806
1782219219.5688,4.4873,1,lf,0.0986,0.0986,-0.1000,0,0.3310,0.3319,-0.1020,-0.0005,0.0006,-0.0066,CLIMB,5,1,0,13.0,0.000,0.420,0,-1,0,-2.0,-13.0,0.0,0.0,0.0,0.0,2037,2826,1212,1912,1298,2788,2050,2901,1310,1039,1278,2804,2035,2813,1212,1912,1316,2793,2052,2884,1308,1040,1297,2806
1782219219.5888,4.5072,1,lf,0.0986,0.0986,-0.1000,0,0.3310,0.3319,-0.1020,-0.0005,0.0005,-0.0067,CLIMB,5,1,0,13.0,0.000,0.440,0,-1,0,-2.0,-13.0,0.0,0.0,0.0,0.0,2037,2826,1212,1912,1298,2788,2050,2901,1310,1039,1278,2804,2035,2813,1212,1912,1316,2793,2052,2884,1308,1040,1297,2806
1782219219.6087,4.5272,1,lf,0.0986,0.0986,-0.1000,0,0.3310,0.3319,-0.1020,-0.0005,0.0005,-0.0067,CLIMB,5,1,0,13.0,0.000,0.460,0,-1,0,-2.0,-13.0,0.0,0.0,0.0,0.0,2037,2826,1212,1912,1298,2788,2050,2901,1310,1039,1278,2804,2035,2813,1212,1912,1316,2793,2052,2884,1308,1040,1297,2806
1782219219.6288,4.5473,1,lf,0.0986,0.0986,-0.1000,0,0.3310,0.3319,-0.1020,-0.0005,0.0005,-0.0067,CLIMB,5,1,0,14.0,0.000,0.480,0,-1,0,-1.0,-14.0,-1.0,0.0,0.0,0.0,2037,2826,1212,1912,1298,2788,2050,2901,1310,1039,1278,2804,2035,2813,1212,1912,1316,2793,2052,2884,1308,1040,1297,2806
1782219219.6488,4.5672,1,lf,0.0986,0.0986,-0.1000,0,0.3310,0.3319,-0.1020,-0.0005,0.0005,-0.0066,CLIMB,5,1,0,14.0,0.000,0.500,0,-1,0,-1.0,-14.0,-1.0,0.0,0.0,0.0,2037,2826,1212,1912,1298,2788,2050,2901,1310,1039,1278,2804,2035,2812,1211,1912,1316,2793,2052,2884,1308,1040,1297,2806
1782219219.6689,4.5874,1,lf,0.0986,0.0986,-0.1000,0,0.3308,0.3318,-0.1022,-0.0004,0.0005,-0.0065,CLIMB,5,1,0,14.0,0.000,0.520,0,-1,0,-2.0,-14.0,-1.0,0.0,0.0,0.0,2037,2826,1212,1912,1298,2788,2050,2901,1310,1039,1278,2804,2035,2812,1211,1912,1316,2793,2052,2884,1308,1040,1297,2806
1782219219.6888,4.6073,1,lf,0.0986,0.0986,-0.1000,0,0.3308,0.3318,-0.1022,-0.0004,0.0005,-0.0064,CLIMB,5,1,0,14.0,0.000,0.540,0,-1,0,-2.0,-14.0,-1.0,0.0,0.0,0.0,2037,2826,1212,1912,1298,2788,2050,2901,1310,1039,1278,2804,2035,2812,1211,1912,1316,2793,2052,2884,1308,1040,1297,2806
1782219219.7087,4.6272,1,lf,0.0986,0.0986,-0.1000,0,0.3308,0.3318,-0.1022,-0.0004,0.0006,-0.0064,CLIMB,5,1,0,14.0,0.000,0.560,0,-1,0,-2.0,-14.0,-1.0,0.0,0.0,0.0,2037,2826,1212,1912,1298,2788,2050,2901,1310,1039,1278,2804,2035,2812,1211,1912,1316,2793,2052,2884,1308,1040,1297,2806
1782219219.7288,4.6473,1,lf,0.0986,0.0986,-0.1000,0,0.3308,0.3318,-0.1022,-0.0003,0.0006,-0.0064,CLIMB,5,1,0,14.0,0.000,0.580,0,-1,0,-2.0,-14.0,-1.0,0.0,0.0,0.0,2037,2826,1212,1912,1298,2788,2050,2901,1310,1039,1278,2804,2035,2812,1211,1912,1316,2793,2052,2884,1308,1040,1297,2806
1782219219.7488,4.6672,1,lf,0.0986,0.0986,-0.1000,0,0.3308,0.3318,-0.1022,-0.0003,0.0006,-0.0063,CLIMB,5,1,0,14.0,0.000,0.600,0,-1,0,-2.0,-14.0,-1.0,0.0,0.0,0.0,2037,2826,1212,1912,1298,2788,2050,2901,1310,1039,1278,2804,2036,2812,1211,1912,1316,2793,2052,2884,1308,1040,1297,2806
1782219219.7688,4.6872,1,lf,0.0986,0.0986,-0.1000,0,0.3311,0.3315,-0.1022,-0.0004,0.0007,-0.0063,CLIMB,5,1,0,14.0,0.000,0.620,0,-1,0,-1.0,-14.0,-1.0,0.0,0.0,0.0,2037,2826,1212,1912,1298,2788,2050,2901,1310,1039,1278,2804,2036,2812,1211,1912,1316,2793,2052,2884,1308,1040,1297,2806
1782219219.7888,4.7073,1,lf,0.0986,0.0986,-0.1000,0,0.3311,0.3315,-0.1022,-0.0005,0.0008,-0.0063,CLIMB,5,1,0,14.0,0.000,0.640,0,-1,0,-2.0,-14.0,-1.0,0.0,0.0,0.0,2037,2826,1212,1912,1298,2788,2050,2901,1310,1039,1278,2804,2036,2812,1211,1912,1316,2793,2052,2884,1308,1040,1297,2806
1782219219.8088,4.7273,1,lf,0.0986,0.0986,-0.1000,0,0.3311,0.3315,-0.1022,-0.0005,0.0008,-0.0063,CLIMB,5,1,0,14.0,0.000,0.660,0,-1,0,-2.0,-14.0,-1.0,0.0,0.0,0.0,2037,2826,1212,1912,1298,2788,2050,2901,1310,1039,1278,2804,2035,2812,1211,1912,1316,2793,2052,2884,1308,1040,1297,2806
1782219219.8288,4.7473,1,lf,0.0986,0.0986,-0.1000,0,0.3308,0.3318,-0.1022,-0.0004,0.0007,-0.0063,CLIMB,5,1,0,14.0,0.000,0.680,0,-1,0,-1.0,-14.0,-1.0,0.0,0.0,0.0,2037,2826,1212,1912,1298,2788,2050,2901,1310,1039,1278,2804,2035,2812,1211,1912,1316,2793,2052,2884,1308,1040,1297,2806
1782219219.8488,4.7673,1,lf,0.0986,0.0986,-0.1000,0,0.3308,0.3318,-0.1022,-0.0004,0.0006,-0.0062,CLIMB,5,1,0,14.0,0.000,0.700,0,-1,0,-2.0,-14.0,-1.0,0.0,0.0,0.0,2037,2826,1212,1912,1298,2788,2050,2901,1310,1039,1278,2804,2035,2812,1211,1912,1316,2793,2052,2884,1308,1040,1297,2806
1782219219.8688,4.7873,1,lf,0.0986,0.0986,-0.1000,0,0.3308,0.3318,-0.1022,-0.0004,0.0006,-0.0062,CLIMB,5,1,0,14.0,0.000,0.720,0,-1,0,-2.0,-14.0,-1.0,0.0,0.0,0.0,2037,2826,1212,1912,1298,2788,2050,2901,1310,1039,1278,2804,2035,2812,1211,1912,1316,2793,2052,2884,1308,1040,1297,2806
1782219219.8888,4.8072,1,lf,0.0986,0.0986,-0.1000,0,0.3308,0.3318,-0.1022,-0.0003,0.0006,-0.0062,CLIMB,5,1,0,14.0,0.000,0.740,0,-1,0,-1.0,-14.0,-1.0,0.0,0.0,0.0,2037,2826,1212,1912,1298,2788,2050,2901,1310,1039,1278,2804,2035,2812,1211,1912,1316,2793,2052,2884,1308,1040,1297,2806
1782219219.9088,4.8273,1,lf,0.0986,0.0986,-0.1000,0,0.3308,0.3318,-0.1022,-0.0003,0.0006,-0.0062,CLIMB,5,1,0,14.0,0.000,0.760,0,-1,0,-1.0,-14.0,-1.0,0.0,0.0,0.0,2037,2826,1212,1912,1298,2788,2050,2901,1310,1039,1278,2804,2036,2812,1211,1912,1316,2793,2052,2884,1308,1040,1297,2806
1782219219.9288,4.8473,1,lf,0.0986,0.0986,-0.1000,0,0.3311,0.3315,-0.1022,-0.0004,0.0007,-0.0062,CLIMB,5,1,0,13.0,0.000,0.780,0,-1,0,-2.0,-13.0,-1.0,0.0,0.0,0.0,2037,2826,1212,1912,1298,2788,2050,2901,1310,1039,1278,2804,2036,2812,1211,1912,1316,2793,2052,2884,1308,1040,1297,2806
1782219219.9488,4.8673,1,lf,0.0986,0.0986,-0.1000,0,0.3311,0.3315,-0.1022,-0.0005,0.0008,-0.0062,CLIMB,5,1,0,14.0,0.000,0.800,0,-1,0,-1.0,-14.0,-1.0,0.0,0.0,0.0,2037,2826,1212,1912,1298,2788,2050,2901,1310,1039,1278,2804,2036,2812,1211,1912,1316,2793,2052,2884,1308,1040,1297,2806
1782219219.9688,4.8873,1,lf,0.0986,0.0986,-0.1000,0,0.3311,0.3315,-0.1022,-0.0005,0.0008,-0.0062,CLIMB,5,1,0,14.0,0.000,0.820,0,-1,0,-1.0,-14.0,-1.0,0.0,0.0,0.0,2037,2826,1212,1912,1298,2788,2050,2901,1310,1039,1278,2804,2036,2812,1211,1912,1316,2793,2052,2884,1308,1040,1297,2806
1782219219.9889,4.9074,1,lf,0.0986,0.0986,-0.1000,0,0.3311,0.3315,-0.1022,-0.0005,0.0008,-0.0062,CLIMB,5,1,0,13.0,0.000,0.840,0,-1,0,-2.0,-13.0,-1.0,0.0,0.0,0.0,2037,2826,1212,1912,1298,2788,2050,2901,1310,1039,1278,2804,2036,2812,1211,1912,1316,2793,2052,2884,1308,1040,1297,2806
1782219220.0089,4.9273,1,lf,0.0986,0.0986,-0.1000,0,0.3311,0.3315,-0.1022,-0.0005,0.0008,-0.0062,CLIMB,5,1,0,13.0,0.000,0.860,0,-1,0,-2.0,-13.0,-1.0,0.0,0.0,0.0,2037,2826,1212,1912,1298,2788,2050,2901,1310,1039,1278,2804,2035,2813,1211,1912,1316,2793,2052,2884,1308,1040,1297,2806
1782219220.0288,4.9473,1,lf,0.0986,0.0986,-0.1000,0,0.3309,0.3319,-0.1020,-0.0005,0.0006,-0.0063,CLIMB,5,1,0,13.0,0.000,0.880,0,-1,0,-2.0,-13.0,-1.0,0.0,0.0,0.0,2037,2826,1212,1912,1298,2788,2050,2901,1310,1039,1278,2804,2035,2813,1211,1912,1316,2793,2052,2884,1308,1040,1297,2806
1782219220.0488,4.9673,1,lf,0.0986,0.0986,-0.1000,0,0.3309,0.3319,-0.1020,-0.0005,0.0006,-0.0064,CLIMB,5,1,0,13.0,0.000,0.900,0,-1,0,-2.0,-13.0,-1.0,0.0,0.0,0.0,2037,2826,1212,1912,1298,2788,2050,2901,1310,1039,1278,2804,2035,2813,1211,1912,1316,2793,2052,2884,1308,1040,1297,2806
1782219220.0688,4.9873,1,lf,0.0986,0.0986,-0.1000,0,0.3309,0.3319,-0.1020,-0.0005,0.0005,-0.0064,CLIMB,5,1,0,13.0,0.000,0.920,0,-1,0,-2.0,-13.0,-1.0,0.0,0.0,0.0,2037,2826,1212,1912,1298,2788,2050,2901,1310,1039,1278,2804,2035,2813,1211,1912,1316,2793,2052,2884,1308,1040,1297,2806
1782219220.0888,5.0072,1,lf,0.0986,0.0986,-0.1000,0,0.3309,0.3319,-0.1020,-0.0005,0.0005,-0.0064,CLIMB,5,1,0,14.0,0.000,0.940,0,-1,0,-1.0,-14.0,-1.0,0.0,0.0,0.0,2037,2826,1212,1912,1298,2788,2050,2901,1310,1039,1278,2804,2035,2813,1211,1912,1316,2793,2052,2884,1308,1040,1297,2806
1782219220.1088,5.0273,1,lf,0.0986,0.0986,-0.1000,0,0.3309,0.3319,-0.1020,-0.0005,0.0005,-0.0065,CLIMB,5,1,0,13.0,0.000,0.960,0,-1,0,-1.0,-13.0,-1.0,0.0,0.0,0.0,2037,2826,1212,1912,1298,2788,2050,2901,1310,1039,1278,2804,2036,2813,1211,1912,1316,2793,2052,2884,1308,1040,1297,2806
1782219220.1290,5.0475,1,lf,0.0986,0.0986,-0.1000,0,0.3312,0.3316,-0.1020,-0.0006,0.0006,-0.0065,CLIMB,5,1,0,13.0,0.000,0.980,0,-1,0,-1.0,-13.0,-1.0,0.0,0.0,0.0,2037,2826,1212,1912,1298,2788,2050,2901,1310,1039,1278,2804,2036,2813,1211,1912,1316,2793,2052,2884,1308,1040,1297,2806
1782219220.1489,5.0674,1,lf,0.0986,0.0986,-0.1000,0,0.3312,0.3316,-0.1020,-0.0006,0.0007,-0.0065,CLIMB,5,1,0,13.0,0.000,1.000,0,-1,0,-1.0,-13.0,-1.0,0.0,0.0,0.0,2037,2826,1212,1912,1298,2788,2050,2901,1310,1039,1278,2804,2036,2813,1211,1912,1316,2793,2052,2884,1308,1040,1297,2806
1782219220.1690,5.0874,1,lf,0.0986,0.0986,-0.1000,0,0.3312,0.3316,-0.1020,-0.0007,0.0007,-0.0065,CLIMB,5,1,0,13.0,0.000,1.020,0,-1,0,-2.0,-13.0,-1.0,0.0,0.0,0.0,2037,2826,1212,1912,1298,2788,2050,2901,1310,1039,1278,2804,2036,2813,1211,1912,1316,2793,2052,2884,1308,1040,1297,2806
1782219220.1888,5.1073,1,lf,0.0986,0.0986,-0.1000,0,0.3312,0.3316,-0.1020,-0.0007,0.0008,-0.0065,CLIMB,5,1,0,13.0,0.000,1.040,0,-1,0,-2.0,-13.0,-1.0,0.0,0.0,0.0,2037,2826,1212,1912,1298,2788,2050,2901,1310,1039,1278,2804,2036,2813,1211,1912,1316,2793,2052,2884,1308,1040,1297,2806
1782219220.2088,5.1273,1,lf,0.0986,0.0986,-0.1000,0,0.3312,0.3316,-0.1020,-0.0007,0.0008,-0.0065,CLIMB,5,1,0,13.0,0.000,1.060,0,-1,0,-2.0,-13.0,-1.0,0.0,0.0,0.0,2037,2826,1212,1912,1298,2788,2050,2901,1310,1039,1278,2804,2035,2813,1211,1912,1316,2794,2052,2884,1308,1040,1297,2806
1782219220.2288,5.1473,1,lf,0.0986,0.0986,-0.1000,0,0.3309,0.3319,-0.1020,-0.0006,0.0006,-0.0065,CLIMB,5,1,0,13.0,0.000,1.080,0,-1,0,-2.0,-13.0,-1.0,0.0,0.0,0.0,2037,2826,1212,1912,1298,2788,2050,2901,1310,1039,1278,2804,2035,2813,1211,1912,1316,2794,2052,2884,1308,1040,1297,2806
1782219220.2488,5.1673,1,lf,0.0986,0.0986,-0.1000,0,0.3309,0.3319,-0.1020,-0.0006,0.0005,-0.0065,CLIMB,5,1,0,14.0,0.000,1.100,0,-1,0,-2.0,-14.0,-1.0,0.0,0.0,0.0,2037,2826,1212,1912,1298,2788,2050,2901,1310,1039,1278,2804,2035,2812,1211,1912,1316,2793,2053,2884,1308,1040,1297,2806
1782219220.2688,5.1873,1,lf,0.0986,0.0986,-0.1000,0,0.3308,0.3318,-0.1022,-0.0005,0.0005,-0.0064,CLIMB,5,1,0,14.0,0.000,1.120,0,-1,0,-1.0,-14.0,-1.0,0.0,0.0,0.0,2037,2826,1212,1912,1298,2788,2050,2901,1310,1039,1278,2804,2035,2812,1211,1912,1316,2793,2053,2884,1308,1040,1297,2806
1782219220.2888,5.2072,1,lf,0.0986,0.0986,-0.1000,0,0.3308,0.3318,-0.1022,-0.0004,0.0006,-0.0063,CLIMB,5,1,0,14.0,0.000,1.140,0,-1,0,-1.0,-14.0,-1.0,0.0,0.0,0.0,2037,2826,1212,1912,1298,2788,2050,2901,1310,1039,1278,2804,2035,2812,1211,1912,1316,2793,2053,2884,1308,1040,1297,2806
1782219220.3087,5.2272,1,lf,0.0986,0.0986,-0.1000,0,0.3308,0.3318,-0.1022,-0.0004,0.0006,-0.0063,CLIMB,5,1,0,14.0,0.000,1.160,0,-1,0,-2.0,-14.0,-1.0,0.0,0.0,0.0,2037,2826,1212,1912,1298,2788,2050,2901,1310,1039,1278,2804,2035,2812,1211,1912,1316,2793,2052,2884,1308,1040,1297,2806
1782219220.3287,5.2472,1,lf,0.0986,0.0986,-0.1000,0,0.3308,0.3318,-0.1022,-0.0004,0.0006,-0.0063,CLIMB,5,1,0,14.0,0.000,1.180,0,-1,0,-2.0,-14.0,-1.0,0.0,0.0,0.0,2037,2826,1212,1912,1298,2788,2050,2901,1310,1039,1278,2804,2035,2812,1211,1912,1316,2793,2052,2884,1308,1040,1297,2806
1782219220.3487,5.2672,1,lf,0.0986,0.0986,-0.1000,0,0.3308,0.3318,-0.1022,-0.0004,0.0006,-0.0063,CLIMB,5,1,0,14.0,0.000,1.200,0,-1,0,-2.0,-14.0,-1.0,0.0,0.0,0.0,2037,2826,1212,1912,1298,2788,2050,2901,1310,1039,1278,2804,2036,2813,1211,1912,1316,2793,2052,2884,1308,1040,1297,2806
1782219220.3688,5.2872,1,lf,0.0986,0.0986,-0.1000,0,0.3312,0.3316,-0.1020,-0.0005,0.0007,-0.0064,CLIMB,5,1,0,13.0,0.000,1.220,0,-1,0,-1.0,-13.0,-1.0,0.0,0.0,0.0,2037,2826,1212,1912,1298,2788,2050,2901,1310,1039,1278,2804,2036,2813,1211,1912,1316,2793,2052,2884,1308,1040,1297,2806
1782219220.3888,5.3073,1,lf,0.0986,0.0986,-0.1000,0,0.3312,0.3316,-0.1020,-0.0006,0.0007,-0.0064,CLIMB,5,1,0,13.0,0.000,1.240,0,-1,0,-1.0,-13.0,-1.0,0.0,0.0,0.0,2037,2826,1212,1912,1298,2788,2050,2901,1310,1039,1278,2804,2036,2813,1211,1912,1316,2793,2052,2884,1308,1040,1297,2806
1782219220.4088,5.3273,1,lf,0.0986,0.0986,-0.1000,0,0.3312,0.3316,-0.1020,-0.0007,0.0008,-0.0064,CLIMB,5,1,0,14.0,0.000,1.260,0,-1,0,-1.0,-14.0,-1.0,0.0,0.0,0.0,2037,2826,1212,1912,1298,2788,2050,2901,1310,1039,1278,2804,2036,2812,1211,1912,1316,2793,2053,2884,1308,1039,1297,2806
1782219220.4288,5.3473,1,lf,0.0986,0.0986,-0.1000,0,0.3311,0.3315,-0.1022,-0.0006,0.0008,-0.0063,CLIMB,5,1,0,13.0,0.000,1.280,0,-1,0,-2.0,-13.0,-1.0,0.0,0.0,0.0,2037,2826,1212,1912,1298,2788,2050,2901,1310,1039,1278,2804,2036,2812,1211,1912,1316,2793,2053,2884,1308,1039,1297,2806
1782219220.4489,5.3674,1,lf,0.0986,0.0986,-0.1000,0,0.3311,0.3315,-0.1022,-0.0006,0.0009,-0.0063,CLIMB,5,1,0,13.0,0.000,1.300,0,-1,0,-2.0,-13.0,-1.0,0.0,0.0,0.0,2037,2826,1212,1912,1298,2788,2050,2901,1310,1039,1278,2804,2035,2812,1211,1912,1316,2793,2052,2884,1308,1040,1297,2806
1782219220.4688,5.3873,1,lf,0.0986,0.0986,-0.1000,0,0.3308,0.3318,-0.1022,-0.0005,0.0007,-0.0063,CLIMB,5,1,0,14.0,0.000,1.320,0,-1,0,-2.0,-14.0,-1.0,0.0,0.0,0.0,2037,2826,1212,1912,1298,2788,2050,2901,1310,1039,1278,2804,2035,2812,1211,1912,1316,2793,2052,2884,1308,1040,1297,2806
1782219220.4888,5.4073,1,lf,0.0986,0.0986,-0.1000,0,0.3308,0.3318,-0.1022,-0.0004,0.0007,-0.0063,CLIMB,5,1,0,14.0,0.000,1.340,0,-1,0,-1.0,-14.0,-1.0,0.0,0.0,0.0,2037,2826,1212,1912,1298,2788,2050,2901,1310,1039,1278,2804,2035,2812,1211,1912,1316,2793,2052,2884,1308,1040,1297,2806
1782219220.5088,5.4273,1,lf,0.0986,0.0986,-0.1000,0,0.3308,0.3318,-0.1022,-0.0004,0.0006,-0.0063,CLIMB,5,1,0,14.0,0.000,1.360,0,-1,0,-1.0,-14.0,-1.0,0.0,0.0,0.0,2037,2826,1212,1912,1298,2788,2050,2901,1310,1039,1278,2804,2036,2812,1211,1912,1316,2793,2052,2884,1308,1040,1297,2806
1782219220.5288,5.4472,1,lf,0.0986,0.0986,-0.1000,0,0.3311,0.3315,-0.1022,-0.0005,0.0008,-0.0063,CLIMB,5,1,0,13.0,0.000,1.380,0,-1,0,-2.0,-13.0,-1.0,0.0,0.0,0.0,2037,2826,1212,1912,1298,2788,2050,2901,1310,1039,1278,2804,2036,2812,1211,1912,1316,2793,2052,2884,1308,1040,1297,2806
1782219220.5488,5.4673,1,lf,0.0986,0.0986,-0.1000,0,0.3311,0.3315,-0.1022,-0.0005,0.0008,-0.0062,CLIMB,5,1,0,13.0,0.000,1.400,0,-1,0,-2.0,-13.0,-1.0,0.0,0.0,0.0,2037,2826,1212,1912,1298,2788,2050,2901,1310,1039,1278,2804,2036,2812,1211,1912,1316,2793,2052,2884,1308,1040,1297,2806
1782219220.5688,5.4873,1,lf,0.0986,0.0986,-0.1000,0,0.3311,0.3315,-0.1022,-0.0005,0.0009,-0.0062,CLIMB,5,1,0,14.0,0.000,1.420,0,-1,0,-1.0,-14.0,-1.0,0.0,0.0,0.0,2037,2826,1212,1912,1298,2788,2050,2901,1310,1039,1278,2804,2036,2812,1211,1912,1316,2793,2052,2884,1308,1040,1297,2806
1782219220.5889,5.5074,1,lf,0.0986,0.0986,-0.1000,0,0.3311,0.3315,-0.1022,-0.0006,0.0009,-0.0062,CLIMB,5,1,0,14.0,0.000,1.440,0,-1,0,-2.0,-14.0,-1.0,0.0,0.0,0.0,2037,2826,1212,1912,1298,2788,2050,2901,1310,1039,1278,2804,2036,2812,1211,1912,1316,2793,2052,2884,1308,1040,1297,2806
1782219220.6087,5.5272,1,lf,0.0986,0.0986,-0.1000,0,0.3311,0.3315,-0.1022,-0.0006,0.0009,-0.0062,CLIMB,5,1,0,14.0,0.000,1.460,0,-1,0,-2.0,-14.0,-1.0,0.0,0.0,0.0,2037,2826,1212,1912,1298,2788,2050,2901,1310,1039,1278,2804,2035,2812,1211,1912,1316,2793,2052,2884,1308,1040,1297,2806
1782219220.6288,5.5472,1,lf,0.0986,0.0986,-0.1000,0,0.3308,0.3318,-0.1022,-0.0005,0.0007,-0.0062,CLIMB,5,1,0,14.0,0.000,1.480,0,-1,0,-1.0,-14.0,-1.0,0.0,0.0,0.0,2037,2826,1212,1912,1298,2788,2050,2901,1310,1039,1278,2804,2035,2812,1211,1912,1316,2793,2052,2884,1308,1040,1297,2806
1782219220.6488,5.5673,1,lf,0.0986,0.0986,-0.1000,0,0.3308,0.3318,-0.1022,-0.0004,0.0007,-0.0062,CLIMB,5,1,0,13.0,0.000,1.500,0,-1,0,-2.0,-13.0,-1.0,0.0,0.0,0.0,2037,2826,1212,1912,1298,2788,2050,2901,1310,1039,1278,2804,2035,2813,1211,1912,1316,2793,2052,2884,1308,1040,1297,2806
1782219220.6687,5.5872,1,lf,0.0986,0.0986,-0.1000,0,0.3309,0.3319,-0.1020,-0.0005,0.0006,-0.0063,CLIMB,5,1,0,13.0,0.000,1.520,0,-1,0,-2.0,-13.0,-1.0,0.0,0.0,0.0,2037,2826,1212,1912,1298,2788,2050,2901,1310,1039,1278,2804,2035,2813,1211,1912,1316,2793,2052,2884,1308,1040,1297,2806
1782219220.6888,5.6073,1,lf,0.0986,0.0986,-0.1000,0,0.3309,0.3319,-0.1020,-0.0005,0.0005,-0.0064,CLIMB,5,1,0,14.0,0.000,1.540,0,-1,0,-2.0,-14.0,-1.0,0.0,0.0,0.0,2037,2826,1212,1912,1298,2788,2050,2901,1310,1039,1278,2804,2035,2813,1211,1912,1316,2793,2052,2884,1308,1040,1297,2806
1782219220.7088,5.6273,1,lf,0.0986,0.0986,-0.1000,0,0.3309,0.3319,-0.1020,-0.0005,0.0005,-0.0064,CLIMB,5,1,0,14.0,0.000,1.560,0,-1,0,-2.0,-14.0,-1.0,0.0,0.0,0.0,2037,2826,1212,1912,1298,2788,2050,2901,1310,1039,1278,2804,2035,2812,1211,1913,1316,2793,2052,2884,1308,1040,1297,2806
1782219220.7289,5.6474,1,lf,0.0986,0.0986,-0.1000,0,0.3308,0.3318,-0.1022,-0.0004,0.0006,-0.0063,CLIMB,5,1,0,13.0,0.000,1.580,0,-1,0,-1.0,-13.0,-1.0,0.0,0.0,0.0,2037,2826,1212,1912,1298,2788,2050,2901,1310,1039,1278,2804,2035,2812,1211,1913,1316,2793,2052,2884,1308,1040,1297,2806
1782219220.7488,5.6672,1,lf,0.0986,0.0986,-0.1000,0,0.3308,0.3318,-0.1022,-0.0004,0.0006,-0.0063,CLIMB,5,1,0,13.0,0.000,1.600,0,-1,0,-1.0,-13.0,-1.0,0.0,0.0,0.0,2037,2826,1212,1912,1298,2788,2050,2901,1310,1039,1278,2804,2036,2813,1211,1912,1316,2793,2052,2884,1308,1040,1297,2806
1782219220.7689,5.6874,1,lf,0.0986,0.0986,-0.1000,0,0.3312,0.3316,-0.1020,-0.0006,0.0007,-0.0064,CLIMB,5,1,0,13.0,0.000,1.620,0,-1,0,-1.0,-13.0,-1.0,0.0,0.0,0.0,2037,2826,1212,1912,1298,2788,2050,2901,1310,1039,1278,2804,2036,2813,1211,1912,1316,2793,2052,2884,1308,1040,1297,2806
1782219220.7889,5.7074,1,lf,0.0986,0.0986,-0.1000,0,0.3312,0.3316,-0.1020,-0.0006,0.0008,-0.0064,CLIMB,5,1,0,14.0,0.000,1.640,0,-1,0,-1.0,-14.0,-1.0,0.0,0.0,0.0,2037,2826,1212,1912,1298,2788,2050,2901,1310,1039,1278,2804,2036,2813,1211,1912,1316,2793,2052,2884,1308,1040,1297,2806
1782219220.8089,5.7274,1,lf,0.0986,0.0986,-0.1000,0,0.3312,0.3316,-0.1020,-0.0007,0.0008,-0.0064,CLIMB,5,1,0,14.0,0.000,1.660,0,-1,0,-2.0,-14.0,-1.0,0.0,0.0,0.0,2037,2826,1212,1912,1298,2788,2050,2901,1310,1039,1278,2804,2035,2812,1211,1912,1316,2793,2052,2884,1308,1040,1297,2806
1782219220.8289,5.7473,1,lf,0.0986,0.0986,-0.1000,0,0.3308,0.3318,-0.1022,-0.0005,0.0007,-0.0063,CLIMB,5,1,0,14.0,0.000,1.680,0,-1,0,-2.0,-14.0,-1.0,0.0,0.0,0.0,2037,2826,1212,1912,1298,2788,2050,2901,1310,1039,1278,2804,2035,2812,1211,1912,1316,2793,2052,2884,1308,1040,1297,2806
1782219220.8489,5.7674,1,lf,0.0986,0.0986,-0.1000,0,0.3308,0.3318,-0.1022,-0.0005,0.0006,-0.0063,CLIMB,5,1,0,14.0,0.000,1.700,0,-1,0,-2.0,-14.0,-1.0,0.0,0.0,0.0,2037,2826,1212,1912,1298,2788,2050,2901,1310,1039,1278,2804,2035,2812,1211,1912,1316,2793,2052,2884,1308,1040,1297,2806
1782219220.8689,5.7874,1,lf,0.0986,0.0986,-0.1000,0,0.3308,0.3318,-0.1022,-0.0004,0.0006,-0.0063,CLIMB,5,1,0,14.0,0.000,1.720,0,-1,0,-2.0,-14.0,-1.0,0.0,0.0,0.0,2037,2826,1212,1912,1298,2788,2050,2901,1310,1039,1278,2804,2035,2812,1211,1912,1316,2793,2052,2884,1308,1040,1297,2806
1782219220.8888,5.8073,1,lf,0.0986,0.0986,-0.1000,0,0.3308,0.3318,-0.1022,-0.0004,0.0006,-0.0062,CLIMB,5,1,0,14.0,0.000,1.740,0,-1,0,-2.0,-14.0,-1.0,0.0,0.0,0.0,2037,2826,1212,1912,1298,2788,2050,2901,1310,1039,1278,2804,2035,2812,1211,1912,1316,2793,2052,2884,1308,1040,1297,2806
1782219220.9088,5.8273,1,lf,0.0986,0.0986,-0.1000,0,0.3308,0.3318,-0.1022,-0.0004,0.0006,-0.0062,CLIMB,5,1,0,13.0,0.000,1.760,0,-1,0,-2.0,-13.0,-1.0,0.0,0.0,0.0,2037,2826,1212,1912,1298,2788,2050,2901,1310,1039,1278,2804,2035,2813,1211,1912,1316,2793,2052,2884,1308,1040,1297,2806
1782219220.9288,5.8473,1,lf,0.0986,0.0986,-0.1000,0,0.3309,0.3319,-0.1020,-0.0004,0.0005,-0.0063,CLIMB,5,1,0,13.0,0.000,1.780,0,-1,0,-2.0,-13.0,-1.0,0.0,0.0,0.0,2037,2826,1212,1912,1298,2788,2050,2901,1310,1039,1278,2804,2035,2813,1211,1912,1316,2793,2052,2884,1308,1040,1297,2806
1782219220.9489,5.8674,1,lf,0.0986,0.0986,-0.1000,0,0.3309,0.3319,-0.1020,-0.0005,0.0005,-0.0064,CLIMB,5,1,0,14.0,0.000,1.800,0,-1,0,-2.0,-14.0,-1.0,0.0,0.0,0.0,2037,2826,1212,1912,1298,2788,2050,2901,1310,1039,1278,2804,2035,2812,1211,1912,1316,2793,2052,2884,1308,1040,1297,2806
1782219220.9688,5.8873,1,lf,0.0986,0.0986,-0.1000,0,0.3308,0.3318,-0.1022,-0.0004,0.0005,-0.0063,CLIMB,5,1,0,14.0,0.000,1.820,0,-1,0,-2.0,-14.0,-1.0,0.0,0.0,0.0,2037,2826,1212,1912,1298,2788,2050,2901,1310,1039,1278,2804,2035,2812,1211,1912,1316,2793,2052,2884,1308,1040,1297,2806
1782219220.9888,5.9072,1,lf,0.0986,0.0986,-0.1000,0,0.3308,0.3318,-0.1022,-0.0004,0.0006,-0.0063,CLIMB,5,1,0,14.0,0.000,1.840,0,-1,0,-2.0,-14.0,-1.0,0.0,0.0,0.0,2037,2826,1212,1912,1298,2788,2050,2901,1310,1039,1278,2804,2035,2812,1211,1912,1316,2793,2052,2884,1308,1040,1297,2806
1782219221.0089,5.9273,1,lf,0.0986,0.0986,-0.1000,0,0.3308,0.3318,-0.1022,-0.0004,0.0006,-0.0062,CLIMB,5,1,0,13.0,0.000,1.860,0,-1,0,-1.0,-13.0,-1.0,0.0,0.0,0.0,2037,2826,1212,1912,1298,2788,2050,2901,1310,1039,1278,2804,2036,2813,1211,1912,1316,2793,2052,2884,1308,1040,1297,2806
1782219221.0288,5.9473,1,lf,0.0986,0.0986,-0.1000,0,0.3312,0.3316,-0.1020,-0.0005,0.0007,-0.0063,CLIMB,5,1,0,13.0,0.000,1.880,0,-1,0,-1.0,-13.0,-1.0,0.0,0.0,0.0,2037,2826,1212,1912,1298,2788,2050,2901,1310,1039,1278,2804,2036,2813,1211,1912,1316,2793,2052,2884,1308,1040,1297,2806
1782219221.0489,5.9673,1,lf,0.0986,0.0986,-0.1000,0,0.3312,0.3316,-0.1020,-0.0006,0.0007,-0.0064,CLIMB,5,1,0,13.0,0.000,1.900,0,-1,0,-1.0,-13.0,-1.0,0.0,0.0,0.0,2037,2826,1212,1912,1298,2788,2050,2901,1310,1039,1278,2804,2036,2813,1211,1912,1316,2793,2052,2884,1308,1040,1297,2806
1782219221.0688,5.9873,1,lf,0.0986,0.0986,-0.1000,0,0.3312,0.3316,-0.1020,-0.0007,0.0008,-0.0064,CLIMB,5,1,0,14.0,0.000,1.920,0,-1,0,-2.0,-14.0,-1.0,0.0,0.0,0.0,2037,2826,1212,1912,1298,2788,2050,2901,1310,1039,1278,2804,2036,2813,1211,1912,1316,2793,2052,2884,1308,1040,1297,2806
1782219221.0889,6.0074,1,lf,0.0986,0.0986,-0.1000,0,0.3312,0.3316,-0.1020,-0.0007,0.0008,-0.0064,CLIMB,5,1,0,14.0,0.000,1.940,0,-1,0,-2.0,-14.0,-1.0,0.0,0.0,0.0,2037,2826,1212,1912,1298,2788,2050,2901,1310,1039,1278,2804,2036,2813,1211,1912,1316,2793,2052,2884,1308,1040,1297,2806
1782219221.1088,6.0273,1,lf,0.0986,0.0986,-0.1000,0,0.3312,0.3316,-0.1020,-0.0007,0.0008,-0.0064,CLIMB,5,1,0,14.0,0.000,1.960,0,-1,0,-2.0,-14.0,-1.0,0.0,0.0,0.0,2037,2826,1212,1912,1298,2788,2050,2901,1310,1039,1278,2804,2035,2812,1211,1912,1316,2793,2052,2884,1308,1040,1297,2806
1782219221.1289,6.0473,1,lf,0.0986,0.0986,-0.1000,0,0.3308,0.3318,-0.1022,-0.0005,0.0007,-0.0063,CLIMB,5,1,0,14.0,0.000,1.980,0,-1,0,-2.0,-14.0,-1.0,0.0,0.0,0.0,2037,2826,1212,1912,1298,2788,2050,2901,1310,1039,1278,2804,2035,2812,1211,1912,1316,2793,2052,2884,1308,1040,1297,2806
1782219221.1489,6.0673,1,lf,0.0986,0.0986,-0.1000,0,0.3308,0.3318,-0.1022,-0.0004,0.0006,-0.0063,CLIMB,5,1,0,14.0,0.000,2.000,0,-1,0,-2.0,-14.0,-1.0,0.0,0.0,0.0,2037,2826,1212,1912,1298,2788,2050,2901,1310,1039,1278,2804,2036,2812,1211,1912,1316,2793,2052,2884,1308,1040,1297,2806
1782219221.1688,6.0873,1,lf,0.0986,0.0986,-0.1000,0,0.3311,0.3315,-0.1022,-0.0005,0.0008,-0.0062,CLIMB,5,1,0,14.0,0.000,2.020,0,-1,0,-1.0,-14.0,-1.0,0.0,0.0,0.0,2037,2826,1212,1912,1298,2788,2050,2901,1310,1039,1278,2804,2036,2812,1211,1912,1316,2793,2052,2884,1308,1040,1297,2806
1782219221.1888,6.1072,1,lf,0.0986,0.0986,-0.1000,0,0.3311,0.3315,-0.1022,-0.0005,0.0008,-0.0062,CLIMB,5,1,0,14.0,0.000,2.040,0,-1,0,-1.0,-14.0,-1.0,0.0,0.0,0.0,2037,2826,1212,1912,1298,2788,2050,2901,1310,1039,1278,2804,2036,2812,1211,1912,1316,2793,2052,2884,1308,1040,1297,2806
1782219221.2090,6.1275,1,lf,0.0986,0.0986,-0.1000,0,0.3311,0.3315,-0.1022,-0.0005,0.0008,-0.0062,CLIMB,5,1,0,14.0,0.000,2.060,0,-1,0,-2.0,-14.0,-1.0,0.0,0.0,0.0,2037,2826,1212,1912,1298,2788,2050,2901,1310,1039,1278,2804,2035,2812,1211,1912,1316,2794,2052,2884,1308,1040,1297,2806
1782219221.2289,6.1474,1,lf,0.0986,0.0986,-0.1000,0,0.3308,0.3318,-0.1022,-0.0005,0.0007,-0.0062,CLIMB,5,1,0,14.0,0.000,2.080,0,-1,0,-1.0,-14.0,-1.0,0.0,0.0,0.0,2037,2826,1212,1912,1298,2788,2050,2901,1310,1039,1278,2804,2035,2812,1211,1912,1316,2794,2052,2884,1308,1040,1297,2806
1782219221.2488,6.1673,1,lf,0.0986,0.0986,-0.1000,0,0.3308,0.3318,-0.1022,-0.0004,0.0007,-0.0062,CLIMB,5,1,0,14.0,0.000,2.100,0,-1,0,-1.0,-14.0,-1.0,0.0,0.0,0.0,2037,2826,1212,1912,1298,2788,2050,2901,1310,1039,1278,2804,2035,2812,1211,1912,1316,2793,2052,2884,1308,1040,1297,2806
1782219221.2689,6.1874,1,lf,0.0986,0.0986,-0.1000,0,0.3308,0.3318,-0.1022,-0.0004,0.0006,-0.0062,CLIMB,5,1,0,14.0,0.000,2.120,0,-1,0,-2.0,-14.0,-1.0,0.0,0.0,0.0,2037,2826,1212,1912,1298,2788,2050,2901,1310,1039,1278,2804,2035,2812,1211,1912,1316,2793,2052,2884,1308,1040,1297,2806
1782219221.2888,6.2073,1,lf,0.0986,0.0986,-0.1000,0,0.3308,0.3318,-0.1022,-0.0004,0.0006,-0.0062,CLIMB,5,1,0,13.0,0.000,2.140,0,-1,0,-2.0,-13.0,-1.0,0.0,0.0,0.0,2037,2826,1212,1912,1298,2788,2050,2901,1310,1039,1278,2804,2035,2812,1211,1912,1316,2793,2052,2884,1308,1040,1297,2806
1782219221.3090,6.2275,1,lf,0.0986,0.0986,-0.1000,0,0.3308,0.3318,-0.1022,-0.0004,0.0006,-0.0062,CLIMB,5,1,0,13.0,0.000,2.160,0,-1,0,-2.0,-13.0,-1.0,0.0,0.0,0.0,2037,2826,1212,1912,1298,2788,2050,2901,1310,1039,1278,2804,2035,2813,1211,1912,1316,2793,2052,2884,1308,1040,1297,2806
1782219221.3288,6.2473,1,lf,0.0986,0.0986,-0.1000,0,0.3309,0.3319,-0.1020,-0.0004,0.0005,-0.0063,CLIMB,5,1,0,14.0,0.000,2.180,0,-1,0,-1.0,-14.0,-1.0,0.0,0.0,0.0,2037,2826,1212,1912,1298,2788,2050,2901,1310,1039,1278,2804,2035,2813,1211,1912,1316,2793,2052,2884,1308,1040,1297,2806
1782219221.3488,6.2673,1,lf,0.0986,0.0986,-0.1000,0,0.3309,0.3319,-0.1020,-0.0005,0.0005,-0.0064,CLIMB,5,1,0,14.0,0.000,2.200,0,-1,0,-1.0,-14.0,-1.0,0.0,0.0,0.0,2037,2826,1212,1912,1298,2788,2050,2901,1310,1039,1278,2804,2035,2812,1211,1912,1316,2793,2052,2884,1308,1040,1297,2806
1782219221.3688,6.2873,1,lf,0.0986,0.0986,-0.1000,0,0.3308,0.3318,-0.1022,-0.0004,0.0005,-0.0063,CLIMB,5,1,0,14.0,0.000,2.220,0,-1,0,-2.0,-14.0,-1.0,0.0,0.0,0.0,2037,2826,1212,1912,1298,2788,2050,2901,1310,1039,1278,2804,2035,2812,1211,1912,1316,2793,2052,2884,1308,1040,1297,2806
1782219221.3888,6.3073,1,lf,0.0986,0.0986,-0.1000,0,0.3308,0.3318,-0.1022,-0.0004,0.0006,-0.0063,CLIMB,5,1,0,13.0,0.000,2.240,0,-1,0,-2.0,-13.0,-1.0,0.0,0.0,0.0,2037,2826,1212,1912,1298,2788,2050,2901,1310,1039,1278,2804,2035,2812,1211,1912,1316,2793,2052,2884,1308,1040,1297,2806
1782219221.4088,6.3273,1,lf,0.0986,0.0986,-0.1000,0,0.3308,0.3318,-0.1022,-0.0004,0.0006,-0.0062,CLIMB,5,1,0,13.0,0.000,2.260,0,-1,0,-2.0,-13.0,-1.0,0.0,0.0,0.0,2037,2826,1212,1912,1298,2788,2050,2901,1310,1039,1278,2804,2035,2813,1211,1912,1316,2793,2052,2884,1308,1040,1297,2806
1782219221.4288,6.3473,1,lf,0.0986,0.0986,-0.1000,0,0.3309,0.3319,-0.1020,-0.0004,0.0005,-0.0063,CLIMB,5,1,0,13.0,0.000,2.280,0,-1,0,-2.0,-13.0,-1.0,0.0,0.0,0.0,2037,2826,1212,1912,1298,2788,2050,2901,1310,1039,1278,2804,2035,2813,1211,1912,1316,2793,2052,2884,1308,1040,1297,2806
1782219221.4489,6.3674,1,lf,0.0986,0.0986,-0.1000,0,0.3309,0.3319,-0.1020,-0.0005,0.0005,-0.0064,CLIMB,5,1,0,14.0,0.000,2.300,0,-1,0,-2.0,-14.0,-1.0,0.0,0.0,0.0,2037,2826,1212,1912,1298,2788,2050,2901,1310,1039,1278,2804,2035,2812,1211,1912,1316,2793,2052,2884,1308,1040,1297,2806
1782219221.4691,6.3876,1,lf,0.0986,0.0986,-0.1000,0,0.3308,0.3318,-0.1022,-0.0004,0.0006,-0.0063,CLIMB,5,1,0,14.0,0.000,2.320,0,-1,0,-2.0,-14.0,-1.0,0.0,0.0,0.0,2037,2826,1212,1912,1298,2788,2050,2901,1310,1039,1278,2804,2035,2812,1211,1912,1316,2793,2052,2884,1308,1040,1297,2806
1782219221.4889,6.4074,1,lf,0.0986,0.0986,-0.1000,0,0.3308,0.3318,-0.1022,-0.0004,0.0006,-0.0063,CLIMB,5,1,0,14.0,0.000,2.340,0,-1,0,-1.0,-14.0,-1.0,0.0,0.0,0.0,2037,2826,1212,1912,1298,2788,2050,2901,1310,1039,1278,2804,2035,2812,1211,1912,1316,2793,2052,2884,1308,1040,1297,2806
1782219221.5088,6.4273,1,lf,0.0986,0.0986,-0.1000,0,0.3308,0.3318,-0.1022,-0.0004,0.0006,-0.0062,CLIMB,5,1,0,14.0,0.000,2.360,0,-1,0,-1.0,-14.0,-1.0,0.0,0.0,0.0,2037,2826,1212,1912,1298,2788,2050,2901,1310,1039,1278,2804,2036,2812,1211,1912,1316,2793,2052,2884,1308,1040,1297,2806
1782219221.5289,6.4474,1,lf,0.0986,0.0986,-0.1000,0,0.3311,0.3315,-0.1022,-0.0005,0.0007,-0.0062,CLIMB,5,1,0,13.0,0.000,2.380,0,-1,0,-2.0,-13.0,-1.0,0.0,0.0,0.0,2037,2826,1212,1912,1298,2788,2050,2901,1310,1039,1278,2804,2036,2812,1211,1912,1316,2793,2052,2884,1308,1040,1297,2806
1782219221.5490,6.4675,1,lf,0.0986,0.0986,-0.1000,0,0.3311,0.3315,-0.1022,-0.0005,0.0008,-0.0062,CLIMB,5,1,0,14.0,0.000,2.400,0,-1,0,-1.0,-14.0,-1.0,0.0,0.0,0.0,2037,2826,1212,1912,1298,2788,2050,2901,1310,1039,1278,2804,2036,2812,1211,1912,1316,2793,2052,2884,1308,1040,1297,2806
1782219221.5688,6.4873,1,lf,0.0986,0.0986,-0.1000,0,0.3311,0.3315,-0.1022,-0.0005,0.0008,-0.0062,CLIMB,5,1,0,14.0,0.000,2.420,0,-1,0,-1.0,-14.0,-1.0,0.0,0.0,0.0,2037,2826,1212,1912,1298,2788,2050,2901,1310,1039,1278,2804,2036,2812,1211,1912,1316,2793,2052,2884,1308,1040,1297,2806
1782219221.5889,6.5074,1,lf,0.0986,0.0986,-0.1000,0,0.3311,0.3315,-0.1022,-0.0005,0.0009,-0.0062,CLIMB,5,1,0,14.0,0.000,2.440,0,-1,0,-2.0,-14.0,-1.0,0.0,0.0,0.0,2037,2826,1212,1912,1298,2788,2050,2901,1310,1039,1278,2804,2036,2812,1211,1912,1316,2793,2052,2884,1308,1040,1297,2806
1782219221.6089,6.5274,1,lf,0.0986,0.0986,-0.1000,0,0.3311,0.3315,-0.1022,-0.0006,0.0009,-0.0062,CLIMB,5,1,0,14.0,0.000,2.460,0,-1,0,-2.0,-14.0,0.0,0.0,0.0,0.0,2037,2826,1212,1912,1298,2788,2050,2901,1310,1039,1278,2804,2035,2812,1212,1912,1316,2794,2052,2884,1308,1040,1297,2806
1782219221.6289,6.5474,1,lf,0.0986,0.0986,-0.1000,0,0.3309,0.3318,-0.1022,-0.0005,0.0007,-0.0062,CLIMB,5,1,0,14.0,0.000,2.480,0,-1,0,-2.0,-14.0,0.0,0.0,0.0,0.0,2037,2826,1212,1912,1298,2788,2050,2901,1310,1039,1278,2804,2035,2812,1212,1912,1316,2794,2052,2884,1308,1040,1297,2806
1782219221.6489,6.5674,1,lf,0.0986,0.0986,-0.1000,0,0.3309,0.3318,-0.1022,-0.0005,0.0006,-0.0062,CLIMB,5,1,0,13.0,0.000,2.500,0,-1,0,-2.0,-13.0,-1.0,0.0,0.0,0.0,2037,2826,1212,1912,1298,2788,2050,2901,1310,1039,1278,2804,2035,2813,1211,1912,1316,2793,2052,2884,1308,1040,1297,2806
1782219221.6688,6.5873,1,lf,0.0986,0.0986,-0.1000,0,0.3309,0.3319,-0.1020,-0.0005,0.0006,-0.0063,CLIMB,5,1,0,13.0,0.000,2.520,0,-1,0,-2.0,-13.0,-1.0,0.0,0.0,0.0,2037,2826,1212,1912,1298,2788,2050,2901,1310,1039,1278,2804,2035,2813,1211,1912,1316,2793,2052,2884,1308,1040,1297,2806
1782219221.6889,6.6073,1,lf,0.0986,0.0986,-0.1000,0,0.3309,0.3319,-0.1020,-0.0005,0.0005,-0.0064,CLIMB,5,1,0,13.0,0.000,2.540,0,-1,0,-2.0,-13.0,-1.0,0.0,0.0,0.0,2037,2826,1212,1912,1298,2788,2050,2901,1310,1039,1278,2804,2035,2813,1211,1912,1316,2793,2052,2884,1308,1040,1297,2806
1782219221.7088,6.6273,1,lf,0.0986,0.0986,-0.1000,0,0.3309,0.3319,-0.1020,-0.0005,0.0005,-0.0064,CLIMB,5,1,0,13.0,0.000,2.560,0,-1,0,-2.0,-13.0,-1.0,0.0,0.0,0.0,2037,2826,1212,1912,1298,2788,2050,2901,1310,1039,1278,2804,2035,2813,1211,1912,1316,2794,2052,2884,1308,1040,1297,2806
1782219221.7289,6.6474,1,lf,0.0986,0.0986,-0.1000,0,0.3309,0.3319,-0.1020,-0.0005,0.0005,-0.0064,CLIMB,5,1,0,13.0,0.000,2.580,0,-1,0,-2.0,-13.0,-1.0,0.0,0.0,0.0,2037,2826,1212,1912,1298,2788,2050,2901,1310,1039,1278,2804,2035,2813,1211,1912,1316,2794,2052,2884,1308,1040,1297,2806
1782219221.7489,6.6673,1,lf,0.0986,0.0986,-0.1000,0,0.3309,0.3319,-0.1020,-0.0005,0.0005,-0.0064,CLIMB,5,1,0,14.0,0.000,2.600,0,-1,0,-1.0,-14.0,-1.0,0.0,0.0,0.0,2037,2826,1212,1912,1298,2788,2050,2901,1310,1039,1278,2804,2036,2812,1211,1912,1316,2793,2052,2884,1308,1040,1297,2806
1782219221.7687,6.6872,1,lf,0.0986,0.0986,-0.1000,0,0.3311,0.3315,-0.1022,-0.0005,0.0007,-0.0063,CLIMB,5,1,0,14.0,0.000,2.620,0,-1,0,-1.0,-14.0,-1.0,0.0,0.0,0.0,2037,2826,1212,1912,1298,2788,2050,2901,1310,1039,1278,2804,2036,2812,1211,1912,1316,2793,2052,2884,1308,1040,1297,2806
1782219221.7888,6.7073,1,lf,0.0986,0.0986,-0.1000,0,0.3311,0.3315,-0.1022,-0.0005,0.0008,-0.0063,CLIMB,5,1,0,14.0,0.000,2.640,0,-1,0,-1.0,-14.0,-1.0,0.0,0.0,0.0,2037,2826,1212,1912,1298,2788,2050,2901,1310,1039,1278,2804,2036,2812,1211,1912,1316,2793,2052,2884,1308,1040,1297,2806
1782219221.8088,6.7273,1,lf,0.0986,0.0986,-0.1000,0,0.3311,0.3315,-0.1022,-0.0006,0.0008,-0.0063,CLIMB,5,1,0,13.0,0.000,2.660,0,-1,0,-1.0,-13.0,-1.0,0.0,0.0,0.0,2037,2826,1212,1912,1298,2788,2050,2901,1310,1039,1278,2804,2036,2813,1211,1912,1316,2793,2052,2884,1308,1040,1297,2806
1782219221.8288,6.7473,1,lf,0.0986,0.0986,-0.1000,0,0.3312,0.3316,-0.1020,-0.0006,0.0008,-0.0064,CLIMB,5,1,0,13.0,0.000,2.680,0,-1,0,-1.0,-13.0,-1.0,0.0,0.0,0.0,2037,2826,1212,1912,1298,2788,2050,2901,1310,1039,1278,2804,2036,2813,1211,1912,1316,2793,2052,2884,1308,1040,1297,2806
1782219221.8488,6.7673,1,lf,0.0986,0.0986,-0.1000,0,0.3312,0.3316,-0.1020,-0.0007,0.0008,-0.0064,CLIMB,5,1,0,14.0,0.000,2.700,0,-1,0,-1.0,-14.0,-1.0,0.0,0.0,0.0,2037,2826,1212,1912,1298,2788,2050,2901,1310,1039,1278,2804,2036,2812,1211,1912,1316,2793,2052,2884,1308,1040,1297,2806
1782219221.8688,6.7873,1,lf,0.0986,0.0986,-0.1000,0,0.3311,0.3315,-0.1022,-0.0006,0.0009,-0.0063,CLIMB,5,1,0,14.0,0.000,2.720,0,-1,0,-2.0,-14.0,-1.0,0.0,0.0,0.0,2037,2826,1212,1912,1298,2788,2050,2901,1310,1039,1278,2804,2036,2812,1211,1912,1316,2793,2052,2884,1308,1040,1297,2806
1782219221.8888,6.8073,1,lf,0.0986,0.0986,-0.1000,0,0.3311,0.3315,-0.1022,-0.0006,0.0009,-0.0063,CLIMB,5,1,0,14.0,0.000,2.740,0,-1,0,-2.0,-14.0,-1.0,0.0,0.0,0.0,2037,2826,1212,1912,1298,2788,2050,2901,1310,1039,1278,2804,2036,2812,1211,1912,1316,2793,2052,2884,1308,1040,1297,2806
1782219221.9087,6.8272,1,lf,0.0986,0.0986,-0.1000,0,0.3311,0.3315,-0.1022,-0.0006,0.0009,-0.0062,CLIMB,5,1,0,14.0,0.000,2.760,0,-1,0,-2.0,-14.0,-1.0,0.0,0.0,0.0,2037,2826,1212,1912,1298,2788,2050,2901,1310,1039,1278,2804,2035,2812,1211,1912,1316,2793,2052,2884,1308,1040,1297,2806
1782219221.9288,6.8473,1,lf,0.0986,0.0986,-0.1000,0,0.3308,0.3318,-0.1022,-0.0005,0.0008,-0.0062,CLIMB,5,1,0,14.0,0.000,2.780,0,-1,0,-2.0,-14.0,-1.0,0.0,0.0,0.0,2037,2826,1212,1912,1298,2788,2050,2901,1310,1039,1278,2804,2035,2812,1211,1912,1316,2793,2052,2884,1308,1040,1297,2806
1782219221.9488,6.8673,1,lf,0.0986,0.0986,-0.1000,0,0.3308,0.3318,-0.1022,-0.0004,0.0007,-0.0062,CLIMB,5,1,0,14.0,0.000,2.800,0,-1,0,-2.0,-14.0,-1.0,0.0,0.0,0.0,2037,2826,1212,1912,1298,2788,2050,2901,1310,1039,1278,2804,2036,2812,1211,1912,1316,2794,2052,2884,1308,1040,1297,2806
1782219221.9688,6.8873,1,lf,0.0986,0.0986,-0.1000,0,0.3311,0.3315,-0.1022,-0.0005,0.0008,-0.0062,CLIMB,5,1,0,14.0,0.000,2.820,0,-1,0,-1.0,-14.0,-1.0,0.0,0.0,0.0,2037,2826,1212,1912,1298,2788,2050,2901,1310,1039,1278,2804,2036,2812,1211,1912,1316,2794,2052,2884,1308,1040,1297,2806
1782219221.9888,6.9073,1,lf,0.0986,0.0986,-0.1000,0,0.3311,0.3315,-0.1022,-0.0005,0.0009,-0.0062,CLIMB,5,1,0,14.0,0.000,2.840,0,-1,0,-1.0,-14.0,-1.0,0.0,0.0,0.0,2037,2826,1212,1912,1298,2788,2050,2901,1310,1039,1278,2804,2036,2812,1211,1912,1316,2794,2052,2884,1308,1040,1297,2806
1782219222.0089,6.9274,1,lf,0.0986,0.0986,-0.1000,0,0.3311,0.3315,-0.1022,-0.0005,0.0009,-0.0062,CLIMB,5,1,0,14.0,0.000,2.860,0,-1,0,-2.0,-14.0,-1.0,0.0,0.0,0.0,2037,2826,1212,1912,1298,2788,2050,2901,1310,1039,1278,2804,2035,2812,1211,1912,1316,2794,2052,2884,1308,1040,1297,2806
1782219222.0289,6.9474,1,lf,0.0986,0.0986,-0.1000,0,0.3308,0.3318,-0.1022,-0.0005,0.0007,-0.0062,CLIMB,5,1,0,14.0,0.000,2.880,0,-1,0,-2.0,-14.0,-1.0,0.0,0.0,0.0,2037,2826,1212,1912,1298,2788,2050,2901,1310,1039,1278,2804,2035,2812,1211,1912,1316,2794,2052,2884,1308,1040,1297,2806
1782219222.0489,6.9674,1,lf,0.0986,0.0986,-0.1000,0,0.3308,0.3318,-0.1022,-0.0004,0.0007,-0.0062,CLIMB,5,1,0,14.0,0.000,2.900,0,-1,0,-2.0,-14.0,-1.0,0.0,0.0,0.0,2037,2826,1212,1912,1298,2788,2050,2901,1310,1039,1278,2804,2036,2812,1211,1912,1316,2793,2052,2884,1308,1040,1297,2806
1782219222.0689,6.9874,1,lf,0.0986,0.0986,-0.1000,0,0.3311,0.3315,-0.1022,-0.0005,0.0008,-0.0062,CLIMB,5,1,0,14.0,0.000,2.920,0,-1,0,-1.0,-14.0,-1.0,0.0,0.0,0.0,2037,2826,1212,1912,1298,2788,2050,2901,1310,1039,1278,2804,2036,2812,1211,1912,1316,2793,2052,2884,1308,1040,1297,2806
1782219222.0888,7.0073,1,lf,0.0986,0.0986,-0.1000,0,0.3311,0.3315,-0.1022,-0.0005,0.0008,-0.0062,CLIMB,5,1,0,14.0,0.000,2.940,0,-1,0,-1.0,-14.0,-1.0,0.0,0.0,0.0,2037,2826,1212,1912,1298,2788,2050,2901,1310,1039,1278,2804,2036,2812,1211,1912,1316,2793,2052,2884,1308,1040,1297,2806
1782219222.1088,7.0273,1,lf,0.0986,0.0986,-0.1000,0,0.3311,0.3315,-0.1022,-0.0005,0.0009,-0.0062,CLIMB,5,1,0,14.0,0.000,2.960,0,-1,0,-1.0,-14.0,-1.0,0.0,0.0,0.0,2037,2826,1212,1912,1298,2788,2050,2901,1310,1039,1278,2804,2036,2812,1211,1912,1316,2793,2052,2884,1308,1040,1297,2806
1782219222.1288,7.0473,1,lf,0.0986,0.0986,-0.1000,0,0.3311,0.3315,-0.1022,-0.0005,0.0009,-0.0062,CLIMB,5,1,0,13.0,0.000,2.980,0,-1,0,-1.0,-13.0,-1.0,0.0,0.0,0.0,2037,2826,1212,1912,1298,2788,2050,2901,1310,1039,1278,2804,2036,2812,1211,1912,1316,2793,2052,2884,1308,1040,1297,2806
1782219222.1488,7.0673,1,lf,0.0986,0.0986,-0.1000,0,0.3311,0.3315,-0.1022,-0.0006,0.0009,-0.0062,CLIMB,5,1,0,13.0,0.000,3.000,0,-1,0,-1.0,-13.0,-1.0,0.0,0.0,0.0,2037,2826,1212,1912,1298,2788,2050,2901,1310,1039,1278,2804,2036,2812,1211,1912,1316,2793,2052,2884,1308,1040,1297,2806
1782219222.1688,7.0872,1,lf,0.0986,0.0986,-0.1000,0,0.3311,0.3315,-0.1022,-0.0006,0.0009,-0.0062,CLIMB,5,1,0,14.0,0.000,3.020,1,-1,0,-1.0,-14.0,-1.0,0.0,0.0,0.0,2037,2826,1212,1912,1298,2788,2050,2901,1310,1039,1278,2804,2036,2812,1211,1912,1316,2793,2052,2884,1308,1040,1297,2806
1782219222.1889,7.1074,1,lf,0.0986,0.0986,-0.1000,0,0.3311,0.3315,-0.1022,-0.0006,0.0009,-0.0062,CLIMB,5,1,0,14.0,0.000,3.040,1,-1,0,-1.0,-14.0,-1.0,0.0,0.0,0.0,2037,2826,1212,1912,1298,2788,2050,2901,1310,1039,1278,2804,2036,2812,1211,1912,1316,2793,2052,2884,1308,1040,1297,2806
1782219222.2088,7.1273,1,lf,0.0986,0.0986,-0.1000,0,0.3311,0.3315,-0.1022,-0.0006,0.0009,-0.0062,CLIMB,5,1,0,14.0,0.000,3.060,1,-1,0,-1.0,-14.0,-1.0,0.0,0.0,0.0,2037,2826,1212,1912,1298,2788,2050,2901,1310,1039,1278,2804,2036,2812,1211,1912,1316,2793,2052,2884,1308,1040,1297,2806
1782219222.2289,7.1474,1,lf,0.0986,0.0986,-0.1000,0,0.3311,0.3315,-0.1022,-0.0006,0.0009,-0.0062,CLIMB,5,1,0,14.0,0.000,3.080,1,-1,0,-1.0,-14.0,-1.0,0.0,0.0,0.0,2037,2826,1212,1912,1298,2788,2050,2901,1310,1039,1278,2804,2036,2812,1211,1912,1316,2793,2052,2884,1308,1040,1297,2806
1782219222.2489,7.1674,1,lf,0.0986,0.0986,-0.1000,0,0.3311,0.3315,-0.1022,-0.0006,0.0009,-0.0062,CLIMB,5,1,0,14.0,0.000,3.100,1,-1,0,-1.0,-14.0,-1.0,0.0,0.0,0.0,2037,2826,1212,1912,1298,2788,2050,2901,1310,1039,1278,2804,2036,2812,1211,1912,1316,2793,2052,2884,1308,1040,1297,2806
1782219222.2690,7.1875,1,lf,0.0986,0.0986,-0.1000,0,0.3311,0.3315,-0.1022,-0.0006,0.0009,-0.0062,CLIMB,5,1,0,14.0,0.000,3.120,1,-1,0,-1.0,-14.0,-1.0,0.0,0.0,0.0,2037,2826,1212,1912,1298,2788,2050,2901,1310,1039,1278,2804,2036,2812,1211,1912,1316,2793,2052,2884,1308,1040,1297,2806
1782219222.2888,7.2073,1,lf,0.0986,0.0986,-0.1000,0,0.3311,0.3315,-0.1022,-0.0006,0.0009,-0.0062,CLIMB,5,1,0,14.0,0.000,3.140,1,-1,0,-1.0,-14.0,-1.0,0.0,0.0,0.0,2037,2826,1212,1912,1298,2788,2050,2901,1310,1039,1278,2804,2036,2812,1211,1912,1316,2793,2052,2884,1308,1040,1297,2806
1782219222.3089,7.2274,1,lf,0.0986,0.0986,-0.1000,0,0.3311,0.3315,-0.1022,-0.0006,0.0009,-0.0062,CLIMB,5,1,0,14.0,0.000,3.160,1,-1,0,-1.0,-14.0,-1.0,0.0,0.0,0.0,2037,2826,1212,1912,1298,2788,2050,2901,1310,1039,1278,2804,2036,2812,1211,1912,1316,2793,2052,2884,1308,1040,1297,2806
1782219222.3289,7.2474,1,lf,0.0986,0.0986,-0.1000,0,0.3311,0.3315,-0.1022,-0.0006,0.0009,-0.0062,CLIMB,5,1,0,13.0,0.000,3.180,1,-1,0,-2.0,-13.0,-1.0,0.0,0.0,0.0,2037,2826,1212,1912,1298,2788,2050,2901,1310,1039,1278,2804,2036,2812,1211,1912,1316,2793,2052,2884,1308,1040,1297,2806
1782219222.3488,7.2673,1,lf,0.0986,0.0986,-0.1000,0,0.3311,0.3315,-0.1022,-0.0006,0.0009,-0.0062,CLIMB,5,1,0,14.0,0.000,3.200,1,-1,0,-2.0,-14.0,-1.0,0.0,0.0,0.0,2037,2826,1212,1912,1298,2788,2050,2901,1310,1039,1278,2804,2035,2812,1211,1912,1316,2793,2052,2884,1308,1040,1297,2806
1782219222.3689,7.2873,1,lf,0.0986,0.0986,-0.1000,0,0.3308,0.3318,-0.1022,-0.0005,0.0008,-0.0062,CLIMB,5,1,0,14.0,0.000,3.220,1,-1,0,-2.0,-14.0,-1.0,0.0,0.0,0.0,2037,2826,1212,1912,1298,2788,2050,2901,1310,1039,1278,2804,2035,2812,1211,1912,1316,2793,2052,2884,1308,1040,1297,2806
1782219222.3888,7.3073,1,lf,0.0986,0.0986,-0.1000,0,0.3308,0.3318,-0.1022,-0.0004,0.0007,-0.0062,CLIMB,5,1,0,13.0,0.000,3.240,1,-1,0,-1.0,-13.0,-1.0,0.0,0.0,0.0,2037,2826,1212,1912,1298,2788,2050,2901,1310,1039,1278,2804,2035,2812,1211,1912,1316,2793,2052,2884,1308,1040,1297,2806
1782219222.4089,7.3273,1,lf,0.0986,0.0986,-0.1000,0,0.3308,0.3318,-0.1022,-0.0004,0.0007,-0.0062,CLIMB,5,1,0,14.0,0.000,3.260,1,-1,0,-1.0,-14.0,-1.0,0.0,0.0,0.0,2037,2826,1212,1912,1298,2788,2050,2901,1310,1039,1278,2804,2036,2812,1211,1912,1316,2793,2052,2884,1308,1040,1297,2806
1782219222.4288,7.3473,1,lf,0.0986,0.0986,-0.1000,0,0.3311,0.3315,-0.1022,-0.0005,0.0008,-0.0062,CLIMB,5,1,0,14.0,0.000,3.280,1,-1,0,-1.0,-14.0,-1.0,0.0,0.0,0.0,2037,2826,1212,1912,1298,2788,2050,2901,1310,1039,1278,2804,2036,2812,1211,1912,1316,2793,2052,2884,1308,1040,1297,2806
1782219222.4488,7.3673,1,lf,0.0986,0.0986,-0.1000,0,0.3311,0.3315,-0.1022,-0.0005,0.0009,-0.0062,CLIMB,5,1,0,13.0,0.000,3.300,1,-1,0,-1.0,-13.0,-1.0,0.0,0.0,0.0,2037,2826,1212,1912,1298,2788,2050,2901,1310,1039,1278,2804,2036,2813,1211,1912,1316,2793,2052,2884,1308,1040,1297,2806
1782219222.4688,7.3873,1,lf,0.0986,0.0986,-0.1000,0,0.3312,0.3316,-0.1020,-0.0006,0.0008,-0.0063,CLIMB,5,1,0,13.0,0.000,3.320,1,-1,0,-1.0,-13.0,-1.0,0.0,0.0,0.0,2037,2826,1212,1912,1298,2788,2050,2901,1310,1039,1278,2804,2036,2813,1211,1912,1316,2793,2052,2884,1308,1040,1297,2806
1782219222.4888,7.4073,1,lf,0.0986,0.0986,-0.1000,0,0.3312,0.3316,-0.1020,-0.0007,0.0008,-0.0064,CLIMB,5,1,0,13.0,0.000,3.340,1,-1,0,-2.0,-13.0,-1.0,0.0,0.0,0.0,2037,2826,1212,1912,1298,2788,2050,2901,1310,1039,1278,2804,2036,2813,1211,1912,1316,2793,2052,2884,1308,1040,1297,2806
1782219222.5088,7.4273,1,lf,0.0986,0.0986,-0.1000,0,0.3312,0.3316,-0.1020,-0.0007,0.0008,-0.0064,CLIMB,5,1,0,13.0,0.000,3.360,1,-1,0,-2.0,-13.0,-1.0,0.0,0.0,0.0,2037,2826,1212,1912,1298,2788,2050,2901,1310,1039,1278,2804,2035,2813,1211,1912,1316,2793,2052,2884,1308,1040,1297,2806
1782219222.5289,7.4474,1,lf,0.0986,0.0986,-0.1000,0,0.3309,0.3319,-0.1020,-0.0006,0.0007,-0.0064,CLIMB,5,1,0,13.0,0.000,3.380,1,-1,0,-2.0,-13.0,-1.0,0.0,0.0,0.0,2037,2826,1212,1912,1298,2788,2050,2901,1310,1039,1278,2804,2035,2813,1211,1912,1316,2793,2052,2884,1308,1040,1297,2806
1782219222.5489,7.4674,1,lf,0.0986,0.0986,-0.1000,0,0.3309,0.3319,-0.1020,-0.0006,0.0006,-0.0064,CLIMB,5,1,0,13.0,0.000,3.400,1,-1,0,-2.0,-13.0,-1.0,0.0,0.0,0.0,2037,2826,1212,1912,1298,2788,2050,2901,1310,1039,1278,2804,2035,2813,1211,1912,1316,2793,2052,2884,1308,1040,1297,2806
1782219222.5689,7.4873,1,lf,0.0986,0.0986,-0.1000,0,0.3309,0.3319,-0.1020,-0.0006,0.0006,-0.0064,CLIMB,5,1,0,14.0,0.000,3.420,1,-1,0,-1.0,-14.0,-1.0,0.0,0.0,0.0,2037,2826,1212,1912,1298,2788,2050,2901,1310,1039,1278,2804,2035,2813,1211,1912,1316,2793,2052,2884,1308,1040,1297,2806
1782219222.5890,7.5075,1,lf,0.0986,0.0986,-0.1000,0,0.3309,0.3319,-0.1020,-0.0005,0.0005,-0.0064,CLIMB,5,1,0,14.0,0.000,3.440,1,-1,0,-1.0,-14.0,-1.0,0.0,0.0,0.0,2037,2826,1212,1912,1298,2788,2050,2901,1310,1039,1278,2804,2035,2813,1211,1912,1316,2793,2052,2884,1308,1040,1297,2806
1782219222.6088,7.5273,1,lf,0.0986,0.0986,-0.1000,0,0.3309,0.3319,-0.1020,-0.0005,0.0005,-0.0064,CLIMB,5,1,0,14.0,0.000,3.460,1,-1,0,-1.0,-14.0,-1.0,0.0,0.0,0.0,2037,2826,1212,1912,1298,2788,2050,2901,1310,1039,1278,2804,2036,2812,1211,1912,1316,2793,2052,2884,1308,1040,1297,2806
1782219222.6290,7.5475,1,lf,0.0986,0.0986,-0.1000,0,0.3311,0.3315,-0.1022,-0.0005,0.0007,-0.0063,CLIMB,5,1,0,14.0,0.000,3.480,1,-1,0,-1.0,-14.0,-1.0,0.0,0.0,0.0,2037,2826,1212,1912,1298,2788,2050,2901,1310,1039,1278,2804,2036,2812,1211,1912,1316,2793,2052,2884,1308,1040,1297,2806
1782219222.6489,7.5674,1,lf,0.0986,0.0986,-0.1000,0,0.3311,0.3315,-0.1022,-0.0006,0.0008,-0.0063,CLIMB,5,1,0,13.0,0.000,3.500,1,-1,0,-1.0,-13.0,-1.0,0.0,0.0,0.0,2037,2826,1212,1912,1298,2788,2050,2901,1310,1039,1278,2804,2036,2813,1211,1912,1316,2793,2052,2884,1308,1040,1297,2806
1782219222.6690,7.5875,1,lf,0.0986,0.0986,-0.1000,0,0.3312,0.3316,-0.1020,-0.0006,0.0008,-0.0063,CLIMB,5,1,0,14.0,0.000,3.520,1,-1,0,-1.0,-14.0,-1.0,0.0,0.0,0.0,2037,2826,1212,1912,1298,2788,2050,2901,1310,1039,1278,2804,2036,2813,1211,1912,1316,2793,2052,2884,1308,1040,1297,2806
1782219222.6889,7.6074,1,lf,0.0986,0.0986,-0.1000,0,0.3312,0.3316,-0.1020,-0.0007,0.0008,-0.0064,CLIMB,5,1,0,14.0,0.000,3.540,1,-1,0,-1.0,-14.0,-1.0,0.0,0.0,0.0,2037,2826,1212,1912,1298,2788,2050,2901,1310,1039,1278,2804,2036,2813,1211,1912,1316,2793,2052,2884,1308,1040,1297,2806
1782219222.7089,7.6274,1,lf,0.0986,0.0986,-0.1000,0,0.3312,0.3316,-0.1020,-0.0007,0.0008,-0.0064,CLIMB,5,1,0,14.0,0.000,3.560,1,-1,0,-2.0,-14.0,-1.0,0.0,0.0,0.0,2037,2826,1212,1912,1298,2788,2050,2901,1310,1039,1278,2804,2035,2812,1211,1912,1316,2793,2052,2884,1308,1040,1297,2806
1782219222.7289,7.6474,1,lf,0.0986,0.0986,-0.1000,0,0.3308,0.3318,-0.1022,-0.0005,0.0007,-0.0063,CLIMB,5,1,0,14.0,0.000,3.580,1,-1,0,-1.0,-14.0,-1.0,0.0,0.0,0.0,2037,2826,1212,1912,1298,2788,2050,2901,1310,1039,1278,2804,2035,2812,1211,1912,1316,2793,2052,2884,1308,1040,1297,2806
1782219222.7488,7.6673,1,lf,0.0986,0.0986,-0.1000,0,0.3308,0.3318,-0.1022,-0.0005,0.0007,-0.0062,CLIMB,5,1,0,14.0,0.000,3.600,1,-1,0,-1.0,-14.0,-1.0,0.0,0.0,0.0,2037,2826,1212,1912,1298,2788,2050,2901,1310,1039,1278,2804,2035,2812,1211,1912,1316,2793,2052,2884,1308,1040,1297,2806
1782219222.7688,7.6873,1,lf,0.0986,0.0986,-0.1000,0,0.3308,0.3318,-0.1022,-0.0004,0.0007,-0.0062,CLIMB,5,1,0,14.0,0.000,3.620,1,-1,0,-2.0,-14.0,-1.0,0.0,0.0,0.0,2037,2826,1212,1912,1298,2788,2050,2901,1310,1039,1278,2804,2035,2812,1211,1912,1316,2793,2052,2884,1308,1040,1297,2806
1782219222.7890,7.7075,1,lf,0.0986,0.0986,-0.1000,0,0.3308,0.3318,-0.1022,-0.0004,0.0006,-0.0062,CLIMB,5,1,0,14.0,0.000,3.640,1,-1,0,-2.0,-14.0,-1.0,0.0,0.0,0.0,2037,2826,1212,1912,1298,2788,2050,2901,1310,1039,1278,2804,2035,2812,1211,1912,1316,2793,2052,2884,1308,1040,1297,2806
1782219222.8089,7.7274,1,lf,0.0986,0.0986,-0.1000,0,0.3308,0.3318,-0.1022,-0.0004,0.0006,-0.0062,CLIMB,5,1,0,14.0,0.000,3.660,1,-1,0,-2.0,-14.0,-1.0,0.0,0.0,0.0,2037,2826,1212,1912,1298,2788,2050,2901,1310,1039,1278,2804,2035,2812,1211,1912,1316,2793,2052,2884,1308,1040,1297,2806
1782219222.8288,7.7473,1,lf,0.0986,0.0986,-0.1000,0,0.3308,0.3318,-0.1022,-0.0004,0.0006,-0.0062,CLIMB,5,1,0,13.0,0.000,3.680,1,-1,0,-2.0,-13.0,-1.0,0.0,0.0,0.0,2037,2826,1212,1912,1298,2788,2050,2901,1310,1039,1278,2804,2035,2812,1211,1912,1316,2793,2052,2884,1308,1040,1297,2806
1782219222.8488,7.7673,1,lf,0.0986,0.0986,-0.1000,0,0.3308,0.3318,-0.1022,-0.0004,0.0006,-0.0062,CLIMB,5,1,0,13.0,0.000,3.700,1,-1,0,-2.0,-13.0,-1.0,0.0,0.0,0.0,2037,2826,1212,1912,1298,2788,2050,2901,1310,1039,1278,2804,2036,2812,1211,1912,1316,2793,2052,2884,1308,1040,1297,2806
1782219222.8688,7.7873,1,lf,0.0986,0.0986,-0.1000,0,0.3311,0.3315,-0.1022,-0.0005,0.0008,-0.0062,CLIMB,5,1,0,14.0,0.000,3.720,1,-1,0,-1.0,-14.0,-1.0,0.0,0.0,0.0,2037,2826,1212,1912,1298,2788,2050,2901,1310,1039,1278,2804,2036,2812,1211,1912,1316,2793,2052,2884,1308,1040,1297,2806
1782219222.8889,7.8073,1,lf,0.0986,0.0986,-0.1000,0,0.3311,0.3315,-0.1022,-0.0005,0.0008,-0.0062,CLIMB,5,1,0,13.0,0.000,3.740,1,-1,0,-1.0,-13.0,-1.0,0.0,0.0,0.0,2037,2826,1212,1912,1298,2788,2050,2901,1310,1039,1278,2804,2036,2812,1211,1912,1316,2793,2052,2884,1308,1040,1297,2806
1782219222.9088,7.8273,1,lf,0.0986,0.0986,-0.1000,0,0.3311,0.3315,-0.1022,-0.0006,0.0009,-0.0062,CLIMB,5,1,0,13.0,0.000,3.760,1,-1,0,-1.0,-13.0,-1.0,0.0,0.0,0.0,2037,2826,1212,1912,1298,2788,2050,2901,1310,1039,1278,2804,2036,2813,1211,1912,1316,2793,2052,2884,1308,1040,1297,2806
1782219222.9288,7.8473,1,lf,0.0986,0.0986,-0.1000,0,0.3312,0.3316,-0.1020,-0.0006,0.0008,-0.0063,CLIMB,5,1,0,14.0,0.000,3.780,1,-1,0,-2.0,-14.0,-1.0,0.0,0.0,0.0,2037,2826,1212,1912,1298,2788,2050,2901,1310,1039,1278,2804,2036,2813,1211,1912,1316,2793,2052,2884,1308,1040,1297,2806
1782219222.9488,7.8673,1,lf,0.0986,0.0986,-0.1000,0,0.3312,0.3316,-0.1020,-0.0007,0.0008,-0.0064,CLIMB,5,1,0,14.0,0.000,3.800,1,-1,0,-2.0,-14.0,-1.0,0.0,0.0,0.0,2037,2826,1212,1912,1298,2788,2050,2901,1310,1039,1278,2804,2036,2813,1211,1912,1316,2793,2052,2884,1308,1040,1297,2806
1782219222.9689,7.8874,1,lf,0.0986,0.0986,-0.1000,0,0.3312,0.3316,-0.1020,-0.0007,0.0008,-0.0064,CLIMB,5,1,0,13.0,0.000,3.820,1,-1,0,-1.0,-13.0,-1.0,0.0,0.0,0.0,2037,2826,1212,1912,1298,2788,2050,2901,1310,1039,1278,2804,2036,2813,1211,1912,1316,2793,2052,2884,1308,1040,1297,2806
1782219222.9889,7.9074,1,lf,0.0986,0.0986,-0.1000,0,0.3312,0.3316,-0.1020,-0.0007,0.0008,-0.0064,CLIMB,5,1,0,14.0,0.000,3.840,1,-1,0,-2.0,-14.0,-1.0,0.0,0.0,0.0,2037,2826,1212,1912,1298,2788,2050,2901,1310,1039,1278,2804,2036,2813,1211,1912,1316,2793,2052,2884,1308,1040,1297,2806
1782219223.0091,7.9276,1,lf,0.0986,0.0986,-0.1000,0,0.3312,0.3316,-0.1020,-0.0007,0.0008,-0.0064,CLIMB,5,1,0,14.0,0.000,3.860,1,-1,0,-2.0,-14.0,-1.0,0.0,0.0,0.0,2037,2826,1212,1912,1298,2788,2050,2901,1310,1039,1278,2804,2035,2812,1211,1912,1316,2793,2052,2884,1308,1040,1297,2806
1782219223.0288,7.9473,1,lf,0.0986,0.0986,-0.1000,0,0.3308,0.3318,-0.1022,-0.0005,0.0007,-0.0063,CLIMB,5,1,0,14.0,0.000,3.880,1,-1,0,-1.0,-14.0,-1.0,0.0,0.0,0.0,2037,2826,1212,1912,1298,2788,2050,2901,1310,1039,1278,2804,2035,2812,1211,1912,1316,2793,2052,2884,1308,1040,1297,2806
1782219223.0489,7.9674,1,lf,0.0986,0.0986,-0.1000,0,0.3308,0.3318,-0.1022,-0.0005,0.0007,-0.0062,CLIMB,5,1,0,14.0,0.000,3.900,1,-1,0,-2.0,-14.0,-1.0,0.0,0.0,0.0,2037,2826,1212,1912,1298,2788,2050,2901,1310,1039,1278,2804,2035,2812,1211,1912,1316,2793,2052,2884,1308,1040,1297,2806
1782219223.0689,7.9874,1,lf,0.0986,0.0986,-0.1000,0,0.3308,0.3318,-0.1022,-0.0004,0.0006,-0.0062,CLIMB,5,1,0,14.0,0.000,3.920,1,-1,0,-2.0,-14.0,-1.0,0.0,0.0,0.0,2037,2826,1212,1912,1298,2788,2050,2901,1310,1039,1278,2804,2035,2812,1211,1912,1316,2793,2052,2884,1308,1040,1297,2806
1782219223.0888,8.0073,1,lf,0.0986,0.0986,-0.1000,0,0.3308,0.3318,-0.1022,-0.0004,0.0006,-0.0062,CLIMB,5,1,0,14.0,0.000,3.940,1,-1,0,-1.0,-14.0,-1.0,0.0,0.0,0.0,2037,2826,1212,1912,1298,2788,2050,2901,1310,1039,1278,2804,2035,2812,1211,1912,1316,2793,2052,2884,1308,1040,1297,2806
1782219223.1093,8.0278,1,lf,0.0986,0.0986,-0.1000,0,0.3308,0.3318,-0.1022,-0.0004,0.0006,-0.0062,CLIMB,5,1,0,14.0,0.000,3.960,1,-1,0,-1.0,-14.0,-1.0,0.0,0.0,0.0,2037,2826,1212,1912,1298,2788,2050,2901,1310,1039,1278,2804,2036,2812,1211,1912,1316,2793,2052,2884,1308,1040,1297,2806
1782219223.1289,8.0474,1,lf,0.0986,0.0986,-0.1000,0,0.3311,0.3315,-0.1022,-0.0005,0.0008,-0.0062,CLIMB,5,1,0,13.0,0.000,3.980,1,-1,0,-1.0,-13.0,-1.0,0.0,0.0,0.0,2037,2826,1212,1912,1298,2788,2050,2901,1310,1039,1278,2804,2036,2812,1211,1912,1316,2793,2052,2884,1308,1040,1297,2806
1782219223.1489,8.0674,1,lf,0.0986,0.0986,-0.1000,0,0.3311,0.3315,-0.1022,-0.0005,0.0009,-0.0062,CLIMB,5,1,0,14.0,0.000,4.000,1,-1,0,-1.0,-14.0,-1.0,0.0,0.0,0.0,2037,2826,1212,1912,1298,2788,2050,2901,1310,1039,1278,2804,2036,2812,1211,1912,1316,2793,2052,2884,1308,1040,1297,2806
1782219223.1688,8.0873,1,lf,0.0986,0.0986,-0.1000,0,0.3311,0.3315,-0.1022,-0.0006,0.0009,-0.0062,CLIMB,5,1,0,14.0,0.000,4.020,1,-1,0,-1.0,-14.0,-1.0,0.0,0.0,0.0,2037,2826,1212,1912,1298,2788,2050,2901,1310,1039,1278,2804,2036,2812,1211,1912,1316,2793,2052,2884,1308,1040,1297,2806
1782219223.1887,8.1072,1,lf,0.0986,0.0986,-0.1000,0,0.3311,0.3315,-0.1022,-0.0006,0.0009,-0.0062,CLIMB,5,1,0,14.0,0.000,4.040,1,-1,0,-2.0,-14.0,-1.0,0.0,0.0,0.0,2037,2826,1212,1912,1298,2788,2050,2901,1310,1039,1278,2804,2036,2812,1211,1912,1316,2793,2052,2884,1308,1040,1297,2806
1782219223.2087,8.1272,1,lf,0.0986,0.0986,-0.1000,0,0.3311,0.3315,-0.1022,-0.0006,0.0009,-0.0062,CLIMB,5,1,0,14.0,0.000,4.060,1,-1,0,-2.0,-14.0,-1.0,0.0,0.0,0.0,2037,2826,1212,1912,1298,2788,2050,2901,1310,1039,1278,2804,2035,2812,1211,1912,1316,2793,2052,2884,1308,1040,1297,2806
1782219223.2287,8.1472,1,lf,0.0986,0.0986,-0.1000,0,0.3308,0.3318,-0.1022,-0.0005,0.0008,-0.0062,CLIMB,5,1,0,14.0,0.000,4.080,1,-1,0,-2.0,-14.0,-1.0,0.0,0.0,0.0,2037,2826,1212,1912,1298,2788,2050,2901,1310,1039,1278,2804,2035,2812,1211,1912,1316,2793,2052,2884,1308,1040,1297,2806
1782219223.2488,8.1673,1,lf,0.0986,0.0986,-0.1000,0,0.3308,0.3318,-0.1022,-0.0004,0.0007,-0.0062,CLIMB,5,1,0,14.0,0.000,4.100,1,-1,0,-1.0,-14.0,-1.0,0.0,0.0,0.0,2037,2826,1212,1912,1298,2788,2050,2901,1310,1039,1278,2804,2036,2812,1211,1912,1316,2793,2052,2884,1308,1040,1297,2806
1782219223.2689,8.1874,1,lf,0.0986,0.0986,-0.1000,0,0.3311,0.3315,-0.1022,-0.0005,0.0008,-0.0062,CLIMB,5,1,0,14.0,0.000,4.120,1,-1,0,-1.0,-14.0,-1.0,0.0,0.0,0.0,2037,2826,1212,1912,1298,2788,2050,2901,1310,1039,1278,2804,2036,2812,1211,1912,1316,2793,2052,2884,1308,1040,1297,2806
1782219223.2891,8.2075,1,lf,0.0986,0.0986,-0.1000,0,0.3311,0.3315,-0.1022,-0.0005,0.0009,-0.0062,CLIMB,5,1,0,14.0,0.000,4.140,1,-1,0,-2.0,-14.0,-1.0,0.0,0.0,0.0,2037,2826,1212,1912,1298,2788,2050,2901,1310,1039,1278,2804,2036,2812,1211,1912,1316,2793,2052,2884,1308,1040,1297,2806
1782219223.3091,8.2276,1,lf,0.0986,0.0986,-0.1000,0,0.3311,0.3315,-0.1022,-0.0006,0.0009,-0.0062,CLIMB,5,1,0,13.0,0.000,4.160,1,-1,0,-2.0,-13.0,-1.0,0.0,0.0,0.0,2037,2826,1212,1912,1298,2788,2050,2901,1310,1039,1278,2804,2035,2813,1211,1912,1316,2793,2052,2884,1308,1040,1297,2806
1782219223.3289,8.2474,1,lf,0.0986,0.0986,-0.1000,0,0.3309,0.3319,-0.1020,-0.0005,0.0007,-0.0063,CLIMB,5,1,0,13.0,0.000,4.180,1,-1,0,-2.0,-13.0,-1.0,0.0,0.0,0.0,2037,2826,1212,1912,1298,2788,2050,2901,1310,1039,1278,2804,2035,2813,1211,1912,1316,2793,2052,2884,1308,1040,1297,2806
1782219223.3488,8.2673,1,lf,0.0986,0.0986,-0.1000,0,0.3309,0.3319,-0.1020,-0.0005,0.0006,-0.0064,CLIMB,5,1,0,14.0,0.000,4.200,1,-1,0,-1.0,-14.0,-1.0,0.0,0.0,0.0,2037,2826,1212,1912,1298,2788,2050,2901,1310,1039,1278,2804,2035,2813,1211,1912,1316,2793,2052,2884,1308,1040,1297,2806
1782219223.3688,8.2873,1,lf,0.0986,0.0986,-0.1000,0,0.3309,0.3319,-0.1020,-0.0005,0.0006,-0.0064,CLIMB,5,1,0,13.0,0.000,4.220,1,-1,0,-2.0,-13.0,-1.0,0.0,0.0,0.0,2037,2826,1212,1912,1298,2788,2050,2901,1310,1039,1278,2804,2036,2812,1211,1912,1316,2793,2052,2884,1308,1040,1297,2806
1782219223.3889,8.3074,1,lf,0.0986,0.0986,-0.1000,0,0.3311,0.3315,-0.1022,-0.0006,0.0008,-0.0063,CLIMB,5,1,0,13.0,0.000,4.240,1,-1,0,-2.0,-13.0,-1.0,0.0,0.0,0.0,2037,2826,1212,1912,1298,2788,2050,2901,1310,1039,1278,2804,2036,2812,1211,1912,1316,2793,2052,2884,1308,1040,1297,2806
1782219223.4089,8.3274,1,lf,0.0986,0.0986,-0.1000,0,0.3311,0.3315,-0.1022,-0.0006,0.0008,-0.0063,CLIMB,5,1,0,14.0,0.000,4.260,1,-1,0,-2.0,-14.0,-1.0,0.0,0.0,0.0,2037,2826,1212,1912,1298,2788,2050,2901,1310,1039,1278,2804,2035,2812,1211,1912,1316,2793,2052,2884,1308,1040,1297,2806
1782219223.4288,8.3473,1,lf,0.0986,0.0986,-0.1000,0,0.3308,0.3318,-0.1022,-0.0005,0.0007,-0.0062,CLIMB,5,1,0,14.0,0.000,4.280,1,-1,0,-2.0,-14.0,-1.0,0.0,0.0,0.0,2037,2826,1212,1912,1298,2788,2050,2901,1310,1039,1278,2804,2035,2812,1211,1912,1316,2793,2052,2884,1308,1040,1297,2806
1782219223.4489,8.3674,1,lf,0.0986,0.0986,-0.1000,0,0.3308,0.3318,-0.1022,-0.0004,0.0007,-0.0062,CLIMB,5,1,0,13.0,0.000,4.300,1,-1,0,-2.0,-13.0,-1.0,0.0,0.0,0.0,2037,2826,1212,1912,1298,2788,2050,2901,1310,1039,1278,2804,2035,2813,1211,1912,1316,2793,2052,2884,1308,1040,1297,2806
1782219223.4688,8.3873,1,lf,0.0986,0.0986,-0.1000,0,0.3309,0.3319,-0.1020,-0.0005,0.0006,-0.0063,CLIMB,5,1,0,13.0,0.000,4.320,1,-1,0,-1.0,-13.0,-1.0,0.0,0.0,0.0,2037,2826,1212,1912,1298,2788,2050,2901,1310,1039,1278,2804,2035,2813,1211,1912,1316,2793,2052,2884,1308,1040,1297,2806
1782219223.4889,8.4074,1,lf,0.0986,0.0986,-0.1000,0,0.3309,0.3319,-0.1020,-0.0005,0.0006,-0.0063,CLIMB,5,1,0,13.0,0.000,4.340,1,-1,0,-1.0,-13.0,-1.0,0.0,0.0,0.0,2037,2826,1212,1912,1298,2788,2050,2901,1310,1039,1278,2804,2035,2813,1211,1912,1316,2793,2052,2884,1308,1040,1297,2806
1782219223.5088,8.4272,1,lf,0.0986,0.0986,-0.1000,0,0.3309,0.3319,-0.1020,-0.0005,0.0006,-0.0064,CLIMB,5,1,0,13.0,0.000,4.360,1,-1,0,-2.0,-13.0,-1.0,0.0,0.0,0.0,2037,2826,1212,1912,1298,2788,2050,2901,1310,1039,1278,2804,2035,2813,1211,1912,1316,2793,2052,2884,1308,1040,1297,2806
1782219223.5288,8.4472,1,lf,0.0986,0.0986,-0.1000,0,0.3309,0.3319,-0.1020,-0.0005,0.0006,-0.0064,CLIMB,5,1,0,14.0,0.000,4.380,1,-1,0,-2.0,-14.0,-1.0,0.0,0.0,0.0,2037,2826,1212,1912,1298,2788,2050,2901,1310,1039,1278,2804,2035,2813,1211,1912,1316,2793,2052,2884,1308,1040,1297,2806
1782219223.5488,8.4672,1,lf,0.0986,0.0986,-0.1000,0,0.3309,0.3319,-0.1020,-0.0005,0.0006,-0.0064,CLIMB,5,1,0,14.0,0.000,4.400,1,-1,0,-2.0,-14.0,-1.0,0.0,0.0,0.0,2037,2826,1212,1912,1298,2788,2050,2901,1310,1039,1278,2804,2036,2812,1211,1912,1316,2794,2052,2884,1308,1040,1297,2806
1782219223.5688,8.4873,1,lf,0.0986,0.0986,-0.1000,0,0.3311,0.3315,-0.1022,-0.0006,0.0008,-0.0063,CLIMB,5,1,0,14.0,0.000,4.420,1,-1,0,-1.0,-14.0,-1.0,0.0,0.0,0.0,2037,2826,1212,1912,1298,2788,2050,2901,1310,1039,1278,2804,2036,2812,1211,1912,1316,2794,2052,2884,1308,1040,1297,2806
1782219223.5888,8.5073,1,lf,0.0986,0.0986,-0.1000,0,0.3311,0.3315,-0.1022,-0.0006,0.0009,-0.0062,CLIMB,5,1,0,14.0,0.000,4.440,1,-1,0,-1.0,-14.0,-1.0,0.0,0.0,0.0,2037,2826,1212,1912,1298,2788,2050,2901,1310,1039,1278,2804,2036,2812,1211,1912,1316,2794,2052,2884,1308,1040,1297,2806
1782219223.6089,8.5274,1,lf,0.0986,0.0986,-0.1000,0,0.3311,0.3315,-0.1022,-0.0006,0.0009,-0.0062,CLIMB,5,1,0,14.0,0.000,4.460,1,-1,0,-2.0,-14.0,-1.0,0.0,0.0,0.0,2037,2826,1212,1912,1298,2788,2050,2901,1310,1039,1278,2804,2035,2812,1211,1912,1316,2793,2052,2884,1308,1039,1297,2806
1782219223.6288,8.5473,1,lf,0.0986,0.0986,-0.1000,0,0.3308,0.3318,-0.1022,-0.0005,0.0008,-0.0062,CLIMB,5,1,0,13.0,0.000,4.480,1,-1,0,-2.0,-13.0,-1.0,0.0,0.0,0.0,2037,2826,1212,1912,1298,2788,2050,2901,1310,1039,1278,2804,2035,2812,1211,1912,1316,2793,2052,2884,1308,1039,1297,2806
1782219223.6489,8.5674,1,lf,0.0986,0.0986,-0.1000,0,0.3308,0.3318,-0.1022,-0.0005,0.0007,-0.0062,CLIMB,5,1,0,13.0,0.000,4.500,1,-1,0,-2.0,-13.0,-1.0,0.0,0.0,0.0,2037,2826,1212,1912,1298,2788,2050,2901,1310,1039,1278,2804,2036,2812,1211,1912,1316,2793,2052,2884,1308,1040,1297,2806
1782219223.6689,8.5874,1,lf,0.0986,0.0986,-0.1000,0,0.3311,0.3315,-0.1022,-0.0005,0.0008,-0.0062,CLIMB,5,1,0,14.0,0.000,4.520,1,-1,0,-1.0,-14.0,-1.0,0.0,0.0,0.0,2037,2826,1212,1912,1298,2788,2050,2901,1310,1039,1278,2804,2036,2812,1211,1912,1316,2793,2052,2884,1308,1040,1297,2806
1782219223.6889,8.6074,1,lf,0.0986,0.0986,-0.1000,0,0.3311,0.3315,-0.1022,-0.0006,0.0009,-0.0062,CLIMB,5,1,0,14.0,0.000,4.540,1,-1,0,-1.0,-14.0,-1.0,0.0,0.0,0.0,2037,2826,1212,1912,1298,2788,2050,2901,1310,1039,1278,2804,2036,2812,1211,1912,1316,2793,2052,2884,1308,1040,1297,2806
1782219223.7089,8.6273,1,lf,0.0986,0.0986,-0.1000,0,0.3311,0.3315,-0.1022,-0.0006,0.0009,-0.0062,CLIMB,5,1,0,14.0,0.000,4.560,1,-1,0,-1.0,-14.0,-1.0,0.0,0.0,0.0,2037,2826,1212,1912,1298,2788,2050,2901,1310,1039,1278,2804,2036,2812,1211,1912,1316,2793,2052,2884,1308,1040,1297,2806
1782219223.7290,8.6474,1,lf,0.0986,0.0986,-0.1000,0,0.3311,0.3315,-0.1022,-0.0006,0.0009,-0.0062,CLIMB,5,1,0,14.0,0.000,4.580,1,-1,0,-1.0,-14.0,-1.0,0.0,0.0,0.0,2037,2826,1212,1912,1298,2788,2050,2901,1310,1039,1278,2804,2036,2812,1211,1912,1316,2793,2052,2884,1308,1040,1297,2806
1782219223.7489,8.6674,1,lf,0.0986,0.0986,-0.1000,0,0.3311,0.3315,-0.1022,-0.0006,0.0009,-0.0062,CLIMB,5,1,0,14.0,0.000,4.600,1,-1,0,-1.0,-14.0,-1.0,0.0,0.0,0.0,2037,2826,1212,1912,1298,2788,2050,2901,1310,1039,1278,2804,2035,2812,1211,1912,1316,2793,2052,2884,1308,1040,1297,2806
1782219223.7689,8.6874,1,lf,0.0986,0.0986,-0.1000,0,0.3308,0.3318,-0.1022,-0.0005,0.0008,-0.0062,CLIMB,5,1,0,14.0,0.000,4.620,1,-1,0,-2.0,-14.0,-1.0,0.0,0.0,0.0,2037,2826,1212,1912,1298,2788,2050,2901,1310,1039,1278,2804,2035,2812,1211,1912,1316,2793,2052,2884,1308,1040,1297,2806
1782219223.7888,8.7073,1,lf,0.0986,0.0986,-0.1000,0,0.3308,0.3318,-0.1022,-0.0005,0.0007,-0.0062,CLIMB,5,1,0,14.0,0.000,4.640,1,-1,0,-2.0,-14.0,-1.0,0.0,0.0,0.0,2037,2826,1212,1912,1298,2788,2050,2901,1310,1039,1278,2804,2035,2812,1211,1912,1316,2793,2052,2884,1308,1040,1297,2806
1782219223.8089,8.7273,1,lf,0.0986,0.0986,-0.1000,0,0.3308,0.3318,-0.1022,-0.0004,0.0007,-0.0062,CLIMB,5,1,0,14.0,0.000,4.660,1,-1,0,-2.0,-14.0,-1.0,0.0,0.0,0.0,2037,2826,1212,1912,1298,2788,2050,2901,1310,1039,1278,2804,2035,2812,1211,1912,1316,2793,2052,2884,1308,1040,1297,2806
1782219223.8289,8.7474,1,lf,0.0986,0.0986,-0.1000,0,0.3308,0.3318,-0.1022,-0.0004,0.0007,-0.0062,CLIMB,5,1,0,14.0,0.000,4.680,1,-1,0,-1.0,-14.0,-1.0,0.0,0.0,0.0,2037,2826,1212,1912,1298,2788,2050,2901,1310,1039,1278,2804,2035,2812,1211,1912,1316,2793,2052,2884,1308,1040,1297,2806
1782219223.8489,8.7674,1,lf,0.0986,0.0986,-0.1000,0,0.3308,0.3318,-0.1022,-0.0004,0.0007,-0.0062,CLIMB,5,1,0,13.0,0.000,4.700,1,-1,0,-2.0,-13.0,-1.0,0.0,0.0,0.0,2037,2826,1212,1912,1298,2788,2050,2901,1310,1039,1278,2804,2035,2813,1211,1912,1316,2793,2052,2884,1308,1040,1297,2806
1782219223.8688,8.7873,1,lf,0.0986,0.0986,-0.1000,0,0.3309,0.3319,-0.1020,-0.0005,0.0006,-0.0063,CLIMB,5,1,0,13.0,0.000,4.720,1,-1,0,-2.0,-13.0,-1.0,0.0,0.0,0.0,2037,2826,1212,1912,1298,2788,2050,2901,1310,1039,1278,2804,2035,2813,1211,1912,1316,2793,2052,2884,1308,1040,1297,2806
1782219223.8889,8.8074,1,lf,0.0986,0.0986,-0.1000,0,0.3309,0.3319,-0.1020,-0.0005,0.0006,-0.0064,CLIMB,5,1,0,14.0,0.000,4.740,1,-1,0,-2.0,-14.0,-1.0,0.0,0.0,0.0,2037,2826,1212,1912,1298,2788,2050,2901,1310,1039,1278,2804,2035,2813,1211,1912,1316,2793,2052,2884,1308,1040,1297,2806
1782219223.9089,8.8274,1,lf,0.0986,0.0986,-0.1000,0,0.3309,0.3319,-0.1020,-0.0005,0.0006,-0.0064,CLIMB,5,1,0,14.0,0.000,4.760,1,-1,0,-2.0,-14.0,-1.0,0.0,0.0,0.0,2037,2826,1212,1912,1298,2788,2050,2901,1310,1039,1278,2804,2035,2812,1211,1912,1316,2793,2052,2884,1308,1040,1297,2806
1782219223.9289,8.8474,1,lf,0.0986,0.0986,-0.1000,0,0.3308,0.3318,-0.1022,-0.0005,0.0006,-0.0063,CLIMB,5,1,0,13.0,0.000,4.780,1,-1,0,-1.0,-13.0,-1.0,0.0,0.0,0.0,2037,2826,1212,1912,1298,2788,2050,2901,1310,1039,1278,2804,2035,2812,1211,1912,1316,2793,2052,2884,1308,1040,1297,2806
1782219223.9489,8.8674,1,lf,0.0986,0.0986,-0.1000,0,0.3308,0.3318,-0.1022,-0.0004,0.0006,-0.0062,CLIMB,5,1,0,13.0,0.000,4.800,1,-1,0,-1.0,-13.0,-1.0,0.0,0.0,0.0,2037,2826,1212,1912,1298,2788,2050,2901,1310,1039,1278,2804,2036,2813,1211,1912,1316,2793,2052,2885,1308,1040,1297,2806
1782219223.9688,8.8873,1,lf,0.0986,0.0986,-0.1000,0,0.3312,0.3316,-0.1020,-0.0006,0.0008,-0.0063,CLIMB,5,1,0,13.0,0.000,4.820,1,-1,0,-1.0,-13.0,-1.0,0.0,0.0,0.0,2037,2826,1212,1912,1298,2788,2050,2901,1310,1039,1278,2804,2036,2813,1211,1912,1316,2793,2052,2885,1308,1040,1297,2806
1782219223.9889,8.9074,1,lf,0.0986,0.0986,-0.1000,0,0.3312,0.3316,-0.1020,-0.0007,0.0008,-0.0064,CLIMB,5,1,0,14.0,0.000,4.840,1,-1,0,-1.0,-14.0,-1.0,0.0,0.0,0.0,2037,2826,1212,1912,1298,2788,2050,2901,1310,1039,1278,2804,2036,2813,1211,1912,1316,2793,2052,2885,1308,1040,1297,2806
1782219224.0089,8.9274,1,lf,0.0986,0.0986,-0.1000,0,0.3312,0.3316,-0.1020,-0.0007,0.0009,-0.0064,CLIMB,5,1,0,13.0,0.000,4.860,1,-1,0,-1.0,-13.0,-1.0,0.0,0.0,0.0,2037,2826,1212,1912,1298,2788,2050,2901,1310,1039,1278,2804,2036,2813,1211,1912,1316,2793,2052,2884,1308,1040,1297,2806
1782219224.0288,8.9473,1,lf,0.0986,0.0986,-0.1000,0,0.3312,0.3316,-0.1020,-0.0007,0.0009,-0.0064,CLIMB,5,1,0,13.0,0.000,4.880,1,-1,0,-1.0,-13.0,-1.0,0.0,0.0,0.0,2037,2826,1212,1912,1298,2788,2050,2901,1310,1039,1278,2804,2036,2813,1211,1912,1316,2793,2052,2884,1308,1040,1297,2806
1782219224.0489,8.9673,1,lf,0.0986,0.0986,-0.1000,0,0.3312,0.3316,-0.1020,-0.0007,0.0009,-0.0064,CLIMB,5,1,0,14.0,0.000,4.900,1,-1,0,-2.0,-14.0,-1.0,0.0,0.0,0.0,2037,2826,1212,1912,1298,2788,2050,2901,1310,1039,1278,2804,2035,2812,1211,1912,1316,2793,2052,2884,1308,1040,1297,2806
1782219224.0688,8.9873,1,lf,0.0986,0.0986,-0.1000,0,0.3308,0.3318,-0.1022,-0.0006,0.0008,-0.0063,CLIMB,5,1,0,14.0,0.000,4.920,1,-1,0,-2.0,-14.0,-1.0,0.0,0.0,0.0,2037,2826,1212,1912,1298,2788,2050,2901,1310,1039,1278,2804,2035,2812,1211,1912,1316,2793,2052,2884,1308,1040,1297,2806
1782219224.0887,9.0072,1,lf,0.0986,0.0986,-0.1000,0,0.3308,0.3318,-0.1022,-0.0005,0.0007,-0.0062,CLIMB,5,1,0,14.0,0.000,4.940,1,-1,0,-2.0,-14.0,-1.0,0.0,0.0,0.0,2037,2826,1212,1912,1298,2788,2050,2901,1310,1039,1278,2804,2035,2812,1211,1912,1316,2793,2052,2884,1308,1040,1297,2806
1782219224.1088,9.0273,1,lf,0.0986,0.0986,-0.1000,0,0.3308,0.3318,-0.1022,-0.0005,0.0007,-0.0062,CLIMB,5,1,0,13.0,0.000,4.960,1,-1,0,-1.0,-13.0,-1.0,0.0,0.0,0.0,2037,2826,1212,1912,1298,2788,2050,2901,1310,1039,1278,2804,2036,2813,1211,1912,1316,2793,2052,2884,1308,1040,1297,2806
1782219224.1288,9.0473,1,lf,0.0986,0.0986,-0.1000,0,0.3312,0.3316,-0.1020,-0.0006,0.0008,-0.0063,CLIMB,5,1,0,13.0,0.000,4.980,1,-1,0,-1.0,-13.0,-1.0,0.0,0.0,0.0,2037,2826,1212,1912,1298,2788,2050,2901,1310,1039,1278,2804,2036,2813,1211,1912,1316,2793,2052,2884,1308,1040,1297,2806
1782219224.1489,9.0674,1,lf,0.0986,0.0986,-0.1000,0,0.3312,0.3316,-0.1020,-0.0007,0.0008,-0.0064,CLIMB,5,1,0,13.0,0.000,5.000,1,-1,0,-1.0,-13.0,-1.0,0.0,0.0,0.0,2037,2826,1212,1912,1298,2788,2050,2901,1310,1039,1278,2804,2036,2813,1211,1912,1316,2793,2052,2885,1308,1040,1297,2806
1782219224.1689,9.0874,1,lf,0.0986,0.0986,-0.1000,0,0.3312,0.3316,-0.1020,-0.0007,0.0009,-0.0064,CLIMB,5,1,0,14.0,0.000,5.020,1,-1,0,-2.0,-14.0,-1.0,0.0,0.0,0.0,2037,2826,1212,1912,1298,2788,2050,2901,1310,1039,1278,2804,2036,2813,1211,1912,1316,2793,2052,2885,1308,1040,1297,2806
1782219224.1889,9.1074,1,lf,0.0986,0.0986,-0.1000,0,0.3312,0.3316,-0.1020,-0.0007,0.0009,-0.0064,CLIMB,5,1,0,14.0,0.000,5.040,1,-1,0,-2.0,-14.0,-1.0,0.0,0.0,0.0,2037,2826,1212,1912,1298,2788,2050,2901,1310,1039,1278,2804,2036,2813,1211,1912,1316,2793,2052,2885,1308,1040,1297,2806
1782219224.2088,9.1273,1,lf,0.0986,0.0986,-0.1000,0,0.3312,0.3316,-0.1020,-0.0007,0.0009,-0.0064,CLIMB,5,1,0,14.0,0.000,5.060,1,-1,0,-1.0,-14.0,-1.0,0.0,0.0,0.0,2037,2826,1212,1912,1298,2788,2050,2901,1310,1039,1278,2804,2036,2812,1211,1912,1316,2793,2052,2884,1308,1040,1297,2806
1782219224.2287,9.1472,1,lf,0.0986,0.0986,-0.1000,0,0.3311,0.3315,-0.1022,-0.0007,0.0009,-0.0063,CLIMB,5,1,0,14.0,0.000,5.080,1,-1,0,-1.0,-14.0,-1.0,0.0,0.0,0.0,2037,2826,1212,1912,1298,2788,2050,2901,1310,1039,1278,2804,2036,2812,1211,1912,1316,2793,2052,2884,1308,1040,1297,2806
1782219224.2489,9.1673,1,lf,0.0986,0.0986,-0.1000,0,0.3311,0.3315,-0.1022,-0.0006,0.0010,-0.0062,CLIMB,5,1,0,14.0,0.000,5.100,1,-1,0,-2.0,-14.0,-1.0,0.0,0.0,0.0,2037,2826,1212,1912,1298,2788,2050,2901,1310,1039,1278,2804,2035,2812,1211,1912,1316,2793,2052,2884,1308,1040,1297,2806
1782219224.2688,9.1872,1,lf,0.0986,0.0986,-0.1000,0,0.3308,0.3318,-0.1022,-0.0005,0.0008,-0.0062,CLIMB,5,1,0,14.0,0.000,5.120,1,-1,0,-1.0,-14.0,-1.0,0.0,0.0,0.0,2037,2826,1212,1912,1298,2788,2050,2901,1310,1039,1278,2804,2035,2812,1211,1912,1316,2793,2052,2884,1308,1040,1297,2806
1782219224.2888,9.2073,1,lf,0.0986,0.0986,-0.1000,0,0.3308,0.3318,-0.1022,-0.0005,0.0007,-0.0062,CLIMB,5,1,0,14.0,0.000,5.140,1,-1,0,-1.0,-14.0,-1.0,0.0,0.0,0.0,2037,2826,1212,1912,1298,2788,2050,2901,1310,1039,1278,2804,2035,2812,1211,1912,1316,2793,2052,2884,1308,1040,1297,2806
1782219224.3089,9.2274,1,lf,0.0986,0.0986,-0.1000,0,0.3308,0.3318,-0.1022,-0.0004,0.0007,-0.0062,CLIMB,5,1,0,14.0,0.000,5.160,1,-1,0,-2.0,-14.0,-1.0,0.0,0.0,0.0,2037,2826,1212,1912,1298,2788,2050,2901,1310,1039,1278,2804,2035,2812,1211,1912,1316,2793,2052,2884,1308,1040,1297,2806
1782219224.3289,9.2474,1,lf,0.0986,0.0986,-0.1000,0,0.3308,0.3318,-0.1022,-0.0004,0.0007,-0.0062,CLIMB,5,1,0,13.0,0.000,5.180,1,-1,0,-2.0,-13.0,-1.0,0.0,0.0,0.0,2037,2826,1212,1912,1298,2788,2050,2901,1310,1039,1278,2804,2035,2812,1211,1912,1316,2793,2052,2884,1308,1040,1297,2806
1782219224.3489,9.2674,1,lf,0.0986,0.0986,-0.1000,0,0.3308,0.3318,-0.1022,-0.0004,0.0007,-0.0061,CLIMB,5,1,0,13.0,0.000,5.200,1,-1,0,-2.0,-13.0,-1.0,0.0,0.0,0.0,2037,2826,1212,1912,1298,2788,2050,2901,1310,1039,1278,2804,2035,2813,1211,1912,1316,2793,2052,2884,1308,1040,1297,2806
1782219224.3687,9.2872,1,lf,0.0986,0.0986,-0.1000,0,0.3309,0.3319,-0.1020,-0.0005,0.0006,-0.0063,CLIMB,5,1,0,13.0,0.000,5.220,1,-1,0,-2.0,-13.0,-1.0,0.0,0.0,0.0,2037,2826,1212,1912,1298,2788,2050,2901,1310,1039,1278,2804,2035,2813,1211,1912,1316,2793,2052,2884,1308,1040,1297,2806
1782219224.3887,9.3072,1,lf,0.0986,0.0986,-0.1000,0,0.3309,0.3319,-0.1020,-0.0005,0.0006,-0.0063,CLIMB,5,1,0,13.0,0.000,5.240,1,-1,0,-2.0,-13.0,-1.0,0.0,0.0,0.0,2037,2826,1212,1912,1298,2788,2050,2901,1310,1039,1278,2804,2035,2813,1211,1912,1316,2793,2052,2884,1308,1040,1297,2806
1782219224.4088,9.3273,1,lf,0.0986,0.0986,-0.1000,0,0.3309,0.3319,-0.1020,-0.0005,0.0006,-0.0063,CLIMB,5,1,0,14.0,0.000,5.260,1,-1,0,-2.0,-14.0,-1.0,0.0,0.0,0.0,2037,2826,1212,1912,1298,2788,2050,2901,1310,1039,1278,2804,2035,2812,1211,1912,1316,2793,2052,2884,1308,1040,1297,2806
1782219224.4289,9.3473,1,lf,0.0986,0.0986,-0.1000,0,0.3308,0.3318,-0.1022,-0.0005,0.0006,-0.0062,CLIMB,5,1,0,14.0,0.000,5.280,1,-1,0,-2.0,-14.0,-1.0,0.0,0.0,0.0,2037,2826,1212,1912,1298,2788,2050,2901,1310,1039,1278,2804,2035,2812,1211,1912,1316,2793,2052,2884,1308,1040,1297,2806
1782219224.4488,9.3673,1,lf,0.0986,0.0986,-0.1000,0,0.3308,0.3318,-0.1022,-0.0005,0.0007,-0.0062,CLIMB,5,1,0,14.0,0.000,5.300,1,-1,0,-2.0,-14.0,-1.0,0.0,0.0,0.0,2037,2826,1212,1912,1298,2788,2050,2901,1310,1039,1278,2804,2036,2812,1212,1912,1316,2793,2052,2884,1308,1040,1297,2806
1782219224.4689,9.3874,1,lf,0.0986,0.0986,-0.1000,0,0.3311,0.3316,-0.1022,-0.0006,0.0008,-0.0062,CLIMB,5,1,0,14.0,0.000,5.320,1,-1,0,-1.0,-14.0,0.0,0.0,0.0,0.0,2037,2826,1212,1912,1298,2788,2050,2901,1310,1039,1278,2804,2036,2812,1212,1912,1316,2793,2052,2884,1308,1040,1297,2806
1782219224.4888,9.4073,1,lf,0.0986,0.0986,-0.1000,0,0.3311,0.3316,-0.1022,-0.0006,0.0009,-0.0062,CLIMB,5,1,0,14.0,0.000,5.340,1,-1,0,-2.0,-14.0,-1.0,0.0,0.0,0.0,2037,2826,1212,1912,1298,2788,2050,2901,1310,1039,1278,2804,2036,2812,1212,1912,1316,2793,2052,2884,1308,1040,1297,2806
1782219224.5089,9.4274,1,lf,0.0986,0.0986,-0.1000,0,0.3311,0.3316,-0.1022,-0.0006,0.0009,-0.0061,CLIMB,5,1,0,14.0,0.000,5.360,1,-1,0,-2.0,-14.0,-1.0,0.0,0.0,0.0,2037,2826,1212,1912,1298,2788,2050,2901,1310,1039,1278,2804,2035,2812,1211,1912,1316,2793,2052,2884,1308,1040,1297,2806
1782219224.5289,9.4473,1,lf,0.0986,0.0986,-0.1000,0,0.3308,0.3318,-0.1022,-0.0005,0.0008,-0.0061,CLIMB,5,1,0,13.0,0.000,5.380,1,-1,0,-2.0,-13.0,-1.0,0.0,0.0,0.0,2037,2826,1212,1912,1298,2788,2050,2901,1310,1039,1278,2804,2035,2812,1211,1912,1316,2793,2052,2884,1308,1040,1297,2806
1782219224.5489,9.4673,1,lf,0.0986,0.0986,-0.1000,0,0.3308,0.3318,-0.1022,-0.0005,0.0008,-0.0061,CLIMB,5,1,0,13.0,0.000,5.400,1,-1,0,-2.0,-13.0,-1.0,0.0,0.0,0.0,2037,2826,1212,1912,1298,2788,2050,2901,1310,1039,1278,2804,2035,2813,1211,1912,1316,2793,2052,2884,1308,1040,1297,2806
1782219224.5689,9.4874,1,lf,0.0986,0.0986,-0.1000,0,0.3309,0.3319,-0.1020,-0.0005,0.0007,-0.0063,CLIMB,5,1,0,13.0,0.000,5.420,1,-1,0,-2.0,-13.0,-1.0,0.0,0.0,0.0,2037,2826,1212,1912,1298,2788,2050,2901,1310,1039,1278,2804,2035,2813,1211,1912,1316,2793,2052,2884,1308,1040,1297,2806
1782219224.5888,9.5073,1,lf,0.0986,0.0986,-0.1000,0,0.3309,0.3319,-0.1020,-0.0006,0.0007,-0.0063,CLIMB,5,1,0,14.0,0.000,5.440,1,-1,0,-1.0,-14.0,-1.0,0.0,0.0,0.0,2037,2826,1212,1912,1298,2788,2050,2901,1310,1039,1278,2804,2035,2813,1211,1912,1316,2793,2052,2884,1308,1040,1297,2806
1782219224.6089,9.5274,1,lf,0.0986,0.0986,-0.1000,0,0.3309,0.3319,-0.1020,-0.0006,0.0006,-0.0063,CLIMB,5,1,0,14.0,0.000,5.460,1,-1,0,-1.0,-14.0,-1.0,0.0,0.0,0.0,2037,2826,1212,1912,1298,2788,2050,2901,1310,1039,1278,2804,2036,2812,1211,1912,1316,2794,2052,2884,1308,1040,1297,2806
1782219224.6288,9.5473,1,lf,0.0986,0.0986,-0.1000,0,0.3311,0.3315,-0.1022,-0.0006,0.0008,-0.0062,CLIMB,5,1,0,14.0,0.000,5.480,1,-1,0,-2.0,-14.0,-1.0,0.0,0.0,0.0,2037,2826,1212,1912,1298,2788,2050,2901,1310,1039,1278,2804,2036,2812,1211,1912,1316,2794,2052,2884,1308,1040,1297,2806
1782219224.6488,9.5673,1,lf,0.0986,0.0986,-0.1000,0,0.3311,0.3315,-0.1022,-0.0006,0.0009,-0.0062,CLIMB,5,1,0,14.0,0.000,5.500,1,-1,0,-1.0,-14.0,-1.0,0.0,0.0,0.0,2037,2826,1212,1912,1298,2788,2050,2901,1310,1039,1278,2804,2036,2812,1211,1912,1316,2793,2052,2884,1308,1040,1297,2806
1782219224.6687,9.5872,1,lf,0.0986,0.0986,-0.1000,0,0.3311,0.3315,-0.1022,-0.0006,0.0009,-0.0062,CLIMB,5,1,0,14.0,0.000,5.520,1,-1,0,-1.0,-14.0,-1.0,0.0,0.0,0.0,2037,2826,1212,1912,1298,2788,2050,2901,1310,1039,1278,2804,2036,2812,1211,1912,1316,2793,2052,2884,1308,1040,1297,2806
1782219224.6889,9.6073,1,lf,0.0986,0.0986,-0.1000,0,0.3311,0.3315,-0.1022,-0.0006,0.0010,-0.0062,CLIMB,5,1,0,14.0,0.000,5.540,1,-1,0,-1.0,-14.0,-1.0,0.0,0.0,0.0,2037,2826,1212,1912,1298,2788,2050,2901,1310,1039,1278,2804,2036,2812,1211,1912,1316,2793,2052,2884,1308,1040,1297,2806
1782219224.7089,9.6274,1,lf,0.0986,0.0986,-0.1000,0,0.3311,0.3315,-0.1022,-0.0006,0.0010,-0.0062,CLIMB,5,1,0,14.0,0.000,5.560,1,-1,0,-1.0,-14.0,-1.0,0.0,0.0,0.0,2037,2826,1212,1912,1298,2788,2050,2901,1310,1039,1278,2804,2036,2812,1211,1912,1316,2794,2052,2884,1308,1040,1297,2806
1782219224.7289,9.6474,1,lf,0.0986,0.0986,-0.1000,0,0.3311,0.3315,-0.1022,-0.0006,0.0010,-0.0062,CLIMB,5,1,0,13.0,0.000,5.580,1,-1,0,-1.0,-13.0,-1.0,0.0,0.0,0.0,2037,2826,1212,1912,1298,2788,2050,2901,1310,1039,1278,2804,2036,2812,1211,1912,1316,2794,2052,2884,1308,1040,1297,2806
1782219224.7488,9.6673,1,lf,0.0986,0.0986,-0.1000,0,0.3311,0.3315,-0.1022,-0.0006,0.0010,-0.0062,CLIMB,5,1,0,14.0,0.000,5.600,1,-1,0,-1.0,-14.0,-1.0,0.0,0.0,0.0,2037,2826,1212,1912,1298,2788,2050,2901,1310,1039,1278,2804,2036,2812,1211,1912,1316,2794,2052,2884,1308,1040,1297,2806
1782219224.7687,9.6872,1,lf,0.0986,0.0986,-0.1000,0,0.3311,0.3315,-0.1022,-0.0006,0.0010,-0.0061,CLIMB,5,1,0,14.0,0.000,5.620,1,-1,0,-1.0,-14.0,-1.0,0.0,0.0,0.0,2037,2826,1212,1912,1298,2788,2050,2901,1310,1039,1278,2804,2036,2812,1211,1912,1316,2794,2052,2884,1308,1040,1297,2806
1782219224.7889,9.7074,1,lf,0.0986,0.0986,-0.1000,0,0.3311,0.3315,-0.1022,-0.0006,0.0010,-0.0061,CLIMB,5,1,0,14.0,0.000,5.640,1,-1,0,-2.0,-14.0,-1.0,0.0,0.0,0.0,2037,2826,1212,1912,1298,2788,2050,2901,1310,1039,1278,2804,2036,2812,1211,1912,1316,2794,2052,2884,1308,1040,1297,2806
1782219224.8088,9.7273,1,lf,0.0986,0.0986,-0.1000,0,0.3311,0.3315,-0.1022,-0.0006,0.0010,-0.0061,CLIMB,5,1,0,14.0,0.000,5.660,1,-1,0,-1.0,-14.0,-1.0,0.0,0.0,0.0,2037,2826,1212,1912,1298,2788,2050,2901,1310,1039,1278,2804,2036,2812,1211,1912,1316,2793,2052,2884,1308,1040,1297,2806
1782219224.8289,9.7474,1,lf,0.0986,0.0986,-0.1000,0,0.3311,0.3315,-0.1022,-0.0006,0.0010,-0.0061,CLIMB,5,1,0,14.0,0.000,5.680,1,-1,0,-1.0,-14.0,-1.0,0.0,0.0,0.0,2037,2826,1212,1912,1298,2788,2050,2901,1310,1039,1278,2804,2036,2812,1211,1912,1316,2793,2052,2884,1308,1040,1297,2806
1782219224.8489,9.7674,1,lf,0.0986,0.0986,-0.1000,0,0.3311,0.3315,-0.1022,-0.0006,0.0010,-0.0061,CLIMB,5,1,0,14.0,0.000,5.700,1,-1,0,-2.0,-14.0,-1.0,0.0,0.0,0.0,2037,2826,1212,1912,1298,2788,2050,2901,1310,1039,1278,2804,2035,2812,1211,1912,1316,2793,2052,2884,1308,1040,1297,2806
1782219224.8689,9.7874,1,lf,0.0986,0.0986,-0.1000,0,0.3308,0.3318,-0.1022,-0.0005,0.0008,-0.0061,CLIMB,5,1,0,14.0,0.000,5.720,1,-1,0,-2.0,-14.0,-1.0,0.0,0.0,0.0,2037,2826,1212,1912,1298,2788,2050,2901,1310,1039,1278,2804,2035,2812,1211,1912,1316,2793,2052,2884,1308,1040,1297,2806
