DreamSnakecc/climbing_ws/test_logs/dxl_autotune_20260623_205243/leg_endpoint/trial_05_id_1_p_130/single_swing_lf_20260623_205440.csv
wall_time,elapsed_s,cycle,leg,cmd_x,cmd_y,cmd_z,cmd_support,ujc_x,ujc_y,ujc_z,body_x,body_y,body_z,mission_state,servo_phase_id,servo_gate_enabled,servo_ready,servo_max_abs_error_tick,servo_within_tolerance_s,servo_wait_s,servo_timed_out,servo_last_pass_phase_id,servo_last_pass_sequence,servo_error_joint1_tick,servo_error_joint2_tick,servo_error_joint3_tick,servo_last_pass_error_joint1_tick,servo_last_pass_error_joint2_tick,servo_last_pass_error_joint3_tick,ticks_cmd_11,ticks_cmd_1,ticks_cmd_2,ticks_cmd_12,ticks_cmd_3,ticks_cmd_4,ticks_cmd_13,ticks_cmd_5,ticks_cmd_6,ticks_cmd_14,ticks_cmd_7,ticks_cmd_8,ticks_act_11,ticks_act_1,ticks_act_2,ticks_act_12,ticks_act_3,ticks_act_4,ticks_act_13,ticks_act_5,ticks_act_6,ticks_act_14,ticks_act_7,ticks_act_8
1782219283.2046,2.7658,1,lf,0.0986,0.0986,-0.1100,0,0.3319,0.3324,-0.1101,-0.0019,0.0006,0.0018,CLIMB,4,1,0,0.0,0.000,0.000,0,-1,0,0.0,0.0,0.0,0.0,0.0,0.0,2037,2781,1318,1912,1298,2788,2050,2901,1310,1039,1278,2804,2036,2777,1313,1912,1316,2792,2052,2884,1309,1040,1284,2805
1782219283.2086,2.7699,1,lf,0.0986,0.0986,-0.1100,0,0.3319,0.3324,-0.1101,-0.0019,0.0006,0.0018,CLIMB,4,1,0,0.0,0.000,0.000,0,-1,0,0.0,0.0,0.0,0.0,0.0,0.0,2037,2781,1318,1912,1298,2788,2050,2901,1310,1039,1278,2804,2036,2777,1313,1912,1316,2792,2052,2884,1309,1040,1284,2805
1782219283.2286,2.7898,1,lf,0.0986,0.0986,-0.1100,0,0.3319,0.3324,-0.1101,-0.0019,0.0006,0.0017,CLIMB,4,1,0,0.0,0.000,0.000,0,-1,0,0.0,0.0,0.0,0.0,0.0,0.0,2037,2781,1318,1912,1298,2788,2050,2901,1310,1039,1278,2804,2036,2777,1313,1912,1316,2792,2052,2884,1309,1040,1284,2805
1782219283.2487,2.8099,1,lf,0.0986,0.0986,-0.1100,0,0.3319,0.3324,-0.1101,-0.0019,0.0007,0.0017,CLIMB,4,1,0,0.0,0.000,0.000,0,-1,0,0.0,0.0,0.0,0.0,0.0,0.0,2037,2781,1318,1912,1298,2788,2050,2901,1310,1039,1278,2804,2036,2777,1313,1912,1316,2792,2052,2884,1309,1041,1284,2805
1782219283.2688,2.8300,1,lf,0.0986,0.0986,-0.1100,0,0.3319,0.3324,-0.1101,-0.0020,0.0007,0.0017,CLIMB,4,1,0,0.0,0.000,0.000,0,-1,0,0.0,0.0,0.0,0.0,0.0,0.0,2037,2781,1318,1912,1298,2788,2050,2901,1310,1039,1278,2804,2036,2777,1313,1912,1316,2792,2052,2884,1309,1041,1284,2805
1782219283.2889,2.8501,1,lf,0.0986,0.0986,-0.1100,0,0.3319,0.3324,-0.1101,-0.0020,0.0008,0.0017,CLIMB,4,1,0,0.0,0.000,0.000,0,-1,0,0.0,0.0,0.0,0.0,0.0,0.0,2037,2781,1318,1912,1298,2788,2050,2901,1310,1039,1278,2804,2035,2777,1313,1912,1316,2792,2052,2884,1309,1041,1284,2805
1782219283.3087,2.8699,1,lf,0.0986,0.0986,-0.1100,0,0.3319,0.3324,-0.1101,-0.0020,0.0008,0.0017,CLIMB,4,1,0,0.0,0.000,0.000,0,-1,0,0.0,0.0,0.0,0.0,0.0,0.0,2037,2781,1318,1912,1298,2788,2050,2901,1310,1039,1278,2804,2035,2777,1313,1912,1316,2792,2052,2884,1309,1041,1284,2805
1782219283.3287,2.8899,1,lf,0.0986,0.0986,-0.1100,0,0.3317,0.3327,-0.1101,-0.0018,0.0006,0.0017,CLIMB,4,1,0,0.0,0.000,0.000,0,-1,0,0.0,0.0,0.0,0.0,0.0,0.0,2037,2781,1318,1912,1298,2788,2050,2901,1310,1039,1278,2804,2035,2777,1313,1912,1316,2792,2052,2884,1309,1041,1284,2805
1782219283.3487,2.9099,1,lf,0.0986,0.0986,-0.1100,0,0.3317,0.3327,-0.1101,-0.0018,0.0006,0.0017,CLIMB,4,1,0,0.0,0.000,0.000,0,-1,0,0.0,0.0,0.0,0.0,0.0,0.0,2037,2781,1318,1912,1298,2788,2050,2901,1310,1039,1278,2804,2035,2776,1313,1912,1316,2792,2052,2884,1309,1040,1284,2805
1782219283.3691,2.9303,1,lf,0.0986,0.0986,-0.1100,0,0.3316,0.3325,-0.1103,-0.0017,0.0006,0.0019,CLIMB,4,1,0,0.0,0.000,0.000,0,-1,0,0.0,0.0,0.0,0.0,0.0,0.0,2037,2781,1318,1912,1298,2788,2050,2901,1310,1039,1278,2804,2035,2776,1313,1912,1316,2792,2052,2884,1309,1040,1284,2805
1782219283.3889,2.9501,1,lf,0.0986,0.0986,-0.1100,0,0.3316,0.3325,-0.1103,-0.0017,0.0006,0.0019,CLIMB,4,1,0,0.0,0.000,0.000,0,-1,0,0.0,0.0,0.0,0.0,0.0,0.0,2037,2781,1318,1912,1298,2788,2050,2901,1310,1039,1278,2804,2036,2777,1313,1912,1316,2792,2052,2884,1308,1040,1284,2805
1782219283.4087,2.9699,1,lf,0.0986,0.0986,-0.1100,0,0.3319,0.3324,-0.1101,-0.0018,0.0007,0.0018,CLIMB,4,1,0,0.0,0.000,0.000,0,-1,0,0.0,0.0,0.0,0.0,0.0,0.0,2037,2781,1318,1912,1298,2788,2050,2901,1310,1039,1278,2804,2036,2777,1313,1912,1316,2792,2052,2884,1308,1040,1284,2805
1782219283.4288,2.9901,1,lf,0.0986,0.0986,-0.1100,0,0.3319,0.3324,-0.1101,-0.0019,0.0008,0.0018,CLIMB,4,1,0,0.0,0.000,0.000,0,-1,0,0.0,0.0,0.0,0.0,0.0,0.0,2037,2781,1318,1912,1298,2788,2050,2901,1310,1039,1278,2804,2036,2777,1313,1912,1316,2792,2052,2884,1308,1040,1284,2805
1782219283.4489,3.0101,1,lf,0.0986,0.0986,-0.1100,0,0.3319,0.3324,-0.1101,-0.0019,0.0008,0.0018,CLIMB,4,1,0,0.0,0.000,0.000,0,-1,0,0.0,0.0,0.0,0.0,0.0,0.0,2037,2781,1318,1912,1298,2788,2050,2901,1310,1039,1278,2804,2036,2776,1313,1912,1316,2792,2052,2884,1308,1041,1283,2806
1782219283.4689,3.0301,1,lf,0.0986,0.0986,-0.1100,0,0.3318,0.3323,-0.1103,-0.0019,0.0009,0.0019,CLIMB,4,1,0,0.0,0.000,0.000,0,-1,0,0.0,0.0,0.0,0.0,0.0,0.0,2037,2781,1318,1912,1298,2788,2050,2901,1310,1039,1278,2804,2036,2776,1313,1912,1316,2792,2052,2884,1308,1041,1283,2806
1782219283.4888,3.0500,1,lf,0.0986,0.0986,-0.1100,0,0.3318,0.3323,-0.1103,-0.0019,0.0009,0.0019,CLIMB,4,1,0,0.0,0.000,0.000,0,-1,0,0.0,0.0,0.0,0.0,0.0,0.0,2037,2781,1318,1912,1298,2788,2050,2901,1310,1039,1278,2804,2035,2776,1313,1912,1316,2792,2052,2884,1308,1041,1283,2805
1782219283.5089,3.0701,1,lf,0.0986,0.0986,-0.1100,0,0.3316,0.3325,-0.1103,-0.0018,0.0008,0.0020,CLIMB,4,1,0,0.0,0.000,0.000,0,-1,0,0.0,0.0,0.0,0.0,0.0,0.0,2037,2781,1318,1912,1298,2788,2050,2901,1310,1039,1278,2804,2035,2776,1313,1912,1316,2792,2052,2884,1308,1041,1283,2805
1782219283.5288,3.0900,1,lf,0.0986,0.0986,-0.1100,0,0.3316,0.3325,-0.1103,-0.0017,0.0008,0.0020,CLIMB,4,1,0,0.0,0.000,0.000,0,-1,0,0.0,0.0,0.0,0.0,0.0,0.0,2037,2781,1318,1912,1298,2788,2050,2901,1310,1039,1278,2804,2035,2776,1313,1912,1316,2792,2052,2884,1308,1041,1283,2805
1782219283.5488,3.1100,1,lf,0.0986,0.0986,-0.1100,0,0.3316,0.3325,-0.1103,-0.0017,0.0007,0.0020,CLIMB,4,1,0,0.0,0.000,0.000,0,-1,0,0.0,0.0,0.0,0.0,0.0,0.0,2037,2781,1318,1912,1298,2788,2050,2901,1310,1039,1278,2804,2035,2776,1314,1912,1316,2792,2052,2884,1309,1040,1284,2805
1782219283.5689,3.1301,1,lf,0.0986,0.0986,-0.1100,0,0.3316,0.3326,-0.1103,-0.0017,0.0007,0.0020,CLIMB,4,1,0,0.0,0.000,0.000,0,-1,0,0.0,0.0,0.0,0.0,0.0,0.0,2037,2781,1318,1912,1298,2788,2050,2901,1310,1039,1278,2804,2035,2776,1314,1912,1316,2792,2052,2884,1309,1040,1284,2805
1782219283.5888,3.1500,1,lf,0.0986,0.0986,-0.1100,0,0.3316,0.3326,-0.1103,-0.0017,0.0007,0.0020,CLIMB,4,1,0,0.0,0.000,0.000,0,-1,0,0.0,0.0,0.0,0.0,0.0,0.0,2037,2781,1318,1912,1298,2788,2050,2901,1310,1039,1278,2804,2036,2776,1313,1912,1316,2791,2052,2884,1309,1040,1284,2805
1782219283.6087,3.1699,1,lf,0.0986,0.0986,-0.1100,0,0.3316,0.3326,-0.1103,-0.0017,0.0007,0.0020,CLIMB,4,1,0,0.0,0.000,0.000,0,-1,0,0.0,0.0,0.0,0.0,0.0,0.0,2037,2781,1318,1912,1298,2788,2050,2901,1310,1039,1278,2804,2036,2776,1313,1912,1316,2791,2052,2884,1309,1040,1284,2805
1782219283.6288,3.1900,1,lf,0.0986,0.0986,-0.1100,0,0.3318,0.3323,-0.1103,-0.0018,0.0009,0.0020,CLIMB,4,1,0,0.0,0.000,0.000,0,-1,0,0.0,0.0,0.0,0.0,0.0,0.0,2037,2781,1318,1912,1298,2788,2050,2901,1310,1039,1278,2804,2036,2776,1313,1912,1316,2791,2052,2884,1309,1040,1284,2805
1782219283.6487,3.2099,1,lf,0.0986,0.0986,-0.1100,0,0.3318,0.3323,-0.1103,-0.0018,0.0009,0.0020,CLIMB,4,1,0,0.0,0.000,0.000,0,-1,0,0.0,0.0,0.0,0.0,0.0,0.0,2037,2781,1318,1912,1298,2788,2050,2901,1310,1039,1278,2804,2036,2777,1313,1912,1316,2792,2052,2884,1309,1041,1284,2806
1782219283.6688,3.2301,1,lf,0.0986,0.0986,-0.1100,0,0.3319,0.3324,-0.1101,-0.0019,0.0009,0.0019,CLIMB,4,1,0,0.0,0.000,0.000,0,-1,0,0.0,0.0,0.0,0.0,0.0,0.0,2037,2781,1318,1912,1298,2788,2050,2901,1310,1039,1278,2804,2036,2777,1313,1912,1316,2792,2052,2884,1309,1041,1284,2806
1782219283.6887,3.2499,1,lf,0.0986,0.0986,-0.1100,0,0.3319,0.3324,-0.1101,-0.0020,0.0009,0.0018,CLIMB,4,1,0,0.0,0.000,0.000,0,-1,0,0.0,0.0,0.0,0.0,0.0,0.0,2037,2781,1318,1912,1298,2788,2050,2901,1310,1039,1278,2804,2036,2776,1313,1912,1316,2792,2052,2884,1309,1041,1284,2805
1782219283.7088,3.2700,1,lf,0.0986,0.0986,-0.1100,0,0.3319,0.3324,-0.1101,-0.0020,0.0009,0.0018,CLIMB,4,1,0,0.0,0.000,0.000,0,-1,0,0.0,0.0,0.0,0.0,0.0,0.0,2037,2781,1318,1912,1298,2788,2050,2901,1310,1039,1278,2804,2036,2776,1313,1912,1316,2792,2052,2884,1309,1041,1284,2805
1782219283.7288,3.2900,1,lf,0.0986,0.0986,-0.1100,0,0.3318,0.3323,-0.1103,-0.0019,0.0010,0.0019,CLIMB,4,1,0,0.0,0.000,0.000,0,-1,0,0.0,0.0,0.0,0.0,0.0,0.0,2037,2781,1318,1912,1298,2788,2050,2901,1310,1039,1278,2804,2036,2776,1313,1912,1316,2792,2052,2884,1309,1041,1284,2805
1782219283.7488,3.3100,1,lf,0.0986,0.0986,-0.1100,0,0.3318,0.3323,-0.1103,-0.0019,0.0010,0.0019,CLIMB,4,1,0,0.0,0.000,0.000,0,-1,0,0.0,0.0,0.0,0.0,0.0,0.0,2037,2781,1318,1912,1298,2788,2050,2901,1310,1039,1278,2804,2035,2776,1313,1912,1316,2792,2052,2884,1308,1041,1284,2805
1782219283.7690,3.3302,1,lf,0.0986,0.0986,-0.1100,0,0.3316,0.3325,-0.1103,-0.0018,0.0009,0.0020,CLIMB,4,1,0,0.0,0.000,0.000,0,-1,0,0.0,0.0,0.0,0.0,0.0,0.0,2037,2781,1318,1912,1298,2788,2050,2901,1310,1039,1278,2804,2035,2776,1313,1912,1316,2792,2052,2884,1308,1041,1284,2805
1782219283.7888,3.3500,1,lf,0.0986,0.0986,-0.1100,0,0.3316,0.3325,-0.1103,-0.0017,0.0008,0.0020,CLIMB,4,1,0,0.0,0.000,0.000,0,-1,0,0.0,0.0,0.0,0.0,0.0,0.0,2037,2781,1318,1912,1298,2788,2050,2901,1310,1039,1278,2804,2035,2777,1313,1912,1316,2792,2052,2884,1308,1041,1283,2805
1782219283.8090,3.3702,1,lf,0.0986,0.0986,-0.1100,0,0.3316,0.3325,-0.1103,-0.0017,0.0007,0.0020,CLIMB,4,1,0,0.0,0.000,0.000,0,-1,0,0.0,0.0,0.0,0.0,0.0,0.0,2037,2781,1318,1912,1298,2788,2050,2901,1310,1039,1278,2804,2035,2777,1313,1912,1316,2792,2052,2884,1308,1041,1283,2805
1782219283.8288,3.3900,1,lf,0.0986,0.0986,-0.1100,0,0.3317,0.3327,-0.1101,-0.0018,0.0007,0.0019,CLIMB,4,1,0,0.0,0.000,0.000,0,-1,0,0.0,0.0,0.0,0.0,0.0,0.0,2037,2781,1318,1912,1298,2788,2050,2901,1310,1039,1278,2804,2035,2777,1313,1912,1316,2792,2052,2884,1308,1041,1283,2805
1782219283.8488,3.4100,1,lf,0.0986,0.0986,-0.1100,0,0.3317,0.3327,-0.1101,-0.0018,0.0006,0.0018,CLIMB,4,1,0,0.0,0.000,0.000,0,-1,0,0.0,0.0,0.0,0.0,0.0,0.0,2037,2781,1318,1912,1298,2788,2050,2901,1310,1039,1278,2804,2036,2776,1313,1912,1316,2792,2052,2884,1309,1040,1284,2805
1782219283.8688,3.4300,1,lf,0.0986,0.0986,-0.1100,0,0.3318,0.3323,-0.1103,-0.0018,0.0008,0.0019,CLIMB,4,1,0,0.0,0.000,0.000,0,-1,0,0.0,0.0,0.0,0.0,0.0,0.0,2037,2781,1318,1912,1298,2788,2050,2901,1310,1039,1278,2804,2036,2776,1313,1912,1316,2792,2052,2884,1309,1040,1284,2805
1782219283.8889,3.4501,1,lf,0.0986,0.0986,-0.1100,0,0.3318,0.3323,-0.1103,-0.0018,0.0009,0.0019,CLIMB,4,1,0,0.0,0.000,0.000,0,-1,0,0.0,0.0,0.0,0.0,0.0,0.0,2037,2781,1318,1912,1298,2788,2050,2901,1310,1039,1278,2804,2035,2776,1313,1912,1316,2792,2052,2884,1308,1041,1284,2805
1782219283.9088,3.4701,1,lf,0.0986,0.0986,-0.1100,0,0.3318,0.3323,-0.1103,-0.0018,0.0010,0.0020,CLIMB,4,1,0,0.0,0.000,0.000,0,-1,0,0.0,0.0,0.0,0.0,0.0,0.0,2037,2781,1318,1912,1298,2788,2050,2901,1310,1039,1278,2804,2035,2776,1313,1912,1316,2792,2052,2884,1308,1041,1284,2805
1782219283.9288,3.4900,1,lf,0.0986,0.0986,-0.1100,0,0.3316,0.3325,-0.1103,-0.0017,0.0008,0.0020,CLIMB,4,1,0,0.0,0.000,0.000,0,-1,0,0.0,0.0,0.0,0.0,0.0,0.0,2037,2781,1318,1912,1298,2788,2050,2901,1310,1039,1278,2804,2035,2776,1313,1912,1316,2792,2052,2884,1308,1041,1284,2805
1782219283.9488,3.5100,1,lf,0.0986,0.0986,-0.1100,0,0.3316,0.3325,-0.1103,-0.0017,0.0008,0.0020,CLIMB,4,1,0,0.0,0.000,0.000,0,-1,0,0.0,0.0,0.0,0.0,0.0,0.0,2037,2781,1318,1912,1298,2788,2050,2901,1310,1039,1278,2804,2035,2776,1313,1912,1316,2791,2052,2884,1309,1041,1284,2805
1782219283.9689,3.5301,1,lf,0.0986,0.0986,-0.1100,0,0.3316,0.3325,-0.1103,-0.0017,0.0008,0.0020,CLIMB,4,1,0,0.0,0.000,0.000,0,-1,0,0.0,0.0,0.0,0.0,0.0,0.0,2037,2781,1318,1912,1298,2788,2050,2901,1310,1039,1278,2804,2035,2776,1313,1912,1316,2791,2052,2884,1309,1041,1284,2805
1782219283.9888,3.5500,1,lf,0.0986,0.0986,-0.1100,0,0.3316,0.3325,-0.1103,-0.0017,0.0007,0.0020,CLIMB,4,1,0,0.0,0.000,0.000,0,-1,0,0.0,0.0,0.0,0.0,0.0,0.0,2037,2781,1318,1912,1298,2788,2050,2901,1310,1039,1278,2804,2036,2777,1313,1912,1316,2792,2052,2884,1309,1041,1284,2805
1782219284.0088,3.5701,1,lf,0.0986,0.0986,-0.1100,0,0.3319,0.3324,-0.1101,-0.0018,0.0008,0.0019,CLIMB,4,1,0,0.0,0.000,0.000,0,-1,0,0.0,0.0,0.0,0.0,0.0,0.0,2037,2781,1318,1912,1298,2788,2050,2901,1310,1039,1278,2804,2036,2777,1313,1912,1316,2792,2052,2884,1309,1041,1284,2805
1782219284.0288,3.5900,1,lf,0.0986,0.0986,-0.1100,0,0.3319,0.3324,-0.1101,-0.0019,0.0009,0.0018,CLIMB,4,1,0,0.0,0.000,0.000,0,-1,0,0.0,0.0,0.0,0.0,0.0,0.0,2037,2781,1318,1912,1298,2788,2050,2901,1310,1039,1278,2804,2036,2777,1313,1912,1316,2792,2052,2884,1309,1041,1284,2805
1782219284.0489,3.6102,1,lf,0.0986,0.0986,-0.1100,0,0.3319,0.3324,-0.1101,-0.0020,0.0009,0.0018,CLIMB,4,1,0,0.0,0.000,0.000,0,-1,0,0.0,0.0,0.0,0.0,0.0,0.0,2037,2781,1318,1912,1298,2788,2050,2901,1310,1039,1278,2804,2036,2776,1313,1912,1316,2791,2052,2884,1309,1040,1284,2806
1782219284.0689,3.6301,1,lf,0.0986,0.0986,-0.1100,0,0.3318,0.3323,-0.1103,-0.0019,0.0010,0.0019,CLIMB,4,1,0,0.0,0.000,0.000,0,-1,0,0.0,0.0,0.0,0.0,0.0,0.0,2037,2781,1318,1912,1298,2788,2050,2901,1310,1039,1278,2804,2036,2776,1313,1912,1316,2791,2052,2884,1309,1040,1284,2806
1782219284.0889,3.6501,1,lf,0.0986,0.0986,-0.1100,0,0.3318,0.3323,-0.1103,-0.0019,0.0010,0.0019,CLIMB,4,1,0,0.0,0.000,0.000,0,-1,0,0.0,0.0,0.0,0.0,0.0,0.0,2037,2781,1318,1912,1298,2788,2050,2901,1310,1039,1278,2804,2036,2776,1313,1912,1316,2791,2052,2884,1309,1040,1284,2806
1782219284.1088,3.6700,1,lf,0.0986,0.0986,-0.1100,0,0.3318,0.3323,-0.1103,-0.0018,0.0010,0.0020,CLIMB,4,1,0,0.0,0.000,0.000,0,-1,0,0.0,0.0,0.0,0.0,0.0,0.0,2037,2781,1318,1912,1298,2788,2050,2901,1310,1039,1278,2804,2035,2777,1313,1912,1316,2792,2052,2884,1309,1041,1284,2805
1782219284.1287,3.6899,1,lf,0.0986,0.0986,-0.1100,0,0.3317,0.3327,-0.1101,-0.0018,0.0008,0.0019,CLIMB,4,1,0,0.0,0.000,0.000,0,-1,0,0.0,0.0,0.0,0.0,0.0,0.0,2037,2781,1318,1912,1298,2788,2050,2901,1310,1039,1278,2804,2035,2777,1313,1912,1316,2792,2052,2884,1309,1041,1284,2805
1782219284.1488,3.7100,1,lf,0.0986,0.0986,-0.1100,0,0.3317,0.3327,-0.1101,-0.0018,0.0007,0.0018,CLIMB,4,1,0,0.0,0.000,0.000,0,-1,0,0.0,0.0,0.0,0.0,0.0,0.0,2037,2781,1318,1912,1298,2788,2050,2901,1310,1039,1278,2804,2035,2776,1313,1912,1316,2792,2052,2884,1309,1041,1284,2806
1782219284.1689,3.7302,1,lf,0.0986,0.0986,-0.1100,0,0.3316,0.3325,-0.1103,-0.0017,0.0007,0.0019,CLIMB,4,1,0,0.0,0.000,0.000,0,-1,0,0.0,0.0,0.0,0.0,0.0,0.0,2037,2781,1318,1912,1298,2788,2050,2901,1310,1039,1278,2804,2035,2776,1313,1912,1316,2792,2052,2884,1309,1041,1284,2806
1782219284.1888,3.7500,1,lf,0.0986,0.0986,-0.1100,0,0.3316,0.3325,-0.1103,-0.0017,0.0007,0.0020,CLIMB,4,1,0,0.0,0.000,0.000,0,-1,0,0.0,0.0,0.0,0.0,0.0,0.0,2037,2781,1318,1912,1298,2788,2050,2901,1310,1039,1278,2804,2035,2776,1313,1912,1316,2792,2052,2884,1308,1040,1284,2805
1782219284.2088,3.7700,1,lf,0.0986,0.0986,-0.1100,0,0.3316,0.3325,-0.1103,-0.0017,0.0007,0.0020,CLIMB,4,1,0,0.0,0.000,0.000,0,-1,0,0.0,0.0,0.0,0.0,0.0,0.0,2037,2781,1318,1912,1298,2788,2050,2901,1310,1039,1278,2804,2035,2776,1313,1912,1316,2792,2052,2884,1308,1040,1284,2805
1782219284.2288,3.7900,1,lf,0.0986,0.0986,-0.1100,0,0.3316,0.3325,-0.1103,-0.0017,0.0007,0.0020,CLIMB,4,1,0,0.0,0.000,0.000,0,-1,0,0.0,0.0,0.0,0.0,0.0,0.0,2037,2781,1318,1912,1298,2788,2050,2901,1310,1039,1278,2804,2035,2776,1313,1912,1316,2792,2052,2884,1308,1040,1284,2805
1782219284.2489,3.8102,1,lf,0.0986,0.0986,-0.1100,0,0.3316,0.3325,-0.1103,-0.0016,0.0007,0.0020,CLIMB,5,1,0,0.0,0.000,0.000,0,-1,0,0.0,0.0,0.0,0.0,0.0,0.0,2037,2781,1318,1912,1298,2788,2050,2901,1310,1039,1278,2804,2036,2777,1313,1912,1316,2792,2052,2884,1309,1040,1284,2805
1782219284.2695,3.8307,1,lf,0.0986,0.0986,-0.1100,0,0.3319,0.3324,-0.1101,-0.0018,0.0008,0.0019,CLIMB,5,1,0,0.0,0.000,0.000,0,-1,0,0.0,0.0,0.0,0.0,0.0,0.0,2037,2781,1318,1912,1298,2788,2050,2901,1310,1039,1278,2804,2036,2777,1313,1912,1316,2792,2052,2884,1309,1040,1284,2805
1782219284.2889,3.8501,1,lf,0.0986,0.0986,-0.1097,0,0.3319,0.3324,-0.1101,-0.0019,0.0008,0.0018,CLIMB,5,1,0,0.0,0.000,0.000,0,-1,0,0.0,0.0,0.0,0.0,0.0,0.0,2037,2782,1315,1912,1298,2788,2050,2901,1310,1039,1278,2804,2035,2776,1313,1912,1316,2792,2052,2884,1309,1041,1284,2805
1782219284.3090,3.8702,1,lf,0.0986,0.0986,-0.1091,0,0.3319,0.3324,-0.1101,-0.0019,0.0009,0.0018,CLIMB,5,1,0,0.0,0.000,0.000,0,-1,0,0.0,0.0,0.0,0.0,0.0,0.0,2037,2785,1308,1912,1298,2788,2050,2901,1310,1039,1278,2804,2035,2776,1313,1912,1316,2792,2052,2884,1309,1041,1284,2805
1782219284.3290,3.8902,1,lf,0.0986,0.0986,-0.1081,0,0.3316,0.3325,-0.1103,-0.0018,0.0008,0.0019,CLIMB,5,1,0,0.0,0.000,0.000,0,-1,0,0.0,0.0,0.0,0.0,0.0,0.0,2037,2789,1297,1912,1298,2788,2050,2901,1310,1039,1278,2804,2035,2776,1313,1912,1316,2792,2052,2884,1309,1041,1284,2805
1782219284.3489,3.9101,1,lf,0.0986,0.0986,-0.1068,0,0.3316,0.3325,-0.1103,-0.0017,0.0008,0.0019,CLIMB,5,1,0,0.0,0.000,0.000,0,-1,0,0.0,0.0,0.0,0.0,0.0,0.0,2037,2795,1283,1912,1298,2788,2050,2901,1310,1039,1278,2804,2035,2776,1313,1912,1316,2792,2052,2884,1309,1040,1284,2805
1782219284.3688,3.9300,1,lf,0.0986,0.0986,-0.1054,0,0.3316,0.3325,-0.1103,-0.0017,0.0007,0.0019,CLIMB,5,1,0,0.0,0.000,0.000,0,-1,0,0.0,0.0,0.0,0.0,0.0,0.0,2037,2802,1267,1912,1298,2788,2050,2901,1310,1039,1278,2804,2035,2776,1313,1912,1316,2792,2052,2884,1309,1040,1284,2805
1782219284.3889,3.9501,1,lf,0.0986,0.0986,-0.1039,0,0.3316,0.3325,-0.1103,-0.0017,0.0007,0.0020,CLIMB,5,1,0,0.0,0.000,0.000,0,-1,0,0.0,0.0,0.0,0.0,0.0,0.0,2037,2809,1251,1912,1298,2788,2050,2901,1310,1039,1278,2804,2035,2776,1313,1912,1316,2792,2052,2884,1309,1040,1284,2805
1782219284.4088,3.9700,1,lf,0.0986,0.0986,-0.1025,0,0.3316,0.3325,-0.1103,-0.0017,0.0007,0.0019,CLIMB,5,1,0,0.0,0.000,0.000,0,-1,0,0.0,0.0,0.0,0.0,0.0,0.0,2037,2815,1237,1912,1298,2788,2050,2901,1310,1039,1278,2804,2035,2776,1313,1912,1316,2792,2052,2884,1309,1040,1284,2805
1782219284.4292,3.9904,1,lf,0.0986,0.0986,-0.1014,0,0.3316,0.3325,-0.1103,-0.0017,0.0007,0.0019,CLIMB,5,1,0,0.0,0.000,0.000,0,-1,0,0.0,0.0,0.0,0.0,0.0,0.0,2037,2820,1225,1912,1298,2788,2050,2901,1310,1039,1278,2804,2035,2776,1313,1912,1316,2792,2052,2884,1309,1040,1284,2805
1782219284.4489,4.0101,1,lf,0.0986,0.0986,-0.1006,0,0.3316,0.3325,-0.1103,-0.0017,0.0007,0.0019,CLIMB,5,1,0,0.0,0.000,0.000,0,-1,0,0.0,0.0,0.0,0.0,0.0,0.0,2037,2823,1217,1912,1298,2788,2050,2901,1310,1039,1278,2804,2036,2777,1313,1912,1316,2792,2052,2884,1309,1040,1284,2805
1782219284.4688,4.0300,1,lf,0.0986,0.0986,-0.1001,0,0.3319,0.3324,-0.1101,-0.0018,0.0008,0.0018,CLIMB,5,1,0,0.0,0.000,0.000,0,-1,0,0.0,0.0,0.0,0.0,0.0,0.0,2037,2825,1213,1912,1298,2788,2050,2901,1310,1039,1278,2804,2036,2777,1313,1912,1316,2792,2052,2884,1309,1040,1284,2805
1782219284.4888,4.0500,1,lf,0.0986,0.0986,-0.1000,0,0.3319,0.3324,-0.1101,-0.0019,0.0009,0.0017,CLIMB,5,1,0,0.0,0.000,0.000,0,-1,0,0.0,0.0,0.0,0.0,0.0,0.0,2037,2826,1212,1912,1298,2788,2050,2901,1310,1039,1278,2804,2035,2776,1311,1912,1316,2792,2052,2884,1308,1040,1284,2805
1782219284.5088,4.0700,1,lf,0.0986,0.0986,-0.1000,0,0.3315,0.3324,-0.1103,-0.0017,0.0008,0.0018,CLIMB,5,1,0,93.0,0.000,0.000,0,-1,0,-2.0,-49.0,93.0,0.0,0.0,0.0,2037,2826,1212,1912,1298,2788,2050,2901,1310,1039,1278,2804,2035,2776,1311,1912,1316,2792,2052,2884,1308,1040,1284,2805
1782219284.5288,4.0900,1,lf,0.0986,0.0986,-0.1000,0,0.3315,0.3324,-0.1103,-0.0017,0.0008,0.0018,CLIMB,5,1,0,93.0,0.000,0.020,0,-1,0,-2.0,-49.0,93.0,0.0,0.0,0.0,2037,2826,1212,1912,1298,2788,2050,2901,1310,1039,1278,2804,2035,2776,1311,1912,1316,2792,2052,2884,1308,1040,1284,2805
1782219284.5488,4.1100,1,lf,0.0986,0.0986,-0.1000,0,0.3315,0.3324,-0.1103,-0.0016,0.0008,0.0018,CLIMB,5,1,0,84.0,0.000,0.040,0,-1,0,-2.0,-48.0,84.0,0.0,0.0,0.0,2037,2826,1212,1912,1298,2788,2050,2901,1310,1039,1278,2804,2035,2778,1296,1912,1316,2792,2052,2884,1309,1041,1284,2805
1782219284.5688,4.1301,1,lf,0.0986,0.0986,-0.1000,0,0.3310,0.3320,-0.1098,-0.0013,0.0010,0.0016,CLIMB,5,1,0,84.0,0.000,0.060,0,-1,0,-2.0,-48.0,84.0,0.0,0.0,0.0,2037,2826,1212,1912,1298,2788,2050,2901,1310,1039,1278,2804,2035,2778,1296,1912,1316,2792,2052,2884,1309,1041,1284,2805
1782219284.5888,4.1500,1,lf,0.0986,0.0986,-0.1000,0,0.3310,0.3320,-0.1098,-0.0011,0.0011,0.0015,CLIMB,5,1,0,71.0,0.000,0.080,0,-1,0,-1.0,-45.0,71.0,0.0,0.0,0.0,2037,2826,1212,1912,1298,2788,2050,2901,1310,1039,1278,2804,2036,2781,1283,1912,1316,2792,2052,2884,1309,1041,1284,2805
1782219284.6088,4.1700,1,lf,0.0986,0.0986,-0.1000,0,0.3310,0.3320,-0.1098,-0.0010,0.0012,0.0015,CLIMB,5,1,0,58.0,0.000,0.100,0,-1,0,-1.0,-41.0,58.0,0.0,0.0,0.0,2037,2826,1212,1912,1298,2788,2050,2901,1310,1039,1278,2804,2036,2781,1283,1912,1316,2792,2052,2884,1309,1041,1284,2805
1782219284.6289,4.1901,1,lf,0.0986,0.0986,-0.1000,0,0.3310,0.3314,-0.1092,-0.0009,0.0014,0.0011,CLIMB,5,1,0,58.0,0.000,0.120,0,-1,0,-1.0,-41.0,58.0,0.0,0.0,0.0,2037,2826,1212,1912,1298,2788,2050,2901,1310,1039,1278,2804,2036,2781,1283,1912,1316,2792,2052,2884,1309,1041,1284,2805
1782219284.6489,4.2101,1,lf,0.0986,0.0986,-0.1000,0,0.3310,0.3314,-0.1092,-0.0009,0.0016,0.0009,CLIMB,5,1,0,44.0,0.000,0.140,0,-1,0,-1.0,-37.0,44.0,0.0,0.0,0.0,2037,2826,1212,1912,1298,2788,2050,2901,1310,1039,1278,2804,2036,2789,1256,1912,1316,2791,2052,2884,1308,1040,1284,2805
1782219284.6689,4.2301,1,lf,0.0986,0.0986,-0.1000,0,0.3306,0.3311,-0.1074,-0.0006,0.0018,-0.0002,CLIMB,5,1,0,32.0,0.000,0.160,0,-1,0,-2.0,-32.0,32.0,0.0,0.0,0.0,2037,2826,1212,1912,1298,2788,2050,2901,1310,1039,1278,2804,2036,2789,1256,1912,1316,2791,2052,2884,1308,1040,1284,2805
1782219284.6888,4.2500,1,lf,0.0986,0.0986,-0.1000,0,0.3306,0.3311,-0.1074,-0.0005,0.0019,-0.0007,CLIMB,5,1,0,32.0,0.000,0.180,0,-1,0,-2.0,-32.0,32.0,0.0,0.0,0.0,2037,2826,1212,1912,1298,2788,2050,2901,1310,1039,1278,2804,2035,2799,1233,1912,1316,2792,2052,2884,1309,1040,1284,2805
1782219284.7088,4.2700,1,lf,0.0986,0.0986,-0.1000,0,0.3306,0.3311,-0.1074,-0.0004,0.0019,-0.0010,CLIMB,5,1,0,27.0,0.000,0.200,0,-1,0,-2.0,-27.0,21.0,0.0,0.0,0.0,2037,2826,1212,1912,1298,2788,2050,2901,1310,1039,1278,2804,2035,2799,1233,1912,1316,2792,2052,2884,1309,1040,1284,2805
1782219284.7289,4.2901,1,lf,0.0986,0.0986,-0.1000,0,0.3304,0.3314,-0.1051,-0.0003,0.0018,-0.0023,CLIMB,5,1,0,27.0,0.000,0.220,0,-1,0,-2.0,-27.0,21.0,0.0,0.0,0.0,2037,2826,1212,1912,1298,2788,2050,2901,1310,1039,1278,2804,2035,2799,1233,1912,1316,2792,2052,2884,1309,1040,1284,2805
1782219284.7488,4.3100,1,lf,0.0986,0.0986,-0.1000,0,0.3304,0.3314,-0.1051,-0.0003,0.0017,-0.0029,CLIMB,5,1,0,23.0,0.000,0.240,0,-1,0,-2.0,-23.0,13.0,0.0,0.0,0.0,2037,2826,1212,1912,1298,2788,2050,2901,1310,1039,1278,2804,2035,2803,1225,1912,1316,2792,2052,2884,1309,1040,1284,2805
1782219284.7688,4.3300,1,lf,0.0986,0.0986,-0.1000,0,0.3305,0.3314,-0.1042,-0.0003,0.0016,-0.0037,CLIMB,5,1,0,20.0,0.000,0.260,0,-1,0,-2.0,-20.0,5.0,0.0,0.0,0.0,2037,2826,1212,1912,1298,2788,2050,2901,1310,1039,1278,2804,2035,2803,1225,1912,1316,2792,2052,2884,1309,1040,1284,2805
1782219284.7889,4.3501,1,lf,0.0986,0.0986,-0.1000,0,0.3305,0.3314,-0.1042,-0.0003,0.0016,-0.0041,CLIMB,5,1,0,20.0,0.000,0.280,0,-1,0,-2.0,-20.0,5.0,0.0,0.0,0.0,2037,2826,1212,1912,1298,2788,2050,2901,1310,1039,1278,2804,2035,2811,1213,1912,1316,2792,2053,2884,1308,1041,1283,2805
1782219284.8088,4.3700,1,lf,0.0986,0.0986,-0.1000,0,0.3308,0.3318,-0.1024,-0.0006,0.0014,-0.0052,CLIMB,5,1,0,15.0,0.000,0.300,0,-1,0,-2.0,-15.0,1.0,0.0,0.0,0.0,2037,2826,1212,1912,1298,2788,2050,2901,1310,1039,1278,2804,2035,2811,1213,1912,1316,2792,2053,2884,1308,1041,1283,2805
1782219284.8289,4.3901,1,lf,0.0986,0.0986,-0.1000,0,0.3308,0.3318,-0.1024,-0.0007,0.0013,-0.0058,CLIMB,5,1,0,13.0,0.000,0.320,0,-1,0,-2.0,-13.0,-1.0,0.0,0.0,0.0,2037,2826,1212,1912,1298,2788,2050,2901,1310,1039,1278,2804,2035,2811,1213,1912,1316,2792,2053,2884,1308,1041,1283,2805
1782219284.8489,4.4101,1,lf,0.0986,0.0986,-0.1000,0,0.3308,0.3318,-0.1024,-0.0007,0.0013,-0.0060,CLIMB,5,1,0,13.0,0.000,0.340,0,-1,0,-2.0,-13.0,-1.0,0.0,0.0,0.0,2037,2826,1212,1912,1298,2788,2050,2901,1310,1039,1278,2804,2035,2813,1211,1912,1316,2792,2052,2884,1308,1040,1284,2805
1782219284.8689,4.4301,1,lf,0.0986,0.0986,-0.1000,0,0.3309,0.3319,-0.1020,-0.0008,0.0012,-0.0064,CLIMB,5,1,0,12.0,0.000,0.360,0,-1,0,-1.0,-12.0,-1.0,0.0,0.0,0.0,2037,2826,1212,1912,1298,2788,2050,2901,1310,1039,1278,2804,2035,2813,1211,1912,1316,2792,2052,2884,1308,1040,1284,2805
1782219284.8888,4.4500,1,lf,0.0986,0.0986,-0.1000,0,0.3309,0.3319,-0.1020,-0.0009,0.0012,-0.0065,CLIMB,5,1,0,12.0,0.000,0.380,0,-1,0,-1.0,-12.0,-1.0,0.0,0.0,0.0,2037,2826,1212,1912,1298,2788,2050,2901,1310,1039,1278,2804,2036,2815,1211,1912,1316,2792,2052,2884,1308,1041,1284,2805
1782219284.9088,4.4700,1,lf,0.0986,0.0986,-0.1000,0,0.3314,0.3319,-0.1016,-0.0012,0.0012,-0.0068,CLIMB,5,1,0,11.0,0.000,0.400,0,-1,0,-1.0,-11.0,-1.0,0.0,0.0,0.0,2037,2826,1212,1912,1298,2788,2050,2901,1310,1039,1278,2804,2036,2815,1211,1912,1316,2792,2052,2884,1308,1041,1284,2805
1782219284.9288,4.4901,1,lf,0.0986,0.0986,-0.1000,0,0.3314,0.3319,-0.1016,-0.0013,0.0012,-0.0069,CLIMB,5,1,0,11.0,0.000,0.420,0,-1,0,-2.0,-11.0,-1.0,0.0,0.0,0.0,2037,2826,1212,1912,1298,2788,2050,2901,1310,1039,1278,2804,2036,2815,1211,1912,1316,2792,2052,2884,1308,1041,1284,2805
1782219284.9488,4.5100,1,lf,0.0986,0.0986,-0.1000,0,0.3314,0.3319,-0.1016,-0.0013,0.0012,-0.0070,CLIMB,5,1,0,11.0,0.000,0.440,0,-1,0,-2.0,-11.0,-1.0,0.0,0.0,0.0,2037,2826,1212,1912,1298,2788,2050,2901,1310,1039,1278,2804,2035,2815,1211,1912,1316,2792,2052,2884,1309,1040,1284,2805
1782219284.9690,4.5302,1,lf,0.0986,0.0986,-0.1000,0,0.3311,0.3321,-0.1016,-0.0013,0.0011,-0.0070,CLIMB,5,1,0,11.0,0.000,0.460,0,-1,0,-2.0,-11.0,-1.0,0.0,0.0,0.0,2037,2826,1212,1912,1298,2788,2050,2901,1310,1039,1278,2804,2035,2815,1211,1912,1316,2792,2052,2884,1309,1040,1284,2805
1782219284.9889,4.5501,1,lf,0.0986,0.0986,-0.1000,0,0.3311,0.3321,-0.1016,-0.0013,0.0010,-0.0070,CLIMB,5,1,0,11.0,0.000,0.480,0,-1,0,-1.0,-11.0,-1.0,0.0,0.0,0.0,2037,2826,1212,1912,1298,2788,2050,2901,1310,1039,1278,2804,2036,2815,1211,1912,1316,2791,2052,2884,1308,1041,1283,2805
1782219285.0088,4.5700,1,lf,0.0986,0.0986,-0.1000,0,0.3314,0.3319,-0.1016,-0.0013,0.0011,-0.0069,CLIMB,5,1,0,11.0,0.000,0.500,0,-1,0,-1.0,-11.0,-1.0,0.0,0.0,0.0,2037,2826,1212,1912,1298,2788,2050,2901,1310,1039,1278,2804,2036,2815,1211,1912,1316,2791,2052,2884,1308,1041,1283,2805
1782219285.0289,4.5902,1,lf,0.0986,0.0986,-0.1000,0,0.3314,0.3319,-0.1016,-0.0014,0.0012,-0.0069,CLIMB,5,1,0,11.0,0.000,0.520,0,-1,0,-1.0,-11.0,-1.0,0.0,0.0,0.0,2037,2826,1212,1912,1298,2788,2050,2901,1310,1039,1278,2804,2036,2815,1211,1912,1316,2791,2052,2884,1308,1041,1283,2805
1782219285.0489,4.6101,1,lf,0.0986,0.0986,-0.1000,0,0.3314,0.3319,-0.1016,-0.0014,0.0013,-0.0069,CLIMB,5,1,0,11.0,0.000,0.540,0,-1,0,-1.0,-11.0,-1.0,0.0,0.0,0.0,2037,2826,1212,1912,1298,2788,2050,2901,1310,1039,1278,2804,2035,2815,1211,1912,1316,2791,2052,2884,1308,1041,1284,2805
1782219285.0689,4.6301,1,lf,0.0986,0.0986,-0.1000,0,0.3311,0.3321,-0.1016,-0.0013,0.0011,-0.0069,CLIMB,5,1,0,11.0,0.000,0.560,0,-1,0,-2.0,-11.0,-1.0,0.0,0.0,0.0,2037,2826,1212,1912,1298,2788,2050,2901,1310,1039,1278,2804,2035,2815,1211,1912,1316,2791,2052,2884,1308,1041,1284,2805
1782219285.0888,4.6500,1,lf,0.0986,0.0986,-0.1000,0,0.3311,0.3321,-0.1016,-0.0013,0.0011,-0.0068,CLIMB,5,1,0,11.0,0.000,0.580,0,-1,0,-1.0,-11.0,-1.0,0.0,0.0,0.0,2037,2826,1212,1912,1298,2788,2050,2901,1310,1039,1278,2804,2036,2815,1211,1912,1316,2791,2052,2884,1309,1041,1284,2805
1782219285.1089,4.6701,1,lf,0.0986,0.0986,-0.1000,0,0.3314,0.3319,-0.1016,-0.0013,0.0012,-0.0068,CLIMB,5,1,0,11.0,0.000,0.600,0,-1,0,-1.0,-11.0,-1.0,0.0,0.0,0.0,2037,2826,1212,1912,1298,2788,2050,2901,1310,1039,1278,2804,2036,2815,1211,1912,1316,2791,2052,2884,1309,1041,1284,2805
1782219285.1289,4.6901,1,lf,0.0986,0.0986,-0.1000,0,0.3314,0.3319,-0.1016,-0.0014,0.0012,-0.0068,CLIMB,5,1,0,11.0,0.000,0.620,0,-1,0,-2.0,-11.0,-1.0,0.0,0.0,0.0,2037,2826,1212,1912,1298,2788,2050,2901,1310,1039,1278,2804,2036,2815,1211,1912,1316,2791,2052,2884,1309,1041,1284,2805
1782219285.1488,4.7100,1,lf,0.0986,0.0986,-0.1000,0,0.3314,0.3319,-0.1016,-0.0014,0.0012,-0.0068,CLIMB,5,1,0,11.0,0.000,0.640,0,-1,0,-2.0,-11.0,-1.0,0.0,0.0,0.0,2037,2826,1212,1912,1298,2788,2050,2901,1310,1039,1278,2804,2035,2815,1211,1912,1316,2792,2052,2884,1309,1041,1284,2805
1782219285.1688,4.7300,1,lf,0.0986,0.0986,-0.1000,0,0.3311,0.3321,-0.1016,-0.0013,0.0011,-0.0067,CLIMB,5,1,0,11.0,0.000,0.660,0,-1,0,-2.0,-11.0,-1.0,0.0,0.0,0.0,2037,2826,1212,1912,1298,2788,2050,2901,1310,1039,1278,2804,2035,2815,1211,1912,1316,2792,2052,2884,1309,1041,1284,2805
1782219285.1887,4.7499,1,lf,0.0986,0.0986,-0.1000,0,0.3311,0.3321,-0.1016,-0.0012,0.0010,-0.0067,CLIMB,5,1,0,11.0,0.000,0.680,0,-1,0,-2.0,-11.0,-1.0,0.0,0.0,0.0,2037,2826,1212,1912,1298,2788,2050,2901,1310,1039,1278,2804,2035,2815,1211,1912,1316,2792,2052,2884,1308,1041,1283,2805
1782219285.2089,4.7701,1,lf,0.0986,0.0986,-0.1000,0,0.3311,0.3321,-0.1016,-0.0012,0.0010,-0.0067,CLIMB,5,1,0,11.0,0.000,0.700,0,-1,0,-2.0,-11.0,-1.0,0.0,0.0,0.0,2037,2826,1212,1912,1298,2788,2050,2901,1310,1039,1278,2804,2035,2815,1211,1912,1316,2792,2052,2884,1308,1041,1283,2805
1782219285.2288,4.7900,1,lf,0.0986,0.0986,-0.1000,0,0.3311,0.3321,-0.1016,-0.0012,0.0010,-0.0067,CLIMB,5,1,0,11.0,0.000,0.720,0,-1,0,-2.0,-11.0,-1.0,0.0,0.0,0.0,2037,2826,1212,1912,1298,2788,2050,2901,1310,1039,1278,2804,2035,2815,1211,1912,1316,2792,2052,2884,1308,1041,1283,2805
1782219285.2488,4.8100,1,lf,0.0986,0.0986,-0.1000,0,0.3311,0.3321,-0.1016,-0.0012,0.0010,-0.0067,CLIMB,5,1,0,11.0,0.000,0.740,0,-1,0,-2.0,-11.0,-1.0,0.0,0.0,0.0,2037,2826,1212,1912,1298,2788,2050,2901,1310,1039,1278,2804,2035,2815,1211,1912,1316,2792,2052,2884,1308,1041,1284,2805
1782219285.2689,4.8301,1,lf,0.0986,0.0986,-0.1000,0,0.3311,0.3321,-0.1016,-0.0012,0.0010,-0.0067,CLIMB,5,1,0,11.0,0.000,0.760,0,-1,0,-2.0,-11.0,-1.0,0.0,0.0,0.0,2037,2826,1212,1912,1298,2788,2050,2901,1310,1039,1278,2804,2035,2815,1211,1912,1316,2792,2052,2884,1308,1041,1284,2805
1782219285.2888,4.8500,1,lf,0.0986,0.0986,-0.1000,0,0.3311,0.3321,-0.1016,-0.0012,0.0010,-0.0067,CLIMB,5,1,0,11.0,0.000,0.780,0,-1,0,-2.0,-11.0,-1.0,0.0,0.0,0.0,2037,2826,1212,1912,1298,2788,2050,2901,1310,1039,1278,2804,2035,2815,1211,1912,1316,2792,2052,2884,1308,1041,1283,2805
1782219285.3088,4.8700,1,lf,0.0986,0.0986,-0.1000,0,0.3311,0.3321,-0.1016,-0.0012,0.0010,-0.0066,CLIMB,5,1,0,11.0,0.000,0.800,0,-1,0,-1.0,-11.0,-1.0,0.0,0.0,0.0,2037,2826,1212,1912,1298,2788,2050,2901,1310,1039,1278,2804,2035,2815,1211,1912,1316,2792,2052,2884,1308,1041,1283,2805
1782219285.3289,4.8901,1,lf,0.0986,0.0986,-0.1000,0,0.3311,0.3321,-0.1016,-0.0012,0.0010,-0.0066,CLIMB,5,1,0,11.0,0.000,0.820,0,-1,0,-1.0,-11.0,-1.0,0.0,0.0,0.0,2037,2826,1212,1912,1298,2788,2050,2901,1310,1039,1278,2804,2035,2815,1211,1912,1316,2792,2052,2884,1308,1041,1283,2805
1782219285.3489,4.9101,1,lf,0.0986,0.0986,-0.1000,0,0.3311,0.3321,-0.1016,-0.0012,0.0010,-0.0066,CLIMB,5,1,0,11.0,0.000,0.840,0,-1,0,-2.0,-11.0,-2.0,0.0,0.0,0.0,2037,2826,1212,1912,1298,2788,2050,2901,1310,1039,1278,2804,2035,2815,1210,1912,1316,2792,2052,2884,1309,1041,1284,2805
1782219285.3689,4.9302,1,lf,0.0986,0.0986,-0.1000,0,0.3311,0.3321,-0.1016,-0.0012,0.0010,-0.0066,CLIMB,5,1,0,11.0,0.000,0.860,0,-1,0,-2.0,-11.0,-2.0,0.0,0.0,0.0,2037,2826,1212,1912,1298,2788,2050,2901,1310,1039,1278,2804,2035,2815,1210,1912,1316,2792,2052,2884,1309,1041,1284,2805
1782219285.3887,4.9499,1,lf,0.0986,0.0986,-0.1000,0,0.3311,0.3321,-0.1016,-0.0011,0.0010,-0.0066,CLIMB,5,1,0,11.0,0.000,0.880,0,-1,0,-1.0,-11.0,-2.0,0.0,0.0,0.0,2037,2826,1212,1912,1298,2788,2050,2901,1310,1039,1278,2804,2036,2815,1210,1912,1316,2792,2052,2884,1308,1041,1284,2805
1782219285.4088,4.9700,1,lf,0.0986,0.0986,-0.1000,0,0.3311,0.3321,-0.1016,-0.0011,0.0010,-0.0066,CLIMB,5,1,0,11.0,0.000,0.900,0,-1,0,-2.0,-11.0,-2.0,0.0,0.0,0.0,2037,2826,1212,1912,1298,2788,2050,2901,1310,1039,1278,2804,2036,2815,1210,1912,1316,2792,2052,2884,1308,1041,1284,2805
1782219285.4288,4.9900,1,lf,0.0986,0.0986,-0.1000,0,0.3313,0.3318,-0.1016,-0.0012,0.0012,-0.0066,CLIMB,5,1,0,11.0,0.000,0.920,0,-1,0,-2.0,-11.0,-2.0,0.0,0.0,0.0,2037,2826,1212,1912,1298,2788,2050,2901,1310,1039,1278,2804,2036,2815,1210,1912,1316,2792,2052,2884,1308,1041,1284,2805
1782219285.4489,5.0101,1,lf,0.0986,0.0986,-0.1000,0,0.3313,0.3318,-0.1016,-0.0013,0.0013,-0.0066,CLIMB,5,1,0,11.0,0.000,0.940,0,-1,0,-2.0,-11.0,-1.0,0.0,0.0,0.0,2037,2826,1212,1912,1298,2788,2050,2901,1310,1039,1278,2804,2035,2815,1211,1912,1316,2792,2052,2884,1309,1040,1284,2805
1782219285.4689,5.0301,1,lf,0.0986,0.0986,-0.1000,0,0.3311,0.3321,-0.1016,-0.0012,0.0011,-0.0065,CLIMB,5,1,0,11.0,0.000,0.960,0,-1,0,-1.0,-11.0,-2.0,0.0,0.0,0.0,2037,2826,1212,1912,1298,2788,2050,2901,1310,1039,1278,2804,2035,2815,1211,1912,1316,2792,2052,2884,1309,1040,1284,2805
1782219285.4888,5.0500,1,lf,0.0986,0.0986,-0.1000,0,0.3311,0.3321,-0.1016,-0.0012,0.0011,-0.0065,CLIMB,5,1,0,11.0,0.000,0.980,0,-1,0,-1.0,-11.0,-2.0,0.0,0.0,0.0,2037,2826,1212,1912,1298,2788,2050,2901,1310,1039,1278,2804,2036,2815,1211,1912,1316,2792,2052,2884,1309,1041,1284,2805
1782219285.5088,5.0700,1,lf,0.0986,0.0986,-0.1000,0,0.3314,0.3319,-0.1016,-0.0013,0.0012,-0.0065,CLIMB,5,1,0,11.0,0.000,1.000,0,-1,0,-1.0,-11.0,-1.0,0.0,0.0,0.0,2037,2826,1212,1912,1298,2788,2050,2901,1310,1039,1278,2804,2036,2815,1211,1912,1316,2792,2052,2884,1309,1041,1284,2805
1782219285.5289,5.0901,1,lf,0.0986,0.0986,-0.1000,0,0.3314,0.3319,-0.1016,-0.0013,0.0013,-0.0065,CLIMB,5,1,0,11.0,0.000,1.020,0,-1,0,-1.0,-11.0,-1.0,0.0,0.0,0.0,2037,2826,1212,1912,1298,2788,2050,2901,1310,1039,1278,2804,2036,2815,1211,1912,1316,2792,2052,2884,1309,1041,1284,2805
1782219285.5488,5.1100,1,lf,0.0986,0.0986,-0.1000,0,0.3314,0.3319,-0.1016,-0.0014,0.0013,-0.0065,CLIMB,5,1,0,11.0,0.000,1.040,0,-1,0,-1.0,-11.0,-2.0,0.0,0.0,0.0,2037,2826,1212,1912,1298,2788,2050,2901,1310,1039,1278,2804,2036,2815,1210,1912,1316,2792,2052,2884,1308,1041,1284,2805
1782219285.5689,5.1301,1,lf,0.0986,0.0986,-0.1000,0,0.3313,0.3318,-0.1016,-0.0013,0.0013,-0.0065,CLIMB,5,1,0,11.0,0.000,1.060,0,-1,0,-1.0,-11.0,-1.0,0.0,0.0,0.0,2037,2826,1212,1912,1298,2788,2050,2901,1310,1039,1278,2804,2036,2815,1210,1912,1316,2792,2052,2884,1308,1041,1284,2805
1782219285.5888,5.1500,1,lf,0.0986,0.0986,-0.1000,0,0.3313,0.3318,-0.1016,-0.0013,0.0013,-0.0065,CLIMB,5,1,0,11.0,0.000,1.080,0,-1,0,-1.0,-11.0,-1.0,0.0,0.0,0.0,2037,2826,1212,1912,1298,2788,2050,2901,1310,1039,1278,2804,2036,2815,1211,1912,1316,2792,2052,2884,1308,1040,1284,2805
1782219285.6088,5.1700,1,lf,0.0986,0.0986,-0.1000,0,0.3314,0.3319,-0.1016,-0.0013,0.0013,-0.0065,CLIMB,5,1,0,11.0,0.000,1.100,0,-1,0,-1.0,-11.0,-1.0,0.0,0.0,0.0,2037,2826,1212,1912,1298,2788,2050,2901,1310,1039,1278,2804,2036,2815,1211,1912,1316,2792,2052,2884,1308,1040,1284,2805
1782219285.6288,5.1900,1,lf,0.0986,0.0986,-0.1000,0,0.3314,0.3319,-0.1016,-0.0013,0.0013,-0.0065,CLIMB,5,1,0,11.0,0.000,1.120,0,-1,0,-1.0,-11.0,-1.0,0.0,0.0,0.0,2037,2826,1212,1912,1298,2788,2050,2901,1310,1039,1278,2804,2036,2815,1211,1912,1316,2792,2052,2884,1308,1040,1284,2805
1782219285.6489,5.2101,1,lf,0.0986,0.0986,-0.1000,0,0.3314,0.3319,-0.1016,-0.0014,0.0013,-0.0065,CLIMB,5,1,0,11.0,0.000,1.140,0,-1,0,-1.0,-11.0,-1.0,0.0,0.0,0.0,2037,2826,1212,1912,1298,2788,2050,2901,1310,1039,1278,2804,2036,2815,1211,1912,1316,2792,2052,2884,1308,1041,1283,2805
1782219285.6689,5.2301,1,lf,0.0986,0.0986,-0.1000,0,0.3314,0.3319,-0.1016,-0.0014,0.0013,-0.0065,CLIMB,5,1,0,11.0,0.000,1.160,0,-1,0,-1.0,-11.0,-1.0,0.0,0.0,0.0,2037,2826,1212,1912,1298,2788,2050,2901,1310,1039,1278,2804,2036,2815,1211,1912,1316,2792,2052,2884,1308,1041,1283,2805
1782219285.6889,5.2501,1,lf,0.0986,0.0986,-0.1000,0,0.3314,0.3319,-0.1016,-0.0014,0.0013,-0.0065,CLIMB,5,1,0,11.0,0.000,1.180,0,-1,0,-1.0,-11.0,-1.0,0.0,0.0,0.0,2037,2826,1212,1912,1298,2788,2050,2901,1310,1039,1278,2804,2036,2815,1211,1912,1316,2791,2052,2884,1308,1041,1284,2805
1782219285.7088,5.2700,1,lf,0.0986,0.0986,-0.1000,0,0.3314,0.3319,-0.1016,-0.0014,0.0013,-0.0065,CLIMB,5,1,0,11.0,0.000,1.200,0,-1,0,-1.0,-11.0,-1.0,0.0,0.0,0.0,2037,2826,1212,1912,1298,2788,2050,2901,1310,1039,1278,2804,2036,2815,1211,1912,1316,2791,2052,2884,1308,1041,1284,2805
1782219285.7288,5.2900,1,lf,0.0986,0.0986,-0.1000,0,0.3314,0.3319,-0.1016,-0.0014,0.0013,-0.0065,CLIMB,5,1,0,11.0,0.000,1.220,0,-1,0,-2.0,-11.0,-1.0,0.0,0.0,0.0,2037,2826,1212,1912,1298,2788,2050,2901,1310,1039,1278,2804,2036,2815,1211,1912,1316,2791,2052,2884,1308,1041,1284,2805
1782219285.7488,5.3100,1,lf,0.0986,0.0986,-0.1000,0,0.3314,0.3319,-0.1016,-0.0014,0.0013,-0.0065,CLIMB,5,1,0,11.0,0.000,1.240,0,-1,0,-2.0,-11.0,-1.0,0.0,0.0,0.0,2037,2826,1212,1912,1298,2788,2050,2901,1310,1039,1278,2804,2035,2815,1211,1912,1316,2792,2052,2884,1308,1040,1284,2805
1782219285.7688,5.3300,1,lf,0.0986,0.0986,-0.1000,0,0.3311,0.3321,-0.1016,-0.0013,0.0012,-0.0065,CLIMB,5,1,0,11.0,0.000,1.260,0,-1,0,-2.0,-11.0,-1.0,0.0,0.0,0.0,2037,2826,1212,1912,1298,2788,2050,2901,1310,1039,1278,2804,2035,2815,1211,1912,1316,2792,2052,2884,1308,1040,1284,2805
1782219285.7887,5.3499,1,lf,0.0986,0.0986,-0.1000,0,0.3311,0.3321,-0.1016,-0.0012,0.0011,-0.0065,CLIMB,5,1,0,11.0,0.000,1.280,0,-1,0,-2.0,-11.0,-1.0,0.0,0.0,0.0,2037,2826,1212,1912,1298,2788,2050,2901,1310,1039,1278,2804,2035,2815,1211,1912,1316,2792,2052,2884,1308,1040,1284,2805
1782219285.8086,5.3698,1,lf,0.0986,0.0986,-0.1000,0,0.3311,0.3321,-0.1016,-0.0012,0.0010,-0.0065,CLIMB,5,1,0,11.0,0.000,1.300,0,-1,0,-2.0,-11.0,-1.0,0.0,0.0,0.0,2037,2826,1212,1912,1298,2788,2050,2901,1310,1039,1278,2804,2035,2815,1211,1913,1316,2791,2052,2884,1309,1041,1284,2805
1782219285.8285,5.3897,1,lf,0.0986,0.0986,-0.1000,0,0.3311,0.3321,-0.1016,-0.0012,0.0010,-0.0065,CLIMB,5,1,0,11.0,0.000,1.320,0,-1,0,-1.0,-11.0,-1.0,0.0,0.0,0.0,2037,2826,1212,1912,1298,2788,2050,2901,1310,1039,1278,2804,2035,2815,1211,1913,1316,2791,2052,2884,1309,1041,1284,2805
1782219285.8486,5.4098,1,lf,0.0986,0.0986,-0.1000,0,0.3311,0.3321,-0.1016,-0.0012,0.0010,-0.0065,CLIMB,5,1,0,11.0,0.000,1.340,0,-1,0,-1.0,-11.0,-1.0,0.0,0.0,0.0,2037,2826,1212,1912,1298,2788,2050,2901,1310,1039,1278,2804,2035,2815,1210,1912,1316,2792,2052,2884,1308,1040,1284,2805
1782219285.8688,5.4300,1,lf,0.0986,0.0986,-0.1000,0,0.3311,0.3321,-0.1016,-0.0012,0.0010,-0.0065,CLIMB,5,1,0,11.0,0.000,1.360,0,-1,0,-2.0,-11.0,-2.0,0.0,0.0,0.0,2037,2826,1212,1912,1298,2788,2050,2901,1310,1039,1278,2804,2035,2815,1210,1912,1316,2792,2052,2884,1308,1040,1284,2805
1782219285.8887,5.4500,1,lf,0.0986,0.0986,-0.1000,0,0.3311,0.3321,-0.1016,-0.0011,0.0010,-0.0065,CLIMB,5,1,0,11.0,0.000,1.380,0,-1,0,-1.0,-11.0,-2.0,0.0,0.0,0.0,2037,2826,1212,1912,1298,2788,2050,2901,1310,1039,1278,2804,2036,2815,1210,1912,1316,2791,2052,2884,1309,1041,1284,2805
1782219285.9087,5.4700,1,lf,0.0986,0.0986,-0.1000,0,0.3313,0.3318,-0.1016,-0.0012,0.0012,-0.0064,CLIMB,5,1,0,11.0,0.000,1.400,0,-1,0,-1.0,-11.0,-2.0,0.0,0.0,0.0,2037,2826,1212,1912,1298,2788,2050,2901,1310,1039,1278,2804,2036,2815,1210,1912,1316,2791,2052,2884,1309,1041,1284,2805
1782219285.9288,5.4900,1,lf,0.0986,0.0986,-0.1000,0,0.3313,0.3318,-0.1016,-0.0013,0.0013,-0.0065,CLIMB,5,1,0,11.0,0.000,1.420,0,-1,0,-2.0,-11.0,-1.0,0.0,0.0,0.0,2037,2826,1212,1912,1298,2788,2050,2901,1310,1039,1278,2804,2036,2815,1210,1912,1316,2791,2052,2884,1309,1041,1284,2805
1782219285.9487,5.5099,1,lf,0.0986,0.0986,-0.1000,0,0.3313,0.3318,-0.1016,-0.0013,0.0013,-0.0065,CLIMB,5,1,0,11.0,0.000,1.440,0,-1,0,-1.0,-11.0,-1.0,0.0,0.0,0.0,2037,2826,1212,1912,1298,2788,2050,2901,1310,1039,1278,2804,2036,2815,1211,1912,1316,2792,2052,2884,1309,1041,1284,2805
1782219285.9690,5.5302,1,lf,0.0986,0.0986,-0.1000,0,0.3314,0.3319,-0.1016,-0.0013,0.0013,-0.0064,CLIMB,5,1,0,11.0,0.000,1.460,0,-1,0,-1.0,-11.0,-1.0,0.0,0.0,0.0,2037,2826,1212,1912,1298,2788,2050,2901,1310,1039,1278,2804,2036,2815,1211,1912,1316,2792,2052,2884,1309,1041,1284,2805
1782219285.9888,5.5500,1,lf,0.0986,0.0986,-0.1000,0,0.3314,0.3319,-0.1016,-0.0013,0.0013,-0.0064,CLIMB,5,1,0,11.0,0.000,1.480,0,-1,0,-2.0,-11.0,-2.0,0.0,0.0,0.0,2037,2826,1212,1912,1298,2788,2050,2901,1310,1039,1278,2804,2035,2815,1210,1912,1316,2792,2052,2884,1309,1041,1284,2805
1782219286.0090,5.5702,1,lf,0.0986,0.0986,-0.1000,0,0.3311,0.3321,-0.1016,-0.0012,0.0012,-0.0064,CLIMB,5,1,0,11.0,0.000,1.500,0,-1,0,-2.0,-11.0,-2.0,0.0,0.0,0.0,2037,2826,1212,1912,1298,2788,2050,2901,1310,1039,1278,2804,2035,2815,1210,1912,1316,2792,2052,2884,1309,1041,1284,2805
1782219286.0289,5.5901,1,lf,0.0986,0.0986,-0.1000,0,0.3311,0.3321,-0.1016,-0.0012,0.0011,-0.0064,CLIMB,5,1,0,11.0,0.000,1.520,0,-1,0,-1.0,-11.0,-1.0,0.0,0.0,0.0,2037,2826,1212,1912,1298,2788,2050,2901,1310,1039,1278,2804,2035,2815,1210,1912,1316,2792,2052,2884,1309,1041,1284,2805
1782219286.0489,5.6101,1,lf,0.0986,0.0986,-0.1000,0,0.3311,0.3321,-0.1016,-0.0011,0.0011,-0.0064,CLIMB,5,1,0,11.0,0.000,1.540,0,-1,0,-2.0,-11.0,-2.0,0.0,0.0,0.0,2037,2826,1212,1912,1298,2788,2050,2901,1310,1039,1278,2804,2035,2815,1210,1912,1316,2791,2052,2884,1308,1040,1284,2805
1782219286.0688,5.6300,1,lf,0.0986,0.0986,-0.1000,0,0.3311,0.3321,-0.1016,-0.0011,0.0011,-0.0064,CLIMB,5,1,0,11.0,0.000,1.560,0,-1,0,-2.0,-11.0,-2.0,0.0,0.0,0.0,2037,2826,1212,1912,1298,2788,2050,2901,1310,1039,1278,2804,2035,2815,1210,1912,1316,2791,2052,2884,1308,1040,1284,2805
1782219286.0888,5.6500,1,lf,0.0986,0.0986,-0.1000,0,0.3311,0.3321,-0.1016,-0.0011,0.0011,-0.0064,CLIMB,5,1,0,11.0,0.000,1.580,0,-1,0,-1.0,-11.0,-2.0,0.0,0.0,0.0,2037,2826,1212,1912,1298,2788,2050,2901,1310,1039,1278,2804,2036,2815,1210,1912,1316,2792,2052,2884,1309,1040,1284,2805
1782219286.1088,5.6700,1,lf,0.0986,0.0986,-0.1000,0,0.3313,0.3318,-0.1016,-0.0012,0.0012,-0.0064,CLIMB,5,1,0,11.0,0.000,1.600,0,-1,0,-1.0,-11.0,-1.0,0.0,0.0,0.0,2037,2826,1212,1912,1298,2788,2050,2901,1310,1039,1278,2804,2036,2815,1210,1912,1316,2792,2052,2884,1309,1040,1284,2805
1782219286.1288,5.6900,1,lf,0.0986,0.0986,-0.1000,0,0.3313,0.3318,-0.1016,-0.0012,0.0013,-0.0064,CLIMB,5,1,0,11.0,0.000,1.620,0,-1,0,-1.0,-11.0,-1.0,0.0,0.0,0.0,2037,2826,1212,1912,1298,2788,2050,2901,1310,1039,1278,2804,2036,2815,1210,1912,1316,2792,2052,2884,1309,1040,1284,2805
1782219286.1487,5.7099,1,lf,0.0986,0.0986,-0.1000,0,0.3313,0.3318,-0.1016,-0.0013,0.0013,-0.0064,CLIMB,5,1,0,11.0,0.000,1.640,0,-1,0,-2.0,-11.0,-2.0,0.0,0.0,0.0,2037,2826,1212,1912,1298,2788,2050,2901,1310,1039,1278,2804,2035,2815,1210,1912,1316,2792,2052,2884,1308,1041,1284,2805
1782219286.1688,5.7300,1,lf,0.0986,0.0986,-0.1000,0,0.3311,0.3321,-0.1016,-0.0012,0.0012,-0.0064,CLIMB,5,1,0,11.0,0.000,1.660,0,-1,0,-2.0,-11.0,-2.0,0.0,0.0,0.0,2037,2826,1212,1912,1298,2788,2050,2901,1310,1039,1278,2804,2035,2815,1210,1912,1316,2792,2052,2884,1308,1041,1284,2805
1782219286.1888,5.7500,1,lf,0.0986,0.0986,-0.1000,0,0.3311,0.3321,-0.1016,-0.0011,0.0011,-0.0064,CLIMB,5,1,0,11.0,0.000,1.680,0,-1,0,-1.0,-11.0,-1.0,0.0,0.0,0.0,2037,2826,1212,1912,1298,2788,2050,2901,1310,1039,1278,2804,2036,2815,1211,1912,1316,2792,2052,2884,1309,1041,1283,2805
1782219286.2088,5.7700,1,lf,0.0986,0.0986,-0.1000,0,0.3311,0.3321,-0.1016,-0.0011,0.0011,-0.0064,CLIMB,5,1,0,11.0,0.000,1.700,0,-1,0,-2.0,-11.0,-2.0,0.0,0.0,0.0,2037,2826,1212,1912,1298,2788,2050,2901,1310,1039,1278,2804,2036,2815,1211,1912,1316,2792,2052,2884,1309,1041,1283,2805
1782219286.2288,5.7900,1,lf,0.0986,0.0986,-0.1000,0,0.3314,0.3319,-0.1016,-0.0012,0.0012,-0.0064,CLIMB,5,1,0,11.0,0.000,1.720,0,-1,0,-2.0,-11.0,-2.0,0.0,0.0,0.0,2037,2826,1212,1912,1298,2788,2050,2901,1310,1039,1278,2804,2036,2815,1211,1912,1316,2792,2052,2884,1309,1041,1283,2805
1782219286.2488,5.8100,1,lf,0.0986,0.0986,-0.1000,0,0.3314,0.3319,-0.1016,-0.0013,0.0013,-0.0064,CLIMB,5,1,0,11.0,0.000,1.740,0,-1,0,-1.0,-11.0,-1.0,0.0,0.0,0.0,2037,2826,1212,1912,1298,2788,2050,2901,1310,1039,1278,2804,2036,2815,1211,1912,1316,2792,2052,2884,1308,1041,1284,2805
1782219286.2686,5.8298,1,lf,0.0986,0.0986,-0.1000,0,0.3314,0.3319,-0.1016,-0.0013,0.0013,-0.0064,CLIMB,5,1,0,11.0,0.000,1.760,0,-1,0,-1.0,-11.0,-1.0,0.0,0.0,0.0,2037,2826,1212,1912,1298,2788,2050,2901,1310,1039,1278,2804,2036,2815,1211,1912,1316,2792,2052,2884,1308,1041,1284,2805
1782219286.2888,5.8500,1,lf,0.0986,0.0986,-0.1000,0,0.3314,0.3319,-0.1016,-0.0013,0.0013,-0.0064,CLIMB,5,1,0,11.0,0.000,1.780,0,-1,0,-1.0,-11.0,-1.0,0.0,0.0,0.0,2037,2826,1212,1912,1298,2788,2050,2901,1310,1039,1278,2804,2036,2815,1210,1912,1316,2791,2052,2884,1308,1041,1284,2805
1782219286.3088,5.8700,1,lf,0.0986,0.0986,-0.1000,0,0.3314,0.3319,-0.1016,-0.0014,0.0013,-0.0064,CLIMB,5,1,0,11.0,0.000,1.800,0,-1,0,-1.0,-11.0,-2.0,0.0,0.0,0.0,2037,2826,1212,1912,1298,2788,2050,2901,1310,1039,1278,2804,2036,2815,1210,1912,1316,2791,2052,2884,1308,1041,1284,2805
1782219286.3288,5.8900,1,lf,0.0986,0.0986,-0.1000,0,0.3313,0.3318,-0.1016,-0.0013,0.0013,-0.0064,CLIMB,5,1,0,11.0,0.000,1.820,0,-1,0,-1.0,-11.0,-2.0,0.0,0.0,0.0,2037,2826,1212,1912,1298,2788,2050,2901,1310,1039,1278,2804,2036,2815,1210,1912,1316,2791,2052,2884,1308,1041,1284,2805
1782219286.3487,5.9099,1,lf,0.0986,0.0986,-0.1000,0,0.3313,0.3318,-0.1016,-0.0013,0.0013,-0.0064,CLIMB,5,1,0,11.0,0.000,1.840,0,-1,0,-2.0,-11.0,-2.0,0.0,0.0,0.0,2037,2826,1212,1912,1298,2788,2050,2901,1310,1039,1278,2804,2035,2815,1210,1912,1316,2791,2052,2884,1308,1041,1284,2805
1782219286.3688,5.9300,1,lf,0.0986,0.0986,-0.1000,0,0.3311,0.3321,-0.1016,-0.0012,0.0012,-0.0064,CLIMB,5,1,0,11.0,0.000,1.860,0,-1,0,-1.0,-11.0,-1.0,0.0,0.0,0.0,2037,2826,1212,1912,1298,2788,2050,2901,1310,1039,1278,2804,2035,2815,1210,1912,1316,2791,2052,2884,1308,1041,1284,2805
1782219286.3887,5.9499,1,lf,0.0986,0.0986,-0.1000,0,0.3311,0.3321,-0.1016,-0.0012,0.0011,-0.0064,CLIMB,5,1,0,11.0,0.000,1.880,0,-1,0,-1.0,-11.0,-1.0,0.0,0.0,0.0,2037,2826,1212,1912,1298,2788,2050,2901,1310,1039,1278,2804,2035,2815,1211,1912,1316,2792,2052,2884,1309,1041,1284,2805
1782219286.4087,5.9699,1,lf,0.0986,0.0986,-0.1000,0,0.3311,0.3321,-0.1016,-0.0012,0.0011,-0.0064,CLIMB,5,1,0,11.0,0.000,1.900,0,-1,0,-2.0,-11.0,-1.0,0.0,0.0,0.0,2037,2826,1212,1912,1298,2788,2050,2901,1310,1039,1278,2804,2035,2815,1211,1912,1316,2792,2052,2884,1309,1041,1284,2805
1782219286.4287,5.9899,1,lf,0.0986,0.0986,-0.1000,0,0.3311,0.3321,-0.1016,-0.0012,0.0010,-0.0064,CLIMB,5,1,0,11.0,0.000,1.920,0,-1,0,-1.0,-11.0,-2.0,0.0,0.0,0.0,2037,2826,1212,1912,1298,2788,2050,2901,1310,1039,1278,2804,2035,2815,1211,1912,1316,2792,2052,2884,1309,1041,1284,2805
1782219286.4487,6.0099,1,lf,0.0986,0.0986,-0.1000,0,0.3311,0.3321,-0.1016,-0.0012,0.0010,-0.0064,CLIMB,5,1,0,11.0,0.000,1.940,0,-1,0,-1.0,-11.0,-2.0,0.0,0.0,0.0,2037,2826,1212,1912,1298,2788,2050,2901,1310,1039,1278,2804,2036,2815,1210,1912,1316,2792,2052,2884,1308,1041,1284,2805
1782219286.4689,6.0301,1,lf,0.0986,0.0986,-0.1000,0,0.3313,0.3318,-0.1016,-0.0012,0.0012,-0.0064,CLIMB,5,1,0,11.0,0.000,1.960,0,-1,0,-2.0,-11.0,-1.0,0.0,0.0,0.0,2037,2826,1212,1912,1298,2788,2050,2901,1310,1039,1278,2804,2036,2815,1210,1912,1316,2792,2052,2884,1308,1041,1284,2805
1782219286.4888,6.0501,1,lf,0.0986,0.0986,-0.1000,0,0.3313,0.3318,-0.1016,-0.0013,0.0013,-0.0064,CLIMB,5,1,0,11.0,0.000,1.980,0,-1,0,-2.0,-11.0,-1.0,0.0,0.0,0.0,2037,2826,1212,1912,1298,2788,2050,2901,1310,1039,1278,2804,2036,2815,1211,1912,1316,2792,2052,2884,1308,1041,1283,2805
1782219286.5088,6.0700,1,lf,0.0986,0.0986,-0.1000,0,0.3313,0.3318,-0.1016,-0.0013,0.0013,-0.0064,CLIMB,5,1,0,11.0,0.000,2.000,0,-1,0,-1.0,-11.0,-1.0,0.0,0.0,0.0,2037,2826,1212,1912,1298,2788,2050,2901,1310,1039,1278,2804,2036,2815,1211,1912,1316,2792,2052,2884,1308,1041,1283,2805
1782219286.5289,6.0901,1,lf,0.0986,0.0986,-0.1000,0,0.3314,0.3319,-0.1016,-0.0013,0.0013,-0.0064,CLIMB,5,1,0,11.0,0.000,2.020,0,-1,0,-2.0,-11.0,-1.0,0.0,0.0,0.0,2037,2826,1212,1912,1298,2788,2050,2901,1310,1039,1278,2804,2036,2815,1211,1912,1316,2792,2052,2884,1308,1041,1283,2805
1782219286.5488,6.1100,1,lf,0.0986,0.0986,-0.1000,0,0.3314,0.3319,-0.1016,-0.0013,0.0013,-0.0064,CLIMB,5,1,0,11.0,0.000,2.040,0,-1,0,-2.0,-11.0,-1.0,0.0,0.0,0.0,2037,2826,1212,1912,1298,2788,2050,2901,1310,1039,1278,2804,2035,2815,1211,1912,1316,2792,2052,2884,1308,1040,1284,2805
1782219286.5689,6.1301,1,lf,0.0986,0.0986,-0.1000,0,0.3311,0.3321,-0.1016,-0.0012,0.0012,-0.0064,CLIMB,5,1,0,11.0,0.000,2.060,0,-1,0,-1.0,-11.0,-1.0,0.0,0.0,0.0,2037,2826,1212,1912,1298,2788,2050,2901,1310,1039,1278,2804,2035,2815,1211,1912,1316,2792,2052,2884,1308,1040,1284,2805
1782219286.5887,6.1500,1,lf,0.0986,0.0986,-0.1000,0,0.3311,0.3321,-0.1016,-0.0012,0.0011,-0.0064,CLIMB,5,1,0,11.0,0.000,2.080,0,-1,0,-2.0,-11.0,-2.0,0.0,0.0,0.0,2037,2826,1212,1912,1298,2788,2050,2901,1310,1039,1278,2804,2035,2815,1210,1912,1316,2792,2052,2884,1309,1040,1284,2805
1782219286.6089,6.1701,1,lf,0.0986,0.0986,-0.1000,0,0.3311,0.3321,-0.1016,-0.0012,0.0011,-0.0064,CLIMB,5,1,0,11.0,0.000,2.100,0,-1,0,-2.0,-11.0,-2.0,0.0,0.0,0.0,2037,2826,1212,1912,1298,2788,2050,2901,1310,1039,1278,2804,2035,2815,1210,1912,1316,2792,2052,2884,1309,1040,1284,2805
1782219286.6290,6.1902,1,lf,0.0986,0.0986,-0.1000,0,0.3311,0.3321,-0.1016,-0.0011,0.0011,-0.0064,CLIMB,5,1,0,11.0,0.000,2.120,0,-1,0,-1.0,-11.0,-2.0,0.0,0.0,0.0,2037,2826,1212,1912,1298,2788,2050,2901,1310,1039,1278,2804,2035,2815,1210,1912,1316,2792,2052,2884,1309,1040,1284,2805
1782219286.6488,6.2100,1,lf,0.0986,0.0986,-0.1000,0,0.3311,0.3321,-0.1016,-0.0011,0.0011,-0.0064,CLIMB,5,1,0,11.0,0.000,2.140,0,-1,0,-1.0,-11.0,-2.0,0.0,0.0,0.0,2037,2826,1212,1912,1298,2788,2050,2901,1310,1039,1278,2804,2036,2815,1211,1912,1316,2792,2052,2884,1308,1040,1284,2805
1782219286.6688,6.2300,1,lf,0.0986,0.0986,-0.1000,0,0.3314,0.3319,-0.1016,-0.0012,0.0012,-0.0064,CLIMB,5,1,0,11.0,0.000,2.160,0,-1,0,-1.0,-11.0,-1.0,0.0,0.0,0.0,2037,2826,1212,1912,1298,2788,2050,2901,1310,1039,1278,2804,2036,2815,1211,1912,1316,2792,2052,2884,1308,1040,1284,2805
1782219286.6888,6.2500,1,lf,0.0986,0.0986,-0.1000,0,0.3314,0.3319,-0.1016,-0.0013,0.0012,-0.0064,CLIMB,5,1,0,11.0,0.000,2.180,0,-1,0,-2.0,-11.0,-2.0,0.0,0.0,0.0,2037,2826,1212,1912,1298,2788,2050,2901,1310,1039,1278,2804,2035,2815,1210,1912,1316,2791,2052,2884,1308,1041,1283,2805
1782219286.7088,6.2700,1,lf,0.0986,0.0986,-0.1000,0,0.3314,0.3319,-0.1016,-0.0013,0.0013,-0.0064,CLIMB,5,1,0,11.0,0.000,2.200,0,-1,0,-2.0,-11.0,-2.0,0.0,0.0,0.0,2037,2826,1212,1912,1298,2788,2050,2901,1310,1039,1278,2804,2035,2815,1210,1912,1316,2791,2052,2884,1308,1041,1283,2805
1782219286.7288,6.2900,1,lf,0.0986,0.0986,-0.1000,0,0.3311,0.3321,-0.1016,-0.0012,0.0012,-0.0064,CLIMB,5,1,0,11.0,0.000,2.220,0,-1,0,-2.0,-11.0,-1.0,0.0,0.0,0.0,2037,2826,1212,1912,1298,2788,2050,2901,1310,1039,1278,2804,2035,2815,1210,1912,1316,2791,2052,2884,1308,1041,1283,2805
1782219286.7487,6.3099,1,lf,0.0986,0.0986,-0.1000,0,0.3311,0.3321,-0.1016,-0.0012,0.0011,-0.0064,CLIMB,5,1,0,11.0,0.000,2.240,0,-1,0,-1.0,-11.0,-2.0,0.0,0.0,0.0,2037,2826,1212,1912,1298,2788,2050,2901,1310,1039,1278,2804,2036,2815,1210,1912,1316,2792,2052,2884,1308,1040,1284,2805
1782219286.7687,6.3299,1,lf,0.0986,0.0986,-0.1000,0,0.3313,0.3318,-0.1016,-0.0012,0.0012,-0.0064,CLIMB,5,1,0,11.0,0.000,2.260,0,-1,0,-1.0,-11.0,-2.0,0.0,0.0,0.0,2037,2826,1212,1912,1298,2788,2050,2901,1310,1039,1278,2804,2036,2815,1210,1912,1316,2792,2052,2884,1308,1040,1284,2805
1782219286.7888,6.3500,1,lf,0.0986,0.0986,-0.1000,0,0.3313,0.3318,-0.1016,-0.0013,0.0013,-0.0064,CLIMB,5,1,0,11.0,0.000,2.280,0,-1,0,-2.0,-11.0,-1.0,0.0,0.0,0.0,2037,2826,1212,1912,1298,2788,2050,2901,1310,1039,1278,2804,2035,2815,1211,1912,1316,2791,2052,2884,1309,1041,1284,2805
1782219286.8087,6.3699,1,lf,0.0986,0.0986,-0.1000,0,0.3313,0.3318,-0.1016,-0.0013,0.0013,-0.0064,CLIMB,5,1,0,11.0,0.000,2.300,0,-1,0,-2.0,-11.0,-1.0,0.0,0.0,0.0,2037,2826,1212,1912,1298,2788,2050,2901,1310,1039,1278,2804,2035,2815,1211,1912,1316,2791,2052,2884,1309,1041,1284,2805
1782219286.8287,6.3899,1,lf,0.0986,0.0986,-0.1000,0,0.3311,0.3321,-0.1016,-0.0012,0.0012,-0.0064,CLIMB,5,1,0,11.0,0.000,2.320,0,-1,0,-2.0,-11.0,-1.0,0.0,0.0,0.0,2037,2826,1212,1912,1298,2788,2050,2901,1310,1039,1278,2804,2035,2815,1211,1912,1316,2791,2052,2884,1309,1041,1284,2805
1782219286.8486,6.4099,1,lf,0.0986,0.0986,-0.1000,0,0.3311,0.3321,-0.1016,-0.0012,0.0011,-0.0064,CLIMB,5,1,0,11.0,0.000,2.340,0,-1,0,-1.0,-11.0,-1.0,0.0,0.0,0.0,2037,2826,1212,1912,1298,2788,2050,2901,1310,1039,1278,2804,2036,2815,1211,1912,1316,2792,2052,2884,1308,1041,1283,2805
1782219286.8687,6.4299,1,lf,0.0986,0.0986,-0.1000,0,0.3314,0.3319,-0.1016,-0.0013,0.0012,-0.0064,CLIMB,5,1,0,11.0,0.000,2.360,0,-1,0,-1.0,-11.0,-1.0,0.0,0.0,0.0,2037,2826,1212,1912,1298,2788,2050,2901,1310,1039,1278,2804,2036,2815,1211,1912,1316,2792,2052,2884,1308,1041,1283,2805
1782219286.8889,6.4501,1,lf,0.0986,0.0986,-0.1000,0,0.3314,0.3319,-0.1016,-0.0013,0.0013,-0.0064,CLIMB,5,1,0,11.0,0.000,2.380,0,-1,0,-1.0,-11.0,-1.0,0.0,0.0,0.0,2037,2826,1212,1912,1298,2788,2050,2901,1310,1039,1278,2804,2036,2815,1211,1912,1316,2792,2052,2884,1309,1041,1284,2805
1782219286.9089,6.4701,1,lf,0.0986,0.0986,-0.1000,0,0.3314,0.3319,-0.1016,-0.0013,0.0013,-0.0064,CLIMB,5,1,0,11.0,0.000,2.400,0,-1,0,-2.0,-11.0,-1.0,0.0,0.0,0.0,2037,2826,1212,1912,1298,2788,2050,2901,1310,1039,1278,2804,2036,2815,1211,1912,1316,2792,2052,2884,1309,1041,1284,2805
1782219286.9288,6.4900,1,lf,0.0986,0.0986,-0.1000,0,0.3314,0.3319,-0.1016,-0.0014,0.0013,-0.0064,CLIMB,5,1,0,11.0,0.000,2.420,0,-1,0,-2.0,-11.0,-1.0,0.0,0.0,0.0,2037,2826,1212,1912,1298,2788,2050,2901,1310,1039,1278,2804,2036,2815,1211,1912,1316,2792,2052,2884,1309,1041,1284,2805
1782219286.9488,6.5100,1,lf,0.0986,0.0986,-0.1000,0,0.3314,0.3319,-0.1016,-0.0014,0.0013,-0.0064,CLIMB,5,1,0,11.0,0.000,2.440,0,-1,0,-1.0,-11.0,-2.0,0.0,0.0,0.0,2037,2826,1212,1912,1298,2788,2050,2901,1310,1039,1278,2804,2036,2815,1210,1912,1316,2792,2052,2884,1308,1041,1284,2805
1782219286.9688,6.5300,1,lf,0.0986,0.0986,-0.1000,0,0.3313,0.3318,-0.1016,-0.0013,0.0014,-0.0064,CLIMB,5,1,0,11.0,0.000,2.460,0,-1,0,-1.0,-11.0,-2.0,0.0,0.0,0.0,2037,2826,1212,1912,1298,2788,2050,2901,1310,1039,1278,2804,2036,2815,1210,1912,1316,2792,2052,2884,1308,1041,1284,2805
1782219286.9888,6.5500,1,lf,0.0986,0.0986,-0.1000,0,0.3313,0.3318,-0.1016,-0.0013,0.0014,-0.0064,CLIMB,5,1,0,11.0,0.000,2.480,0,-1,0,-1.0,-11.0,-1.0,0.0,0.0,0.0,2037,2826,1212,1912,1298,2788,2050,2901,1310,1039,1278,2804,2036,2815,1211,1912,1316,2791,2052,2884,1308,1040,1284,2805
1782219287.0089,6.5701,1,lf,0.0986,0.0986,-0.1000,0,0.3314,0.3319,-0.1016,-0.0014,0.0014,-0.0064,CLIMB,5,1,0,11.0,0.000,2.500,0,-1,0,-2.0,-11.0,-1.0,0.0,0.0,0.0,2037,2826,1212,1912,1298,2788,2050,2901,1310,1039,1278,2804,2036,2815,1211,1912,1316,2791,2052,2884,1308,1040,1284,2805
1782219287.0289,6.5901,1,lf,0.0986,0.0986,-0.1000,0,0.3314,0.3319,-0.1016,-0.0014,0.0014,-0.0064,CLIMB,5,1,0,11.0,0.000,2.520,0,-1,0,-2.0,-11.0,-1.0,0.0,0.0,0.0,2037,2826,1212,1912,1298,2788,2050,2901,1310,1039,1278,2804,2036,2815,1211,1912,1316,2791,2052,2884,1308,1040,1284,2805
1782219287.0488,6.6100,1,lf,0.0986,0.0986,-0.1000,0,0.3314,0.3319,-0.1016,-0.0014,0.0014,-0.0064,CLIMB,5,1,0,11.0,0.000,2.540,0,-1,0,-2.0,-11.0,-1.0,0.0,0.0,0.0,2037,2826,1212,1912,1298,2788,2050,2901,1310,1039,1278,2804,2035,2815,1211,1912,1316,2792,2052,2884,1308,1041,1284,2805
1782219287.0688,6.6300,1,lf,0.0986,0.0986,-0.1000,0,0.3311,0.3321,-0.1016,-0.0013,0.0012,-0.0064,CLIMB,5,1,0,12.0,0.000,2.560,0,-1,0,-1.0,-12.0,-1.0,0.0,0.0,0.0,2037,2826,1212,1912,1298,2788,2050,2901,1310,1039,1278,2804,2035,2815,1211,1912,1316,2792,2052,2884,1308,1041,1284,2805
1782219287.0888,6.6500,1,lf,0.0986,0.0986,-0.1000,0,0.3311,0.3321,-0.1016,-0.0012,0.0011,-0.0064,CLIMB,5,1,0,12.0,0.000,2.580,0,-1,0,-1.0,-12.0,-1.0,0.0,0.0,0.0,2037,2826,1212,1912,1298,2788,2050,2901,1310,1039,1278,2804,2036,2815,1211,1912,1316,2792,2052,2884,1309,1041,1284,2805
1782219287.1089,6.6701,1,lf,0.0986,0.0986,-0.1000,0,0.3314,0.3319,-0.1016,-0.0013,0.0012,-0.0064,CLIMB,5,1,0,11.0,0.000,2.600,0,-1,0,-1.0,-11.0,-1.0,0.0,0.0,0.0,2037,2826,1212,1912,1298,2788,2050,2901,1310,1039,1278,2804,2036,2815,1211,1912,1316,2792,2052,2884,1309,1041,1284,2805
1782219287.1288,6.6900,1,lf,0.0986,0.0986,-0.1000,0,0.3314,0.3319,-0.1016,-0.0013,0.0013,-0.0064,CLIMB,5,1,0,11.0,0.000,2.620,0,-1,0,-1.0,-11.0,-1.0,0.0,0.0,0.0,2037,2826,1212,1912,1298,2788,2050,2901,1310,1039,1278,2804,2036,2815,1211,1912,1316,2792,2052,2884,1309,1041,1284,2805
1782219287.1488,6.7100,1,lf,0.0986,0.0986,-0.1000,0,0.3314,0.3319,-0.1016,-0.0014,0.0013,-0.0064,CLIMB,5,1,0,11.0,0.000,2.640,0,-1,0,-1.0,-11.0,-2.0,0.0,0.0,0.0,2037,2826,1212,1912,1298,2788,2050,2901,1310,1039,1278,2804,2036,2815,1210,1912,1316,2791,2052,2884,1309,1041,1284,2805
1782219287.1689,6.7301,1,lf,0.0986,0.0986,-0.1000,0,0.3313,0.3318,-0.1016,-0.0013,0.0014,-0.0064,CLIMB,5,1,0,11.0,0.000,2.660,0,-1,0,-2.0,-11.0,-1.0,0.0,0.0,0.0,2037,2826,1212,1912,1298,2788,2050,2901,1310,1039,1278,2804,2036,2815,1210,1912,1316,2791,2052,2884,1309,1041,1284,2805
1782219287.1888,6.7500,1,lf,0.0986,0.0986,-0.1000,0,0.3313,0.3318,-0.1016,-0.0013,0.0014,-0.0064,CLIMB,5,1,0,11.0,0.000,2.680,0,-1,0,-2.0,-11.0,-1.0,0.0,0.0,0.0,2037,2826,1212,1912,1298,2788,2050,2901,1310,1039,1278,2804,2035,2815,1210,1912,1316,2792,2052,2884,1309,1040,1284,2805
1782219287.2089,6.7701,1,lf,0.0986,0.0986,-0.1000,0,0.3311,0.3321,-0.1016,-0.0012,0.0012,-0.0064,CLIMB,5,1,0,11.0,0.000,2.700,0,-1,0,-2.0,-11.0,-2.0,0.0,0.0,0.0,2037,2826,1212,1912,1298,2788,2050,2901,1310,1039,1278,2804,2035,2815,1210,1912,1316,2792,2052,2884,1309,1040,1284,2805
1782219287.2289,6.7901,1,lf,0.0986,0.0986,-0.1000,0,0.3311,0.3321,-0.1016,-0.0012,0.0011,-0.0064,CLIMB,5,1,0,11.0,0.000,2.720,0,-1,0,-2.0,-11.0,-1.0,0.0,0.0,0.0,2037,2826,1212,1912,1298,2788,2050,2901,1310,1039,1278,2804,2035,2815,1210,1912,1316,2792,2052,2884,1309,1040,1284,2805
1782219287.2487,6.8099,1,lf,0.0986,0.0986,-0.1000,0,0.3311,0.3321,-0.1016,-0.0011,0.0011,-0.0064,CLIMB,5,1,0,11.0,0.000,2.740,0,-1,0,-2.0,-11.0,-1.0,0.0,0.0,0.0,2037,2826,1212,1912,1298,2788,2050,2901,1310,1039,1278,2804,2035,2815,1211,1912,1316,2792,2052,2884,1309,1040,1284,2805
1782219287.2688,6.8300,1,lf,0.0986,0.0986,-0.1000,0,0.3311,0.3321,-0.1016,-0.0012,0.0011,-0.0064,CLIMB,5,1,0,11.0,0.000,2.760,0,-1,0,-1.0,-11.0,-1.0,0.0,0.0,0.0,2037,2826,1212,1912,1298,2788,2050,2901,1310,1039,1278,2804,2035,2815,1211,1912,1316,2792,2052,2884,1309,1040,1284,2805
1782219287.2888,6.8500,1,lf,0.0986,0.0986,-0.1000,0,0.3311,0.3321,-0.1016,-0.0012,0.0010,-0.0064,CLIMB,5,1,0,11.0,0.000,2.780,0,-1,0,-1.0,-11.0,-1.0,0.0,0.0,0.0,2037,2826,1212,1912,1298,2788,2050,2901,1310,1039,1278,2804,2036,2815,1210,1912,1316,2792,2052,2884,1308,1040,1284,2805
1782219287.3087,6.8699,1,lf,0.0986,0.0986,-0.1000,0,0.3313,0.3318,-0.1016,-0.0012,0.0012,-0.0063,CLIMB,5,1,0,11.0,0.000,2.800,0,-1,0,-1.0,-11.0,-2.0,0.0,0.0,0.0,2037,2826,1212,1912,1298,2788,2050,2901,1310,1039,1278,2804,2036,2815,1210,1912,1316,2792,2052,2884,1308,1040,1284,2805
1782219287.3287,6.8899,1,lf,0.0986,0.0986,-0.1000,0,0.3313,0.3318,-0.1016,-0.0013,0.0013,-0.0063,CLIMB,5,1,0,11.0,0.000,2.820,0,-1,0,-1.0,-11.0,-1.0,0.0,0.0,0.0,2037,2826,1212,1912,1298,2788,2050,2901,1310,1039,1278,2804,2036,2815,1210,1912,1316,2792,2052,2884,1308,1040,1284,2805
1782219287.3487,6.9099,1,lf,0.0986,0.0986,-0.1000,0,0.3313,0.3318,-0.1016,-0.0013,0.0013,-0.0063,CLIMB,5,1,0,11.0,0.000,2.840,0,-1,0,-1.0,-11.0,-1.0,0.0,0.0,0.0,2037,2826,1212,1912,1298,2788,2050,2901,1310,1039,1278,2804,2036,2815,1211,1912,1316,2791,2052,2884,1309,1041,1284,2805
1782219287.3688,6.9300,1,lf,0.0986,0.0986,-0.1000,0,0.3314,0.3319,-0.1016,-0.0013,0.0013,-0.0063,CLIMB,5,1,0,11.0,0.000,2.860,0,-1,0,-2.0,-11.0,-1.0,0.0,0.0,0.0,2037,2826,1212,1912,1298,2788,2050,2901,1310,1039,1278,2804,2036,2815,1211,1912,1316,2791,2052,2884,1309,1041,1284,2805
1782219287.3887,6.9499,1,lf,0.0986,0.0986,-0.1000,0,0.3314,0.3319,-0.1016,-0.0013,0.0013,-0.0063,CLIMB,5,1,0,11.0,0.000,2.880,0,-1,0,-2.0,-11.0,-1.0,0.0,0.0,0.0,2037,2826,1212,1912,1298,2788,2050,2901,1310,1039,1278,2804,2035,2815,1211,1912,1316,2792,2052,2884,1308,1040,1284,2805
1782219287.4087,6.9700,1,lf,0.0986,0.0986,-0.1000,0,0.3311,0.3321,-0.1016,-0.0012,0.0012,-0.0063,CLIMB,5,1,0,11.0,0.000,2.900,0,-1,0,-2.0,-11.0,-1.0,0.0,0.0,0.0,2037,2826,1212,1912,1298,2788,2050,2901,1310,1039,1278,2804,2035,2815,1211,1912,1316,2792,2052,2884,1308,1040,1284,2805
1782219287.4294,6.9906,1,lf,0.0986,0.0986,-0.1000,0,0.3311,0.3321,-0.1016,-0.0012,0.0011,-0.0063,CLIMB,5,1,0,11.0,0.000,2.920,0,-1,0,-1.0,-11.0,-1.0,0.0,0.0,0.0,2037,2826,1212,1912,1298,2788,2050,2901,1310,1039,1278,2804,2035,2815,1211,1912,1316,2792,2052,2884,1308,1040,1284,2805
1782219287.4490,7.0103,1,lf,0.0986,0.0986,-0.1000,0,0.3311,0.3321,-0.1016,-0.0012,0.0011,-0.0063,CLIMB,5,1,0,11.0,0.000,2.940,0,-1,0,-1.0,-11.0,-1.0,0.0,0.0,0.0,2037,2826,1212,1912,1298,2788,2050,2901,1310,1039,1278,2804,2036,2815,1211,1912,1316,2792,2052,2884,1309,1041,1284,2805
1782219287.4688,7.0300,1,lf,0.0986,0.0986,-0.1000,0,0.3314,0.3319,-0.1016,-0.0013,0.0012,-0.0063,CLIMB,5,1,0,11.0,0.000,2.960,0,-1,0,-2.0,-11.0,-2.0,0.0,0.0,0.0,2037,2826,1212,1912,1298,2788,2050,2901,1310,1039,1278,2804,2036,2815,1211,1912,1316,2792,2052,2884,1309,1041,1284,2805
1782219287.4888,7.0500,1,lf,0.0986,0.0986,-0.1000,0,0.3314,0.3319,-0.1016,-0.0013,0.0013,-0.0063,CLIMB,5,1,0,11.0,0.000,2.980,0,-1,0,-1.0,-11.0,-1.0,0.0,0.0,0.0,2037,2826,1212,1912,1298,2788,2050,2901,1310,1039,1278,2804,2036,2815,1211,1912,1316,2791,2052,2884,1308,1041,1284,2805
1782219287.5088,7.0701,1,lf,0.0986,0.0986,-0.1000,0,0.3314,0.3319,-0.1016,-0.0013,0.0013,-0.0063,CLIMB,5,1,0,11.0,0.000,3.000,0,-1,0,-1.0,-11.0,-1.0,0.0,0.0,0.0,2037,2826,1212,1912,1298,2788,2050,2901,1310,1039,1278,2804,2036,2815,1211,1912,1316,2791,2052,2884,1308,1041,1284,2805
1782219287.5288,7.0900,1,lf,0.0986,0.0986,-0.1000,0,0.3314,0.3319,-0.1016,-0.0014,0.0013,-0.0063,CLIMB,5,1,0,11.0,0.000,3.020,1,-1,0,-1.0,-11.0,-1.0,0.0,0.0,0.0,2037,2826,1212,1912,1298,2788,2050,2901,1310,1039,1278,2804,2036,2815,1211,1912,1316,2791,2052,2884,1308,1041,1284,2805
1782219287.5487,7.1100,1,lf,0.0986,0.0986,-0.1000,0,0.3314,0.3319,-0.1016,-0.0014,0.0013,-0.0063,CLIMB,5,1,0,11.0,0.000,3.040,1,-1,0,-1.0,-11.0,-2.0,0.0,0.0,0.0,2037,2826,1212,1912,1298,2788,2050,2901,1310,1039,1278,2804,2036,2815,1210,1912,1316,2791,2052,2884,1308,1040,1284,2805
1782219287.5688,7.1301,1,lf,0.0986,0.0986,-0.1000,0,0.3313,0.3318,-0.1016,-0.0013,0.0014,-0.0063,CLIMB,5,1,0,11.0,0.000,3.060,1,-1,0,-1.0,-11.0,-2.0,0.0,0.0,0.0,2037,2826,1212,1912,1298,2788,2050,2901,1310,1039,1278,2804,2036,2815,1210,1912,1316,2791,2052,2884,1308,1040,1284,2805
1782219287.5887,7.1499,1,lf,0.0986,0.0986,-0.1000,0,0.3313,0.3318,-0.1016,-0.0013,0.0014,-0.0063,CLIMB,5,1,0,11.0,0.000,3.080,1,-1,0,-2.0,-11.0,-1.0,0.0,0.0,0.0,2037,2826,1212,1912,1298,2788,2050,2901,1310,1039,1278,2804,2035,2815,1211,1912,1316,2791,2052,2884,1308,1041,1284,2805
1782219287.6087,7.1699,1,lf,0.0986,0.0986,-0.1000,0,0.3311,0.3321,-0.1016,-0.0012,0.0012,-0.0063,CLIMB,5,1,0,11.0,0.000,3.100,1,-1,0,-2.0,-11.0,-1.0,0.0,0.0,0.0,2037,2826,1212,1912,1298,2788,2050,2901,1310,1039,1278,2804,2035,2815,1211,1912,1316,2791,2052,2884,1308,1041,1284,2805
1782219287.6287,7.1899,1,lf,0.0986,0.0986,-0.1000,0,0.3311,0.3321,-0.1016,-0.0012,0.0011,-0.0063,CLIMB,5,1,0,11.0,0.000,3.120,1,-1,0,-2.0,-11.0,-1.0,0.0,0.0,0.0,2037,2826,1212,1912,1298,2788,2050,2901,1310,1039,1278,2804,2035,2815,1211,1912,1316,2791,2052,2884,1308,1041,1284,2805
1782219287.6488,7.2100,1,lf,0.0986,0.0986,-0.1000,0,0.3311,0.3321,-0.1016,-0.0012,0.0011,-0.0063,CLIMB,5,1,0,11.0,0.000,3.140,1,-1,0,-1.0,-11.0,-2.0,0.0,0.0,0.0,2037,2826,1212,1912,1298,2788,2050,2901,1310,1039,1278,2804,2036,2815,1210,1912,1316,2792,2052,2884,1308,1041,1284,2805
1782219287.6688,7.2300,1,lf,0.0986,0.0986,-0.1000,0,0.3313,0.3318,-0.1016,-0.0012,0.0012,-0.0063,CLIMB,5,1,0,11.0,0.000,3.160,1,-1,0,-1.0,-11.0,-2.0,0.0,0.0,0.0,2037,2826,1212,1912,1298,2788,2050,2901,1310,1039,1278,2804,2036,2815,1210,1912,1316,2792,2052,2884,1308,1041,1284,2805
1782219287.6891,7.2503,1,lf,0.0986,0.0986,-0.1000,0,0.3313,0.3318,-0.1016,-0.0013,0.0013,-0.0063,CLIMB,5,1,0,11.0,0.000,3.180,1,-1,0,-2.0,-11.0,-1.0,0.0,0.0,0.0,2037,2826,1212,1912,1298,2788,2050,2901,1310,1039,1278,2804,2035,2815,1211,1912,1316,2792,2052,2884,1308,1041,1284,2805
1782219287.7088,7.2700,1,lf,0.0986,0.0986,-0.1000,0,0.3311,0.3321,-0.1016,-0.0012,0.0011,-0.0063,CLIMB,5,1,0,11.0,0.000,3.200,1,-1,0,-1.0,-11.0,-2.0,0.0,0.0,0.0,2037,2826,1212,1912,1298,2788,2050,2901,1310,1039,1278,2804,2035,2815,1211,1912,1316,2792,2052,2884,1308,1041,1284,2805
1782219287.7288,7.2900,1,lf,0.0986,0.0986,-0.1000,0,0.3311,0.3321,-0.1016,-0.0012,0.0011,-0.0063,CLIMB,5,1,0,11.0,0.000,3.220,1,-1,0,-1.0,-11.0,-2.0,0.0,0.0,0.0,2037,2826,1212,1912,1298,2788,2050,2901,1310,1039,1278,2804,2035,2815,1211,1912,1316,2792,2052,2884,1308,1041,1284,2805
1782219287.7488,7.3100,1,lf,0.0986,0.0986,-0.1000,0,0.3311,0.3321,-0.1016,-0.0012,0.0010,-0.0063,CLIMB,5,1,0,11.0,0.000,3.240,1,-1,0,-2.0,-11.0,-1.0,0.0,0.0,0.0,2037,2826,1212,1912,1298,2788,2050,2901,1310,1039,1278,2804,2035,2815,1211,1912,1316,2792,2052,2884,1308,1040,1283,2805
1782219287.7688,7.3300,1,lf,0.0986,0.0986,-0.1000,0,0.3311,0.3321,-0.1016,-0.0012,0.0010,-0.0063,CLIMB,5,1,0,11.0,0.000,3.260,1,-1,0,-2.0,-11.0,-1.0,0.0,0.0,0.0,2037,2826,1212,1912,1298,2788,2050,2901,1310,1039,1278,2804,2035,2815,1211,1912,1316,2792,2052,2884,1308,1040,1283,2805
1782219287.7888,7.3501,1,lf,0.0986,0.0986,-0.1000,0,0.3311,0.3321,-0.1016,-0.0011,0.0010,-0.0063,CLIMB,5,1,0,11.0,0.000,3.280,1,-1,0,-1.0,-11.0,-2.0,0.0,0.0,0.0,2037,2826,1212,1912,1298,2788,2050,2901,1310,1039,1278,2804,2036,2815,1210,1912,1316,2791,2052,2884,1308,1040,1283,2806
1782219287.8088,7.3700,1,lf,0.0986,0.0986,-0.1000,0,0.3313,0.3318,-0.1016,-0.0012,0.0012,-0.0063,CLIMB,5,1,0,11.0,0.000,3.300,1,-1,0,-2.0,-11.0,-1.0,0.0,0.0,0.0,2037,2826,1212,1912,1298,2788,2050,2901,1310,1039,1278,2804,2036,2815,1210,1912,1316,2791,2052,2884,1308,1040,1283,2806
1782219287.8289,7.3901,1,lf,0.0986,0.0986,-0.1000,0,0.3313,0.3318,-0.1016,-0.0012,0.0013,-0.0063,CLIMB,5,1,0,11.0,0.000,3.320,1,-1,0,-2.0,-11.0,-1.0,0.0,0.0,0.0,2037,2826,1212,1912,1298,2788,2050,2901,1310,1039,1278,2804,2036,2815,1210,1912,1316,2791,2052,2884,1308,1040,1283,2806
1782219287.8488,7.4100,1,lf,0.0986,0.0986,-0.1000,0,0.3313,0.3318,-0.1016,-0.0013,0.0013,-0.0063,CLIMB,5,1,0,11.0,0.000,3.340,1,-1,0,-1.0,-11.0,-1.0,0.0,0.0,0.0,2037,2826,1212,1912,1298,2788,2050,2901,1310,1039,1278,2804,2036,2815,1211,1912,1316,2792,2052,2884,1308,1040,1284,2806
1782219287.8688,7.4301,1,lf,0.0986,0.0986,-0.1000,0,0.3314,0.3319,-0.1016,-0.0013,0.0013,-0.0063,CLIMB,5,1,0,11.0,0.000,3.360,1,-1,0,-1.0,-11.0,-1.0,0.0,0.0,0.0,2037,2826,1212,1912,1298,2788,2050,2901,1310,1039,1278,2804,2036,2815,1211,1912,1316,2792,2052,2884,1308,1040,1284,2806
1782219287.8889,7.4501,1,lf,0.0986,0.0986,-0.1000,0,0.3314,0.3319,-0.1016,-0.0013,0.0013,-0.0063,CLIMB,5,1,0,11.0,0.000,3.380,1,-1,0,-1.0,-11.0,-1.0,0.0,0.0,0.0,2037,2826,1212,1912,1298,2788,2050,2901,1310,1039,1278,2804,2036,2815,1211,1912,1316,2792,2052,2884,1308,1040,1284,2805
1782219287.9089,7.4701,1,lf,0.0986,0.0986,-0.1000,0,0.3314,0.3319,-0.1016,-0.0013,0.0013,-0.0063,CLIMB,5,1,0,11.0,0.000,3.400,1,-1,0,-1.0,-11.0,-1.0,0.0,0.0,0.0,2037,2826,1212,1912,1298,2788,2050,2901,1310,1039,1278,2804,2036,2815,1211,1912,1316,2792,2052,2884,1308,1040,1284,2805
1782219287.9288,7.4900,1,lf,0.0986,0.0986,-0.1000,0,0.3314,0.3319,-0.1016,-0.0013,0.0013,-0.0063,CLIMB,5,1,0,11.0,0.000,3.420,1,-1,0,-1.0,-11.0,-1.0,0.0,0.0,0.0,2037,2826,1212,1912,1298,2788,2050,2901,1310,1039,1278,2804,2036,2815,1211,1912,1316,2792,2052,2884,1308,1040,1284,2805
1782219287.9488,7.5101,1,lf,0.0986,0.0986,-0.1000,0,0.3314,0.3319,-0.1016,-0.0013,0.0013,-0.0063,CLIMB,5,1,0,11.0,0.000,3.440,1,-1,0,-2.0,-11.0,-1.0,0.0,0.0,0.0,2037,2826,1212,1912,1298,2788,2050,2901,1310,1039,1278,2804,2035,2815,1211,1912,1316,2791,2052,2884,1309,1040,1284,2805
1782219287.9688,7.5300,1,lf,0.0986,0.0986,-0.1000,0,0.3311,0.3321,-0.1016,-0.0012,0.0012,-0.0063,CLIMB,5,1,0,11.0,0.000,3.460,1,-1,0,-2.0,-11.0,-1.0,0.0,0.0,0.0,2037,2826,1212,1912,1298,2788,2050,2901,1310,1039,1278,2804,2035,2815,1211,1912,1316,2791,2052,2884,1309,1040,1284,2805
1782219287.9888,7.5500,1,lf,0.0986,0.0986,-0.1000,0,0.3311,0.3321,-0.1016,-0.0012,0.0011,-0.0063,CLIMB,5,1,0,11.0,0.000,3.480,1,-1,0,-2.0,-11.0,-1.0,0.0,0.0,0.0,2037,2826,1212,1912,1298,2788,2050,2901,1310,1039,1278,2804,2035,2815,1211,1912,1316,2792,2052,2884,1308,1040,1284,2805
1782219288.0089,7.5701,1,lf,0.0986,0.0986,-0.1000,0,0.3311,0.3321,-0.1016,-0.0012,0.0010,-0.0064,CLIMB,5,1,0,11.0,0.000,3.500,1,-1,0,-2.0,-11.0,-1.0,0.0,0.0,0.0,2037,2826,1212,1912,1298,2788,2050,2901,1310,1039,1278,2804,2035,2815,1211,1912,1316,2792,2052,2884,1308,1040,1284,2805
1782219288.0288,7.5900,1,lf,0.0986,0.0986,-0.1000,0,0.3311,0.3321,-0.1016,-0.0012,0.0010,-0.0063,CLIMB,5,1,0,11.0,0.000,3.520,1,-1,0,-1.0,-11.0,-1.0,0.0,0.0,0.0,2037,2826,1212,1912,1298,2788,2050,2901,1310,1039,1278,2804,2035,2815,1211,1912,1316,2792,2052,2884,1308,1040,1284,2805
1782219288.0488,7.6101,1,lf,0.0986,0.0986,-0.1000,0,0.3311,0.3321,-0.1016,-0.0012,0.0010,-0.0063,CLIMB,5,1,0,11.0,0.000,3.540,1,-1,0,-1.0,-11.0,-1.0,0.0,0.0,0.0,2037,2826,1212,1912,1298,2788,2050,2901,1310,1039,1278,2804,2036,2815,1211,1912,1316,2792,2052,2884,1308,1041,1283,2805
1782219288.0688,7.6300,1,lf,0.0986,0.0986,-0.1000,0,0.3314,0.3319,-0.1016,-0.0012,0.0011,-0.0063,CLIMB,5,1,0,11.0,0.000,3.560,1,-1,0,-2.0,-11.0,-1.0,0.0,0.0,0.0,2037,2826,1212,1912,1298,2788,2050,2901,1310,1039,1278,2804,2036,2815,1211,1912,1316,2792,2052,2884,1308,1041,1283,2805
1782219288.0887,7.6499,1,lf,0.0986,0.0986,-0.1000,0,0.3314,0.3319,-0.1016,-0.0013,0.0012,-0.0063,CLIMB,5,1,0,11.0,0.000,3.580,1,-1,0,-2.0,-11.0,-1.0,0.0,0.0,0.0,2037,2826,1212,1912,1298,2788,2050,2901,1310,1039,1278,2804,2036,2815,1211,1912,1316,2792,2052,2884,1308,1040,1284,2805
1782219288.1087,7.6699,1,lf,0.0986,0.0986,-0.1000,0,0.3314,0.3319,-0.1016,-0.0013,0.0013,-0.0063,CLIMB,5,1,0,11.0,0.000,3.600,1,-1,0,-1.0,-11.0,-1.0,0.0,0.0,0.0,2037,2826,1212,1912,1298,2788,2050,2901,1310,1039,1278,2804,2036,2815,1211,1912,1316,2792,2052,2884,1308,1040,1284,2805
1782219288.1288,7.6900,1,lf,0.0986,0.0986,-0.1000,0,0.3314,0.3319,-0.1016,-0.0013,0.0013,-0.0064,CLIMB,5,1,0,11.0,0.000,3.620,1,-1,0,-1.0,-11.0,-2.0,0.0,0.0,0.0,2037,2826,1212,1912,1298,2788,2050,2901,1310,1039,1278,2804,2036,2815,1211,1912,1316,2792,2052,2884,1308,1040,1284,2805
1782219288.1488,7.7100,1,lf,0.0986,0.0986,-0.1000,0,0.3314,0.3319,-0.1016,-0.0013,0.0013,-0.0064,CLIMB,5,1,0,11.0,0.000,3.640,1,-1,0,-1.0,-11.0,-2.0,0.0,0.0,0.0,2037,2826,1212,1912,1298,2788,2050,2901,1310,1039,1278,2804,2036,2815,1210,1912,1316,2791,2052,2884,1308,1040,1284,2805
1782219288.1689,7.7301,1,lf,0.0986,0.0986,-0.1000,0,0.3313,0.3318,-0.1016,-0.0013,0.0013,-0.0064,CLIMB,5,1,0,11.0,0.000,3.660,1,-1,0,-1.0,-11.0,-1.0,0.0,0.0,0.0,2037,2826,1212,1912,1298,2788,2050,2901,1310,1039,1278,2804,2036,2815,1210,1912,1316,2791,2052,2884,1308,1040,1284,2805
1782219288.1888,7.7500,1,lf,0.0986,0.0986,-0.1000,0,0.3313,0.3318,-0.1016,-0.0013,0.0013,-0.0064,CLIMB,5,1,0,11.0,0.000,3.680,1,-1,0,-2.0,-11.0,-1.0,0.0,0.0,0.0,2037,2826,1212,1912,1298,2788,2050,2901,1310,1039,1278,2804,2035,2815,1211,1912,1316,2791,2052,2884,1308,1040,1283,2805
1782219288.2088,7.7700,1,lf,0.0986,0.0986,-0.1000,0,0.3313,0.3318,-0.1016,-0.0013,0.0013,-0.0064,CLIMB,5,1,0,11.0,0.000,3.700,1,-1,0,-2.0,-11.0,-1.0,0.0,0.0,0.0,2037,2826,1212,1912,1298,2788,2050,2901,1310,1039,1278,2804,2035,2815,1211,1912,1316,2791,2052,2884,1308,1040,1283,2805
1782219288.2287,7.7899,1,lf,0.0986,0.0986,-0.1000,0,0.3311,0.3321,-0.1016,-0.0012,0.0012,-0.0064,CLIMB,5,1,0,11.0,0.000,3.720,1,-1,0,-2.0,-11.0,-2.0,0.0,0.0,0.0,2037,2826,1212,1912,1298,2788,2050,2901,1310,1039,1278,2804,2035,2815,1211,1912,1316,2791,2052,2884,1308,1040,1283,2805
1782219288.2488,7.8100,1,lf,0.0986,0.0986,-0.1000,0,0.3311,0.3321,-0.1016,-0.0012,0.0011,-0.0064,CLIMB,5,1,0,11.0,0.000,3.740,1,-1,0,-2.0,-11.0,-2.0,0.0,0.0,0.0,2037,2826,1212,1912,1298,2788,2050,2901,1310,1039,1278,2804,2035,2815,1211,1912,1316,2792,2052,2884,1309,1041,1284,2805
1782219288.2688,7.8300,1,lf,0.0986,0.0986,-0.1000,0,0.3311,0.3321,-0.1016,-0.0012,0.0010,-0.0064,CLIMB,5,1,0,11.0,0.000,3.760,1,-1,0,-2.0,-11.0,-1.0,0.0,0.0,0.0,2037,2826,1212,1912,1298,2788,2050,2901,1310,1039,1278,2804,2035,2815,1211,1912,1316,2792,2052,2884,1309,1041,1284,2805
1782219288.2888,7.8500,1,lf,0.0986,0.0986,-0.1000,0,0.3311,0.3321,-0.1016,-0.0012,0.0010,-0.0064,CLIMB,5,1,0,11.0,0.000,3.780,1,-1,0,-2.0,-11.0,-1.0,0.0,0.0,0.0,2037,2826,1212,1912,1298,2788,2050,2901,1310,1039,1278,2804,2035,2815,1211,1912,1316,2792,2052,2884,1308,1040,1284,2805
1782219288.3089,7.8701,1,lf,0.0986,0.0986,-0.1000,0,0.3311,0.3321,-0.1016,-0.0012,0.0010,-0.0064,CLIMB,5,1,0,11.0,0.000,3.800,1,-1,0,-2.0,-11.0,-1.0,0.0,0.0,0.0,2037,2826,1212,1912,1298,2788,2050,2901,1310,1039,1278,2804,2035,2815,1211,1912,1316,2792,2052,2884,1308,1040,1284,2805
1782219288.3289,7.8901,1,lf,0.0986,0.0986,-0.1000,0,0.3311,0.3321,-0.1016,-0.0012,0.0010,-0.0064,CLIMB,5,1,0,11.0,0.000,3.820,1,-1,0,-1.0,-11.0,-1.0,0.0,0.0,0.0,2037,2826,1212,1912,1298,2788,2050,2901,1310,1039,1278,2804,2035,2815,1211,1912,1316,2792,2052,2884,1308,1040,1284,2805
1782219288.3488,7.9101,1,lf,0.0986,0.0986,-0.1000,0,0.3311,0.3321,-0.1016,-0.0012,0.0010,-0.0064,CLIMB,5,1,0,11.0,0.000,3.840,1,-1,0,-1.0,-11.0,-2.0,0.0,0.0,0.0,2037,2826,1212,1912,1298,2788,2050,2901,1310,1039,1278,2804,2036,2815,1210,1912,1316,2792,2052,2884,1308,1041,1284,2805
1782219288.3688,7.9301,1,lf,0.0986,0.0986,-0.1000,0,0.3313,0.3318,-0.1016,-0.0012,0.0012,-0.0064,CLIMB,5,1,0,11.0,0.000,3.860,1,-1,0,-1.0,-11.0,-2.0,0.0,0.0,0.0,2037,2826,1212,1912,1298,2788,2050,2901,1310,1039,1278,2804,2036,2815,1210,1912,1316,2792,2052,2884,1308,1041,1284,2805
1782219288.3890,7.9502,1,lf,0.0986,0.0986,-0.1000,0,0.3313,0.3318,-0.1016,-0.0013,0.0013,-0.0064,CLIMB,5,1,0,11.0,0.000,3.880,1,-1,0,-1.0,-11.0,-2.0,0.0,0.0,0.0,2037,2826,1212,1912,1298,2788,2050,2901,1310,1039,1278,2804,2036,2815,1210,1912,1316,2792,2052,2884,1308,1040,1284,2805
1782219288.4087,7.9699,1,lf,0.0986,0.0986,-0.1000,0,0.3313,0.3318,-0.1016,-0.0013,0.0013,-0.0064,CLIMB,5,1,0,11.0,0.000,3.900,1,-1,0,-1.0,-11.0,-2.0,0.0,0.0,0.0,2037,2826,1212,1912,1298,2788,2050,2901,1310,1039,1278,2804,2036,2815,1210,1912,1316,2792,2052,2884,1308,1040,1284,2805
1782219288.4288,7.9900,1,lf,0.0986,0.0986,-0.1000,0,0.3313,0.3318,-0.1016,-0.0013,0.0013,-0.0064,CLIMB,5,1,0,11.0,0.000,3.920,1,-1,0,-2.0,-11.0,-1.0,0.0,0.0,0.0,2037,2826,1212,1912,1298,2788,2050,2901,1310,1039,1278,2804,2036,2815,1210,1912,1316,2792,2052,2884,1308,1040,1284,2805
1782219288.4487,8.0099,1,lf,0.0986,0.0986,-0.1000,0,0.3313,0.3318,-0.1016,-0.0013,0.0013,-0.0064,CLIMB,5,1,0,11.0,0.000,3.940,1,-1,0,-2.0,-11.0,-1.0,0.0,0.0,0.0,2037,2826,1212,1912,1298,2788,2050,2901,1310,1039,1278,2804,2035,2815,1211,1912,1316,2792,2052,2884,1308,1040,1284,2805
1782219288.4688,8.0300,1,lf,0.0986,0.0986,-0.1000,0,0.3311,0.3321,-0.1016,-0.0012,0.0012,-0.0064,CLIMB,5,1,0,11.0,0.000,3.960,1,-1,0,-2.0,-11.0,-1.0,0.0,0.0,0.0,2037,2826,1212,1912,1298,2788,2050,2901,1310,1039,1278,2804,2035,2815,1211,1912,1316,2792,2052,2884,1308,1040,1284,2805
1782219288.4887,8.0499,1,lf,0.0986,0.0986,-0.1000,0,0.3311,0.3321,-0.1016,-0.0012,0.0011,-0.0064,CLIMB,5,1,0,11.0,0.000,3.980,1,-1,0,-1.0,-11.0,-1.0,0.0,0.0,0.0,2037,2826,1212,1912,1298,2788,2050,2901,1310,1039,1278,2804,2036,2815,1211,1912,1316,2792,2052,2884,1309,1041,1284,2805
1782219288.5089,8.0701,1,lf,0.0986,0.0986,-0.1000,0,0.3314,0.3319,-0.1016,-0.0013,0.0012,-0.0064,CLIMB,5,1,0,11.0,0.000,4.000,1,-1,0,-1.0,-11.0,-1.0,0.0,0.0,0.0,2037,2826,1212,1912,1298,2788,2050,2901,1310,1039,1278,2804,2036,2815,1211,1912,1316,2792,2052,2884,1309,1041,1284,2805
1782219288.5288,8.0900,1,lf,0.0986,0.0986,-0.1000,0,0.3314,0.3319,-0.1016,-0.0013,0.0012,-0.0064,CLIMB,5,1,0,11.0,0.000,4.020,1,-1,0,-1.0,-11.0,-1.0,0.0,0.0,0.0,2037,2826,1212,1912,1298,2788,2050,2901,1310,1039,1278,2804,2036,2815,1211,1912,1316,2792,2052,2884,1309,1041,1284,2805
1782219288.5486,8.1098,1,lf,0.0986,0.0986,-0.1000,0,0.3314,0.3319,-0.1016,-0.0013,0.0013,-0.0064,CLIMB,5,1,0,11.0,0.000,4.040,1,-1,0,-2.0,-11.0,-2.0,0.0,0.0,0.0,2037,2826,1212,1912,1298,2788,2050,2901,1310,1039,1278,2804,2035,2815,1210,1912,1316,2791,2052,2884,1309,1041,1283,2805
1782219288.5695,8.1307,1,lf,0.0986,0.0986,-0.1000,0,0.3311,0.3321,-0.1016,-0.0012,0.0012,-0.0064,CLIMB,5,1,0,11.0,0.000,4.060,1,-1,0,-2.0,-11.0,-2.0,0.0,0.0,0.0,2037,2826,1212,1912,1298,2788,2050,2901,1310,1039,1278,2804,2035,2815,1210,1912,1316,2791,2052,2884,1309,1041,1283,2805
1782219288.5889,8.1501,1,lf,0.0986,0.0986,-0.1000,0,0.3311,0.3321,-0.1016,-0.0012,0.0011,-0.0064,CLIMB,5,1,0,11.0,0.000,4.080,1,-1,0,-2.0,-11.0,-1.0,0.0,0.0,0.0,2037,2826,1212,1912,1298,2788,2050,2901,1310,1039,1278,2804,2035,2815,1211,1912,1316,2792,2053,2884,1309,1041,1284,2805
1782219288.6088,8.1700,1,lf,0.0986,0.0986,-0.1000,0,0.3311,0.3321,-0.1016,-0.0012,0.0011,-0.0064,CLIMB,5,1,0,11.0,0.000,4.100,1,-1,0,-2.0,-11.0,-1.0,0.0,0.0,0.0,2037,2826,1212,1912,1298,2788,2050,2901,1310,1039,1278,2804,2035,2815,1211,1912,1316,2792,2053,2884,1309,1041,1284,2805
1782219288.6288,8.1900,1,lf,0.0986,0.0986,-0.1000,0,0.3311,0.3321,-0.1016,-0.0012,0.0010,-0.0064,CLIMB,5,1,0,11.0,0.000,4.120,1,-1,0,-2.0,-11.0,-1.0,0.0,0.0,0.0,2037,2826,1212,1912,1298,2788,2050,2901,1310,1039,1278,2804,2035,2815,1211,1912,1316,2792,2053,2884,1309,1041,1284,2805
1782219288.6488,8.2100,1,lf,0.0986,0.0986,-0.1000,0,0.3311,0.3321,-0.1016,-0.0012,0.0010,-0.0064,CLIMB,5,1,0,11.0,0.000,4.140,1,-1,0,-1.0,-11.0,-1.0,0.0,0.0,0.0,2037,2826,1212,1912,1298,2788,2050,2901,1310,1039,1278,2804,2036,2815,1211,1912,1316,2792,2052,2884,1308,1041,1284,2805
1782219288.6689,8.2301,1,lf,0.0986,0.0986,-0.1000,0,0.3314,0.3319,-0.1016,-0.0012,0.0012,-0.0064,CLIMB,5,1,0,11.0,0.000,4.160,1,-1,0,-2.0,-11.0,-1.0,0.0,0.0,0.0,2037,2826,1212,1912,1298,2788,2050,2901,1310,1039,1278,2804,2036,2815,1211,1912,1316,2792,2052,2884,1308,1041,1284,2805
1782219288.6891,8.2503,1,lf,0.0986,0.0986,-0.1000,0,0.3314,0.3319,-0.1016,-0.0013,0.0012,-0.0064,CLIMB,5,1,0,11.0,0.000,4.180,1,-1,0,-2.0,-11.0,-1.0,0.0,0.0,0.0,2037,2826,1212,1912,1298,2788,2050,2901,1310,1039,1278,2804,2035,2815,1211,1912,1316,2792,2052,2884,1308,1041,1284,2805
1782219288.7089,8.2701,1,lf,0.0986,0.0986,-0.1000,0,0.3311,0.3321,-0.1016,-0.0012,0.0011,-0.0064,CLIMB,5,1,0,11.0,0.000,4.200,1,-1,0,-2.0,-11.0,-1.0,0.0,0.0,0.0,2037,2826,1212,1912,1298,2788,2050,2901,1310,1039,1278,2804,2035,2815,1211,1912,1316,2792,2052,2884,1308,1041,1284,2805
1782219288.7289,8.2901,1,lf,0.0986,0.0986,-0.1000,0,0.3311,0.3321,-0.1016,-0.0012,0.0011,-0.0064,CLIMB,5,1,0,11.0,0.000,4.220,1,-1,0,-2.0,-11.0,-1.0,0.0,0.0,0.0,2037,2826,1212,1912,1298,2788,2050,2901,1310,1039,1278,2804,2035,2815,1211,1912,1316,2792,2052,2884,1308,1041,1284,2805
1782219288.7488,8.3100,1,lf,0.0986,0.0986,-0.1000,0,0.3311,0.3321,-0.1016,-0.0012,0.0010,-0.0064,CLIMB,5,1,0,11.0,0.000,4.240,1,-1,0,-2.0,-11.0,-1.0,0.0,0.0,0.0,2037,2826,1212,1912,1298,2788,2050,2901,1310,1039,1278,2804,2035,2815,1211,1912,1316,2792,2052,2884,1308,1041,1284,2806
1782219288.7688,8.3300,1,lf,0.0986,0.0986,-0.1000,0,0.3311,0.3321,-0.1016,-0.0012,0.0010,-0.0064,CLIMB,5,1,0,11.0,0.000,4.260,1,-1,0,-1.0,-11.0,-1.0,0.0,0.0,0.0,2037,2826,1212,1912,1298,2788,2050,2901,1310,1039,1278,2804,2035,2815,1211,1912,1316,2792,2052,2884,1308,1041,1284,2806
1782219288.7888,8.3500,1,lf,0.0986,0.0986,-0.1000,0,0.3311,0.3321,-0.1016,-0.0012,0.0010,-0.0064,CLIMB,5,1,0,11.0,0.000,4.280,1,-1,0,-1.0,-11.0,-1.0,0.0,0.0,0.0,2037,2826,1212,1912,1298,2788,2050,2901,1310,1039,1278,2804,2035,2815,1211,1912,1316,2792,2052,2884,1309,1041,1284,2806
1782219288.8088,8.3700,1,lf,0.0986,0.0986,-0.1000,0,0.3311,0.3321,-0.1016,-0.0012,0.0010,-0.0064,CLIMB,5,1,0,11.0,0.000,4.300,1,-1,0,-2.0,-11.0,-1.0,0.0,0.0,0.0,2037,2826,1212,1912,1298,2788,2050,2901,1310,1039,1278,2804,2035,2815,1211,1912,1316,2792,2052,2884,1309,1041,1284,2806
1782219288.8288,8.3900,1,lf,0.0986,0.0986,-0.1000,0,0.3311,0.3321,-0.1016,-0.0012,0.0010,-0.0064,CLIMB,5,1,0,11.0,0.000,4.320,1,-1,0,-2.0,-11.0,-1.0,0.0,0.0,0.0,2037,2826,1212,1912,1298,2788,2050,2901,1310,1039,1278,2804,2035,2815,1211,1912,1316,2792,2052,2884,1309,1041,1284,2806
1782219288.8488,8.4100,1,lf,0.0986,0.0986,-0.1000,0,0.3311,0.3321,-0.1016,-0.0012,0.0010,-0.0064,CLIMB,5,1,0,11.0,0.000,4.340,1,-1,0,-2.0,-11.0,-1.0,0.0,0.0,0.0,2037,2826,1212,1912,1298,2788,2050,2901,1310,1039,1278,2804,2035,2815,1211,1912,1316,2792,2052,2884,1309,1041,1284,2805
1782219288.8688,8.4300,1,lf,0.0986,0.0986,-0.1000,0,0.3311,0.3321,-0.1016,-0.0012,0.0010,-0.0064,CLIMB,5,1,0,11.0,0.000,4.360,1,-1,0,-1.0,-11.0,-1.0,0.0,0.0,0.0,2037,2826,1212,1912,1298,2788,2050,2901,1310,1039,1278,2804,2035,2815,1211,1912,1316,2792,2052,2884,1309,1041,1284,2805
1782219288.8888,8.4500,1,lf,0.0986,0.0986,-0.1000,0,0.3311,0.3321,-0.1016,-0.0012,0.0010,-0.0064,CLIMB,5,1,0,11.0,0.000,4.380,1,-1,0,-1.0,-11.0,-1.0,0.0,0.0,0.0,2037,2826,1212,1912,1298,2788,2050,2901,1310,1039,1278,2804,2036,2815,1211,1912,1316,2792,2052,2884,1308,1041,1284,2805
1782219288.9089,8.4701,1,lf,0.0986,0.0986,-0.1000,0,0.3314,0.3319,-0.1016,-0.0013,0.0012,-0.0064,CLIMB,5,1,0,11.0,0.000,4.400,1,-1,0,-1.0,-11.0,-1.0,0.0,0.0,0.0,2037,2826,1212,1912,1298,2788,2050,2901,1310,1039,1278,2804,2036,2815,1211,1912,1316,2792,2052,2884,1308,1041,1284,2805
1782219288.9288,8.4901,1,lf,0.0986,0.0986,-0.1000,0,0.3314,0.3319,-0.1016,-0.0013,0.0012,-0.0064,CLIMB,5,1,0,11.0,0.000,4.420,1,-1,0,-1.0,-11.0,-1.0,0.0,0.0,0.0,2037,2826,1212,1912,1298,2788,2050,2901,1310,1039,1278,2804,2036,2815,1211,1912,1316,2792,2052,2884,1308,1041,1284,2805
1782219288.9488,8.5100,1,lf,0.0986,0.0986,-0.1000,0,0.3314,0.3319,-0.1016,-0.0013,0.0013,-0.0064,CLIMB,5,1,0,11.0,0.000,4.440,1,-1,0,-1.0,-11.0,-1.0,0.0,0.0,0.0,2037,2826,1212,1912,1298,2788,2050,2901,1310,1039,1278,2804,2036,2815,1211,1912,1316,2792,2052,2884,1308,1041,1284,2805
1782219288.9688,8.5300,1,lf,0.0986,0.0986,-0.1000,0,0.3314,0.3319,-0.1016,-0.0013,0.0013,-0.0064,CLIMB,5,1,0,11.0,0.000,4.460,1,-1,0,-2.0,-11.0,-2.0,0.0,0.0,0.0,2037,2826,1212,1912,1298,2788,2050,2901,1310,1039,1278,2804,2036,2815,1211,1912,1316,2792,2052,2884,1308,1041,1284,2805
1782219288.9888,8.5500,1,lf,0.0986,0.0986,-0.1000,0,0.3314,0.3319,-0.1016,-0.0014,0.0013,-0.0064,CLIMB,5,1,0,11.0,0.000,4.480,1,-1,0,-2.0,-11.0,-1.0,0.0,0.0,0.0,2037,2826,1212,1912,1298,2788,2050,2901,1310,1039,1278,2804,2035,2815,1211,1912,1316,2792,2052,2884,1309,1040,1284,2805
1782219289.0091,8.5703,1,lf,0.0986,0.0986,-0.1000,0,0.3311,0.3321,-0.1016,-0.0013,0.0012,-0.0064,CLIMB,5,1,0,11.0,0.000,4.500,1,-1,0,-2.0,-11.0,-1.0,0.0,0.0,0.0,2037,2826,1212,1912,1298,2788,2050,2901,1310,1039,1278,2804,2035,2815,1211,1912,1316,2792,2052,2884,1309,1040,1284,2805
1782219289.0289,8.5901,1,lf,0.0986,0.0986,-0.1000,0,0.3311,0.3321,-0.1016,-0.0012,0.0011,-0.0064,CLIMB,5,1,0,11.0,0.000,4.520,1,-1,0,-1.0,-11.0,-1.0,0.0,0.0,0.0,2037,2826,1212,1912,1298,2788,2050,2901,1310,1039,1278,2804,2035,2815,1211,1912,1316,2792,2052,2884,1309,1040,1284,2805
1782219289.0488,8.6100,1,lf,0.0986,0.0986,-0.1000,0,0.3311,0.3321,-0.1016,-0.0012,0.0010,-0.0063,CLIMB,5,1,0,11.0,0.000,4.540,1,-1,0,-1.0,-11.0,-1.0,0.0,0.0,0.0,2037,2826,1212,1912,1298,2788,2050,2901,1310,1039,1278,2804,2035,2815,1210,1912,1316,2792,2052,2884,1308,1041,1284,2805
1782219289.0688,8.6300,1,lf,0.0986,0.0986,-0.1000,0,0.3311,0.3321,-0.1016,-0.0011,0.0010,-0.0064,CLIMB,5,1,0,11.0,0.000,4.560,1,-1,0,-2.0,-11.0,-2.0,0.0,0.0,0.0,2037,2826,1212,1912,1298,2788,2050,2901,1310,1039,1278,2804,2035,2815,1210,1912,1316,2792,2052,2884,1308,1041,1284,2805
1782219289.0889,8.6501,1,lf,0.0986,0.0986,-0.1000,0,0.3311,0.3321,-0.1016,-0.0011,0.0010,-0.0064,CLIMB,5,1,0,11.0,0.000,4.580,1,-1,0,-1.0,-11.0,-2.0,0.0,0.0,0.0,2037,2826,1212,1912,1298,2788,2050,2901,1310,1039,1278,2804,2036,2815,1210,1912,1316,2792,2052,2884,1308,1041,1284,2805
1782219289.1091,8.6703,1,lf,0.0986,0.0986,-0.1000,0,0.3313,0.3318,-0.1016,-0.0012,0.0012,-0.0064,CLIMB,5,1,0,11.0,0.000,4.600,1,-1,0,-1.0,-11.0,-2.0,0.0,0.0,0.0,2037,2826,1212,1912,1298,2788,2050,2901,1310,1039,1278,2804,2036,2815,1210,1912,1316,2792,2052,2884,1308,1041,1284,2805
1782219289.1289,8.6901,1,lf,0.0986,0.0986,-0.1000,0,0.3313,0.3318,-0.1016,-0.0012,0.0013,-0.0064,CLIMB,5,1,0,11.0,0.000,4.620,1,-1,0,-2.0,-11.0,-1.0,0.0,0.0,0.0,2037,2826,1212,1912,1298,2788,2050,2901,1310,1039,1278,2804,2036,2815,1210,1912,1316,2792,2052,2884,1308,1041,1284,2805
1782219289.1488,8.7100,1,lf,0.0986,0.0986,-0.1000,0,0.3313,0.3318,-0.1016,-0.0013,0.0013,-0.0064,CLIMB,5,1,0,11.0,0.000,4.640,1,-1,0,-1.0,-11.0,-2.0,0.0,0.0,0.0,2037,2826,1212,1912,1298,2788,2050,2901,1310,1039,1278,2804,2036,2815,1210,1912,1316,2791,2052,2884,1308,1041,1284,2805
1782219289.1688,8.7301,1,lf,0.0986,0.0986,-0.1000,0,0.3313,0.3318,-0.1016,-0.0013,0.0013,-0.0064,CLIMB,5,1,0,11.0,0.000,4.660,1,-1,0,-1.0,-11.0,-2.0,0.0,0.0,0.0,2037,2826,1212,1912,1298,2788,2050,2901,1310,1039,1278,2804,2036,2815,1210,1912,1316,2791,2052,2884,1308,1041,1284,2805
1782219289.1889,8.7501,1,lf,0.0986,0.0986,-0.1000,0,0.3313,0.3318,-0.1016,-0.0013,0.0013,-0.0064,CLIMB,5,1,0,11.0,0.000,4.680,1,-1,0,-2.0,-11.0,-1.0,0.0,0.0,0.0,2037,2826,1212,1912,1298,2788,2050,2901,1310,1039,1278,2804,2035,2815,1211,1912,1316,2792,2052,2884,1309,1040,1284,2805
1782219289.2089,8.7701,1,lf,0.0986,0.0986,-0.1000,0,0.3311,0.3321,-0.1016,-0.0012,0.0012,-0.0064,CLIMB,5,1,0,11.0,0.000,4.700,1,-1,0,-2.0,-11.0,-1.0,0.0,0.0,0.0,2037,2826,1212,1912,1298,2788,2050,2901,1310,1039,1278,2804,2035,2815,1211,1912,1316,2792,2052,2884,1309,1040,1284,2805
1782219289.2289,8.7901,1,lf,0.0986,0.0986,-0.1000,0,0.3311,0.3321,-0.1016,-0.0012,0.0011,-0.0064,CLIMB,5,1,0,11.0,0.000,4.720,1,-1,0,-2.0,-11.0,-1.0,0.0,0.0,0.0,2037,2826,1212,1912,1298,2788,2050,2901,1310,1039,1278,2804,2035,2815,1211,1912,1316,2792,2052,2884,1309,1040,1284,2805
1782219289.2488,8.8100,1,lf,0.0986,0.0986,-0.1000,0,0.3311,0.3321,-0.1016,-0.0012,0.0010,-0.0064,CLIMB,5,1,0,11.0,0.000,4.740,1,-1,0,-2.0,-11.0,-2.0,0.0,0.0,0.0,2037,2826,1212,1912,1298,2788,2050,2901,1310,1039,1278,2804,2035,2815,1210,1912,1315,2792,2052,2884,1308,1041,1284,2805
1782219289.2688,8.8300,1,lf,0.0986,0.0986,-0.1000,0,0.3311,0.3321,-0.1016,-0.0011,0.0010,-0.0064,CLIMB,5,1,0,11.0,0.000,4.760,1,-1,0,-2.0,-11.0,-2.0,0.0,0.0,0.0,2037,2826,1212,1912,1298,2788,2050,2901,1310,1039,1278,2804,2035,2815,1210,1912,1315,2792,2052,2884,1308,1041,1284,2805
1782219289.2889,8.8501,1,lf,0.0986,0.0986,-0.1000,0,0.3311,0.3321,-0.1016,-0.0011,0.0010,-0.0064,CLIMB,5,1,0,11.0,0.000,4.780,1,-1,0,-2.0,-11.0,-1.0,0.0,0.0,0.0,2037,2826,1212,1912,1298,2788,2050,2901,1310,1039,1278,2804,2035,2815,1211,1912,1316,2791,2052,2884,1308,1041,1284,2805
1782219289.3090,8.8702,1,lf,0.0986,0.0986,-0.1000,0,0.3311,0.3321,-0.1016,-0.0011,0.0010,-0.0064,CLIMB,5,1,0,11.0,0.000,4.800,1,-1,0,-1.0,-11.0,-1.0,0.0,0.0,0.0,2037,2826,1212,1912,1298,2788,2050,2901,1310,1039,1278,2804,2035,2815,1211,1912,1316,2791,2052,2884,1308,1041,1284,2805
1782219289.3294,8.8906,1,lf,0.0986,0.0986,-0.1000,0,0.3311,0.3321,-0.1016,-0.0012,0.0010,-0.0064,CLIMB,5,1,0,11.0,0.000,4.820,1,-1,0,-1.0,-11.0,-1.0,0.0,0.0,0.0,2037,2826,1212,1912,1298,2788,2050,2901,1310,1039,1278,2804,2035,2815,1211,1912,1316,2791,2052,2884,1308,1041,1284,2805
1782219289.3489,8.9101,1,lf,0.0986,0.0986,-0.1000,0,0.3311,0.3321,-0.1016,-0.0012,0.0010,-0.0063,CLIMB,5,1,0,11.0,0.000,4.840,1,-1,0,-2.0,-11.0,-1.0,0.0,0.0,0.0,2037,2826,1212,1912,1298,2788,2050,2901,1310,1039,1278,2804,2035,2815,1211,1912,1316,2791,2052,2884,1309,1041,1283,2805
1782219289.3688,8.9300,1,lf,0.0986,0.0986,-0.1000,0,0.3311,0.3321,-0.1016,-0.0012,0.0010,-0.0063,CLIMB,5,1,0,11.0,0.000,4.860,1,-1,0,-2.0,-11.0,-1.0,0.0,0.0,0.0,2037,2826,1212,1912,1298,2788,2050,2901,1310,1039,1278,2804,2035,2815,1211,1912,1316,2791,2052,2884,1309,1041,1283,2805
1782219289.3889,8.9501,1,lf,0.0986,0.0986,-0.1000,0,0.3311,0.3321,-0.1016,-0.0012,0.0010,-0.0063,CLIMB,5,1,0,11.0,0.000,4.880,1,-1,0,-1.0,-11.0,-1.0,0.0,0.0,0.0,2037,2826,1212,1912,1298,2788,2050,2901,1310,1039,1278,2804,2036,2815,1211,1912,1316,2792,2052,2884,1308,1040,1284,2805
1782219289.4089,8.9701,1,lf,0.0986,0.0986,-0.1000,0,0.3314,0.3319,-0.1016,-0.0013,0.0012,-0.0063,CLIMB,5,1,0,11.0,0.000,4.900,1,-1,0,-1.0,-11.0,-1.0,0.0,0.0,0.0,2037,2826,1212,1912,1298,2788,2050,2901,1310,1039,1278,2804,2036,2815,1211,1912,1316,2792,2052,2884,1308,1040,1284,2805
1782219289.4288,8.9900,1,lf,0.0986,0.0986,-0.1000,0,0.3314,0.3319,-0.1016,-0.0013,0.0013,-0.0063,CLIMB,5,1,0,11.0,0.000,4.920,1,-1,0,-1.0,-11.0,-1.0,0.0,0.0,0.0,2037,2826,1212,1912,1298,2788,2050,2901,1310,1039,1278,2804,2036,2815,1211,1912,1316,2792,2052,2884,1308,1040,1284,2805
1782219289.4487,9.0099,1,lf,0.0986,0.0986,-0.1000,0,0.3314,0.3319,-0.1016,-0.0013,0.0013,-0.0063,CLIMB,5,1,0,11.0,0.000,4.940,1,-1,0,-1.0,-11.0,-1.0,0.0,0.0,0.0,2037,2826,1212,1912,1298,2788,2050,2901,1310,1039,1278,2804,2036,2815,1211,1912,1316,2792,2052,2884,1308,1041,1284,2805
1782219289.4690,9.0302,1,lf,0.0986,0.0986,-0.1000,0,0.3314,0.3319,-0.1016,-0.0014,0.0013,-0.0063,CLIMB,5,1,0,11.0,0.000,4.960,1,-1,0,-1.0,-11.0,-1.0,0.0,0.0,0.0,2037,2826,1212,1912,1298,2788,2050,2901,1310,1039,1278,2804,2036,2815,1211,1912,1316,2792,2052,2884,1308,1041,1284,2805
1782219289.4889,9.0501,1,lf,0.0986,0.0986,-0.1000,0,0.3314,0.3319,-0.1016,-0.0014,0.0013,-0.0063,CLIMB,5,1,0,11.0,0.000,4.980,1,-1,0,-1.0,-11.0,-1.0,0.0,0.0,0.0,2037,2826,1212,1912,1298,2788,2050,2901,1310,1039,1278,2804,2036,2815,1211,1912,1316,2791,2052,2884,1308,1041,1284,2805
1782219289.5089,9.0701,1,lf,0.0986,0.0986,-0.1000,0,0.3314,0.3319,-0.1016,-0.0014,0.0013,-0.0063,CLIMB,5,1,0,11.0,0.000,5.000,1,-1,0,-1.0,-11.0,-1.0,0.0,0.0,0.0,2037,2826,1212,1912,1298,2788,2050,2901,1310,1039,1278,2804,2036,2815,1211,1912,1316,2791,2052,2884,1308,1041,1284,2805
1782219289.5289,9.0901,1,lf,0.0986,0.0986,-0.1000,0,0.3314,0.3319,-0.1016,-0.0014,0.0014,-0.0063,CLIMB,5,1,0,11.0,0.000,5.020,1,-1,0,-1.0,-11.0,-1.0,0.0,0.0,0.0,2037,2826,1212,1912,1298,2788,2050,2901,1310,1039,1278,2804,2036,2815,1211,1912,1316,2791,2052,2884,1308,1041,1284,2805
1782219289.5487,9.1099,1,lf,0.0986,0.0986,-0.1000,0,0.3314,0.3319,-0.1016,-0.0014,0.0014,-0.0063,CLIMB,5,1,0,11.0,0.000,5.040,1,-1,0,-2.0,-11.0,-2.0,0.0,0.0,0.0,2037,2826,1212,1912,1298,2788,2050,2901,1310,1039,1278,2804,2035,2815,1210,1912,1316,2792,2052,2884,1309,1040,1284,2805
1782219289.5687,9.1300,1,lf,0.0986,0.0986,-0.1000,0,0.3311,0.3321,-0.1016,-0.0012,0.0012,-0.0063,CLIMB,5,1,0,11.0,0.000,5.060,1,-1,0,-1.0,-11.0,-2.0,0.0,0.0,0.0,2037,2826,1212,1912,1298,2788,2050,2901,1310,1039,1278,2804,2035,2815,1210,1912,1316,2792,2052,2884,1309,1040,1284,2805
1782219289.5892,9.1504,1,lf,0.0986,0.0986,-0.1000,0,0.3311,0.3321,-0.1016,-0.0012,0.0012,-0.0063,CLIMB,5,1,0,11.0,0.000,5.080,1,-1,0,-1.0,-11.0,-2.0,0.0,0.0,0.0,2037,2826,1212,1912,1298,2788,2050,2901,1310,1039,1278,2804,2035,2815,1211,1912,1316,2791,2052,2884,1309,1040,1284,2805
1782219289.6088,9.1700,1,lf,0.0986,0.0986,-0.1000,0,0.3311,0.3321,-0.1016,-0.0012,0.0011,-0.0063,CLIMB,5,1,0,11.0,0.000,5.100,1,-1,0,-2.0,-11.0,-1.0,0.0,0.0,0.0,2037,2826,1212,1912,1298,2788,2050,2901,1310,1039,1278,2804,2035,2815,1211,1912,1316,2791,2052,2884,1309,1040,1284,2805
1782219289.6287,9.1900,1,lf,0.0986,0.0986,-0.1000,0,0.3311,0.3321,-0.1016,-0.0012,0.0011,-0.0063,CLIMB,5,1,0,11.0,0.000,5.120,1,-1,0,-1.0,-11.0,-1.0,0.0,0.0,0.0,2037,2826,1212,1912,1298,2788,2050,2901,1310,1039,1278,2804,2035,2815,1211,1912,1316,2791,2052,2884,1309,1040,1284,2805
1782219289.6487,9.2099,1,lf,0.0986,0.0986,-0.1000,0,0.3311,0.3321,-0.1016,-0.0012,0.0011,-0.0063,CLIMB,5,1,0,11.0,0.000,5.140,1,-1,0,-1.0,-11.0,-1.0,0.0,0.0,0.0,2037,2826,1212,1912,1298,2788,2050,2901,1310,1039,1278,2804,2036,2815,1211,1912,1316,2792,2052,2884,1308,1041,1283,2805
1782219289.6686,9.2299,1,lf,0.0986,0.0986,-0.1000,0,0.3314,0.3319,-0.1016,-0.0013,0.0012,-0.0063,CLIMB,5,1,0,11.0,0.000,5.160,1,-1,0,-1.0,-11.0,-1.0,0.0,0.0,0.0,2037,2826,1212,1912,1298,2788,2050,2901,1310,1039,1278,2804,2036,2815,1211,1912,1316,2792,2052,2884,1308,1041,1283,2805
1782219289.6886,9.2498,1,lf,0.0986,0.0986,-0.1000,0,0.3314,0.3319,-0.1016,-0.0013,0.0013,-0.0063,CLIMB,5,1,0,11.0,0.000,5.180,1,-1,0,-1.0,-11.0,-1.0,0.0,0.0,0.0,2037,2826,1212,1912,1298,2788,2050,2901,1310,1039,1278,2804,2036,2815,1210,1912,1316,2792,2052,2884,1309,1040,1284,2805
1782219289.7087,9.2699,1,lf,0.0986,0.0986,-0.1000,0,0.3313,0.3318,-0.1016,-0.0013,0.0013,-0.0063,CLIMB,5,1,0,11.0,0.000,5.200,1,-1,0,-1.0,-11.0,-2.0,0.0,0.0,0.0,2037,2826,1212,1912,1298,2788,2050,2901,1310,1039,1278,2804,2036,2815,1210,1912,1316,2792,2052,2884,1309,1040,1284,2805
1782219289.7288,9.2900,1,lf,0.0986,0.0986,-0.1000,0,0.3313,0.3318,-0.1016,-0.0013,0.0014,-0.0063,CLIMB,5,1,0,11.0,0.000,5.220,1,-1,0,-1.0,-11.0,-2.0,0.0,0.0,0.0,2037,2826,1212,1912,1298,2788,2050,2901,1310,1039,1278,2804,2036,2815,1210,1912,1316,2792,2052,2884,1309,1040,1284,2805
1782219289.7488,9.3100,1,lf,0.0986,0.0986,-0.1000,0,0.3313,0.3318,-0.1016,-0.0013,0.0014,-0.0063,CLIMB,5,1,0,11.0,0.000,5.240,1,-1,0,-1.0,-11.0,-2.0,0.0,0.0,0.0,2037,2826,1212,1912,1298,2788,2050,2901,1310,1039,1278,2804,2036,2815,1210,1912,1316,2791,2052,2884,1308,1041,1284,2805
1782219289.7688,9.3300,1,lf,0.0986,0.0986,-0.1000,0,0.3313,0.3318,-0.1016,-0.0013,0.0014,-0.0063,CLIMB,5,1,0,11.0,0.000,5.260,1,-1,0,-1.0,-11.0,-1.0,0.0,0.0,0.0,2037,2826,1212,1912,1298,2788,2050,2901,1310,1039,1278,2804,2036,2815,1210,1912,1316,2791,2052,2884,1308,1041,1284,2805
1782219289.7889,9.3501,1,lf,0.0986,0.0986,-0.1000,0,0.3313,0.3318,-0.1016,-0.0013,0.0014,-0.0063,CLIMB,5,1,0,11.0,0.000,5.280,1,-1,0,-2.0,-11.0,-2.0,0.0,0.0,0.0,2037,2826,1212,1912,1298,2788,2050,2901,1310,1039,1278,2804,2035,2815,1210,1912,1316,2792,2052,2884,1308,1041,1284,2805
1782219289.8089,9.3701,1,lf,0.0986,0.0986,-0.1000,0,0.3311,0.3321,-0.1016,-0.0012,0.0012,-0.0063,CLIMB,5,1,0,11.0,0.000,5.300,1,-1,0,-2.0,-11.0,-2.0,0.0,0.0,0.0,2037,2826,1212,1912,1298,2788,2050,2901,1310,1039,1278,2804,2035,2815,1210,1912,1316,2792,2052,2884,1308,1041,1284,2805
1782219289.8288,9.3901,1,lf,0.0986,0.0986,-0.1000,0,0.3311,0.3321,-0.1016,-0.0012,0.0012,-0.0063,CLIMB,5,1,0,11.0,0.000,5.320,1,-1,0,-2.0,-11.0,-1.0,0.0,0.0,0.0,2037,2826,1212,1912,1298,2788,2050,2901,1310,1039,1278,2804,2035,2815,1210,1912,1316,2792,2052,2884,1308,1041,1284,2805
1782219289.8489,9.4101,1,lf,0.0986,0.0986,-0.1000,0,0.3311,0.3321,-0.1016,-0.0011,0.0011,-0.0063,CLIMB,5,1,0,11.0,0.000,5.340,1,-1,0,-2.0,-11.0,-1.0,0.0,0.0,0.0,2037,2826,1212,1912,1298,2788,2050,2901,1310,1039,1278,2804,2036,2815,1211,1912,1316,2792,2052,2884,1308,1041,1284,2805
1782219289.8688,9.4300,1,lf,0.0986,0.0986,-0.1000,0,0.3314,0.3319,-0.1016,-0.0012,0.0012,-0.0063,CLIMB,5,1,0,11.0,0.000,5.360,1,-1,0,-1.0,-11.0,-1.0,0.0,0.0,0.0,2037,2826,1212,1912,1298,2788,2050,2901,1310,1039,1278,2804,2036,2815,1211,1912,1316,2792,2052,2884,1308,1041,1284,2805
1782219289.8893,9.4505,1,lf,0.0986,0.0986,-0.1000,0,0.3314,0.3319,-0.1016,-0.0013,0.0013,-0.0063,CLIMB,5,1,0,11.0,0.000,5.380,1,-1,0,-2.0,-11.0,-1.0,0.0,0.0,0.0,2037,2826,1212,1912,1298,2788,2050,2901,1310,1039,1278,2804,2035,2815,1211,1912,1316,2792,2052,2884,1308,1040,1284,2805
1782219289.9089,9.4701,1,lf,0.0986,0.0986,-0.1000,0,0.3311,0.3321,-0.1016,-0.0012,0.0012,-0.0063,CLIMB,5,1,0,11.0,0.000,5.400,1,-1,0,-2.0,-11.0,-1.0,0.0,0.0,0.0,2037,2826,1212,1912,1298,2788,2050,2901,1310,1039,1278,2804,2035,2815,1211,1912,1316,2792,2052,2884,1308,1040,1284,2805
1782219289.9288,9.4900,1,lf,0.0986,0.0986,-0.1000,0,0.3311,0.3321,-0.1016,-0.0012,0.0011,-0.0063,CLIMB,5,1,0,11.0,0.000,5.420,1,-1,0,-2.0,-11.0,-1.0,0.0,0.0,0.0,2037,2826,1212,1912,1298,2788,2050,2901,1310,1039,1278,2804,2035,2815,1211,1912,1316,2792,2052,2884,1308,1040,1284,2805
1782219289.9490,9.5102,1,lf,0.0986,0.0986,-0.1000,0,0.3311,0.3321,-0.1016,-0.0012,0.0011,-0.0063,CLIMB,5,1,0,11.0,0.000,5.440,1,-1,0,-2.0,-11.0,-1.0,0.0,0.0,0.0,2037,2826,1212,1912,1298,2788,2050,2901,1310,1039,1278,2804,2035,2815,1211,1912,1316,2791,2052,2885,1309,1041,1284,2805
1782219289.9688,9.5300,1,lf,0.0986,0.0986,-0.1000,0,0.3311,0.3321,-0.1016,-0.0012,0.0011,-0.0063,CLIMB,5,1,0,11.0,0.000,5.460,1,-1,0,-2.0,-11.0,-1.0,0.0,0.0,0.0,2037,2826,1212,1912,1298,2788,2050,2901,1310,1039,1278,2804,2035,2815,1211,1912,1316,2791,2052,2885,1309,1041,1284,2805
1782219289.9888,9.5500,1,lf,0.0986,0.0986,-0.1000,0,0.3311,0.3321,-0.1016,-0.0012,0.0011,-0.0063,CLIMB,5,1,0,11.0,0.000,5.480,1,-1,0,-2.0,-11.0,-1.0,0.0,0.0,0.0,2037,2826,1212,1912,1298,2788,2050,2901,1310,1039,1278,2804,2035,2815,1211,1912,1316,2792,2052,2884,1309,1041,1284,2805
1782219290.0088,9.5701,1,lf,0.0986,0.0986,-0.1000,0,0.3311,0.3321,-0.1016,-0.0012,0.0011,-0.0063,CLIMB,5,1,0,11.0,0.000,5.500,1,-1,0,-2.0,-11.0,-1.0,0.0,0.0,0.0,2037,2826,1212,1912,1298,2788,2050,2901,1310,1039,1278,2804,2035,2815,1211,1912,1316,2792,2052,2884,1309,1041,1284,2805
1782219290.0288,9.5900,1,lf,0.0986,0.0986,-0.1000,0,0.3311,0.3321,-0.1016,-0.0012,0.0011,-0.0063,CLIMB,5,1,0,11.0,0.000,5.520,1,-1,0,-1.0,-11.0,-1.0,0.0,0.0,0.0,2037,2826,1212,1912,1298,2788,2050,2901,1310,1039,1278,2804,2035,2815,1211,1912,1316,2792,2052,2884,1309,1041,1284,2805
1782219290.0490,9.6102,1,lf,0.0986,0.0986,-0.1000,0,0.3311,0.3321,-0.1016,-0.0012,0.0011,-0.0063,CLIMB,5,1,0,11.0,0.000,5.540,1,-1,0,-1.0,-11.0,-2.0,0.0,0.0,0.0,2037,2826,1212,1912,1298,2788,2050,2901,1310,1039,1278,2804,2036,2815,1210,1912,1316,2792,2052,2884,1308,1041,1284,2805
1782219290.0689,9.6301,1,lf,0.0986,0.0986,-0.1000,0,0.3313,0.3318,-0.1016,-0.0012,0.0012,-0.0063,CLIMB,5,1,0,11.0,0.000,5.560,1,-1,0,-1.0,-11.0,-2.0,0.0,0.0,0.0,2037,2826,1212,1912,1298,2788,2050,2901,1310,1039,1278,2804,2036,2815,1210,1912,1316,2792,2052,2884,1308,1041,1284,2805
1782219290.0888,9.6501,1,lf,0.0986,0.0986,-0.1000,0,0.3313,0.3318,-0.1016,-0.0013,0.0013,-0.0063,CLIMB,5,1,0,11.0,0.000,5.580,1,-1,0,-2.0,-11.0,-1.0,0.0,0.0,0.0,2037,2826,1212,1912,1298,2788,2050,2901,1310,1039,1278,2804,2035,2815,1211,1912,1316,2792,2052,2884,1309,1040,1284,2805
1782219290.1089,9.6701,1,lf,0.0986,0.0986,-0.1000,0,0.3311,0.3321,-0.1016,-0.0012,0.0012,-0.0063,CLIMB,5,1,0,11.0,0.000,5.600,1,-1,0,-2.0,-11.0,-1.0,0.0,0.0,0.0,2037,2826,1212,1912,1298,2788,2050,2901,1310,1039,1278,2804,2035,2815,1211,1912,1316,2792,2052,2884,1309,1040,1284,2805
1782219290.1288,9.6900,1,lf,0.0986,0.0986,-0.1000,0,0.3311,0.3321,-0.1016,-0.0012,0.0011,-0.0063,CLIMB,5,1,0,11.0,0.000,5.620,1,-1,0,-2.0,-11.0,-1.0,0.0,0.0,0.0,2037,2826,1212,1912,1298,2788,2050,2901,1310,1039,1278,2804,2035,2815,1211,1912,1316,2792,2052,2884,1309,1040,1284,2805
1782219290.1487,9.7099,1,lf,0.0986,0.0986,-0.1000,0,0.3311,0.3321,-0.1016,-0.0012,0.0011,-0.0063,CLIMB,5,1,0,11.0,0.000,5.640,1,-1,0,-1.0,-11.0,-2.0,0.0,0.0,0.0,2037,2826,1212,1912,1298,2788,2050,2901,1310,1039,1278,2804,2036,2815,1210,1912,1316,2792,2052,2884,1308,1040,1283,2805
1782219290.1688,9.7300,1,lf,0.0986,0.0986,-0.1000,0,0.3313,0.3318,-0.1016,-0.0012,0.0013,-0.0063,CLIMB,5,1,0,11.0,0.000,5.660,1,-1,0,-1.0,-11.0,-2.0,0.0,0.0,0.0,2037,2826,1212,1912,1298,2788,2050,2901,1310,1039,1278,2804,2036,2815,1210,1912,1316,2792,2052,2884,1308,1040,1283,2805
1782219290.1888,9.7500,1,lf,0.0986,0.0986,-0.1000,0,0.3313,0.3318,-0.1016,-0.0013,0.0013,-0.0063,CLIMB,5,1,0,11.0,0.000,5.680,1,-1,0,-2.0,-11.0,-1.0,0.0,0.0,0.0,2037,2826,1212,1912,1298,2788,2050,2901,1310,1039,1278,2804,2035,2815,1211,1912,1316,2792,2052,2884,1308,1040,1284,2805
1782219290.2091,9.7703,1,lf,0.0986,0.0986,-0.1000,0,0.3311,0.3321,-0.1016,-0.0012,0.0012,-0.0063,CLIMB,5,1,0,11.0,0.000,5.700,1,-1,0,-2.0,-11.0,-1.0,0.0,0.0,0.0,2037,2826,1212,1912,1298,2788,2050,2901,1310,1039,1278,2804,2035,2815,1211,1912,1316,2792,2052,2884,1308,1040,1284,2805
1782219290.2288,9.7900,1,lf,0.0986,0.0986,-0.1000,0,0.3311,0.3321,-0.1016,-0.0012,0.0011,-0.0063,CLIMB,5,1,0,11.0,0.000,5.720,1,-1,0,-2.0,-11.0,-1.0,0.0,0.0,0.0,2037,2826,1212,1912,1298,2788,2050,2901,1310,1039,1278,2804,2035,2815,1211,1912,1316,2792,2052,2884,1308,1040,1284,2805
