DreamSnakecc/climbing_ws/test_logs/dxl_autotune_20260623_205243/leg_endpoint/trial_03_id_1_profile_125/single_swing_lf_20260623_205356.csv
wall_time,elapsed_s,cycle,leg,cmd_x,cmd_y,cmd_z,cmd_support,ujc_x,ujc_y,ujc_z,body_x,body_y,body_z,mission_state,servo_phase_id,servo_gate_enabled,servo_ready,servo_max_abs_error_tick,servo_within_tolerance_s,servo_wait_s,servo_timed_out,servo_last_pass_phase_id,servo_last_pass_sequence,servo_error_joint1_tick,servo_error_joint2_tick,servo_error_joint3_tick,servo_last_pass_error_joint1_tick,servo_last_pass_error_joint2_tick,servo_last_pass_error_joint3_tick,ticks_cmd_11,ticks_cmd_1,ticks_cmd_2,ticks_cmd_12,ticks_cmd_3,ticks_cmd_4,ticks_cmd_13,ticks_cmd_5,ticks_cmd_6,ticks_cmd_14,ticks_cmd_7,ticks_cmd_8,ticks_act_11,ticks_act_1,ticks_act_2,ticks_act_12,ticks_act_3,ticks_act_4,ticks_act_13,ticks_act_5,ticks_act_6,ticks_act_14,ticks_act_7,ticks_act_8
1782219239.5198,2.7665,1,lf,0.0986,0.0986,-0.1100,0,0.3316,0.3325,-0.1103,-0.0012,0.0002,0.0021,CLIMB,4,1,0,0.0,0.000,0.000,0,-1,0,0.0,0.0,0.0,0.0,0.0,0.0,2037,2781,1318,1912,1298,2788,2050,2901,1310,1039,1278,2804,2035,2776,1313,1912,1316,2793,2052,2884,1309,1040,1297,2806
1782219239.5255,2.7723,1,lf,0.0986,0.0986,-0.1100,0,0.3316,0.3325,-0.1103,-0.0012,0.0002,0.0021,CLIMB,4,1,0,0.0,0.000,0.000,0,-1,0,0.0,0.0,0.0,0.0,0.0,0.0,2037,2781,1318,1912,1298,2788,2050,2901,1310,1039,1278,2804,2035,2776,1313,1912,1316,2793,2052,2884,1309,1040,1297,2806
1782219239.5458,2.7925,1,lf,0.0986,0.0986,-0.1100,0,0.3316,0.3325,-0.1103,-0.0011,0.0002,0.0022,CLIMB,4,1,0,0.0,0.000,0.000,0,-1,0,0.0,0.0,0.0,0.0,0.0,0.0,2037,2781,1318,1912,1298,2788,2050,2901,1310,1039,1278,2804,2035,2776,1312,1912,1316,2793,2052,2884,1308,1040,1297,2806
1782219239.5659,2.8126,1,lf,0.0986,0.0986,-0.1100,0,0.3315,0.3325,-0.1103,-0.0011,0.0002,0.0022,CLIMB,4,1,0,0.0,0.000,0.000,0,-1,0,0.0,0.0,0.0,0.0,0.0,0.0,2037,2781,1318,1912,1298,2788,2050,2901,1310,1039,1278,2804,2035,2776,1312,1912,1316,2793,2052,2884,1308,1040,1297,2806
1782219239.5858,2.8326,1,lf,0.0986,0.0986,-0.1100,0,0.3315,0.3325,-0.1103,-0.0012,0.0002,0.0021,CLIMB,4,1,0,0.0,0.000,0.000,0,-1,0,0.0,0.0,0.0,0.0,0.0,0.0,2037,2781,1318,1912,1298,2788,2050,2901,1310,1039,1278,2804,2035,2776,1312,1912,1316,2793,2052,2884,1308,1040,1297,2806
1782219239.6057,2.8524,1,lf,0.0986,0.0986,-0.1100,0,0.3315,0.3325,-0.1103,-0.0012,0.0002,0.0020,CLIMB,4,1,0,0.0,0.000,0.000,0,-1,0,0.0,0.0,0.0,0.0,0.0,0.0,2037,2781,1318,1912,1298,2788,2050,2901,1310,1039,1278,2804,2036,2776,1312,1912,1316,2793,2052,2884,1309,1040,1297,2806
1782219239.6256,2.8724,1,lf,0.0986,0.0986,-0.1100,0,0.3318,0.3322,-0.1103,-0.0013,0.0005,0.0020,CLIMB,4,1,0,0.0,0.000,0.000,0,-1,0,0.0,0.0,0.0,0.0,0.0,0.0,2037,2781,1318,1912,1298,2788,2050,2901,1310,1039,1278,2804,2036,2776,1312,1912,1316,2793,2052,2884,1309,1040,1297,2806
1782219239.6457,2.8924,1,lf,0.0986,0.0986,-0.1100,0,0.3318,0.3322,-0.1103,-0.0014,0.0005,0.0020,CLIMB,4,1,0,0.0,0.000,0.000,0,-1,0,0.0,0.0,0.0,0.0,0.0,0.0,2037,2781,1318,1912,1298,2788,2050,2901,1310,1039,1278,2804,2035,2776,1313,1912,1316,2793,2052,2884,1308,1040,1297,2806
1782219239.6657,2.9124,1,lf,0.0986,0.0986,-0.1100,0,0.3316,0.3325,-0.1103,-0.0013,0.0004,0.0020,CLIMB,4,1,0,0.0,0.000,0.000,0,-1,0,0.0,0.0,0.0,0.0,0.0,0.0,2037,2781,1318,1912,1298,2788,2050,2901,1310,1039,1278,2804,2035,2776,1313,1912,1316,2793,2052,2884,1308,1040,1297,2806
1782219239.6857,2.9324,1,lf,0.0986,0.0986,-0.1100,0,0.3316,0.3325,-0.1103,-0.0013,0.0003,0.0020,CLIMB,4,1,0,0.0,0.000,0.000,0,-1,0,0.0,0.0,0.0,0.0,0.0,0.0,2037,2781,1318,1912,1298,2788,2050,2901,1310,1039,1278,2804,2035,2776,1313,1912,1316,2793,2052,2884,1308,1040,1297,2806
1782219239.7057,2.9524,1,lf,0.0986,0.0986,-0.1100,0,0.3316,0.3325,-0.1103,-0.0013,0.0003,0.0020,CLIMB,4,1,0,0.0,0.000,0.000,0,-1,0,0.0,0.0,0.0,0.0,0.0,0.0,2037,2781,1318,1912,1298,2788,2050,2901,1310,1039,1278,2804,2035,2776,1312,1912,1316,2793,2052,2884,1309,1040,1297,2806
1782219239.7258,2.9725,1,lf,0.0986,0.0986,-0.1100,0,0.3315,0.3325,-0.1103,-0.0013,0.0003,0.0020,CLIMB,4,1,0,0.0,0.000,0.000,0,-1,0,0.0,0.0,0.0,0.0,0.0,0.0,2037,2781,1318,1912,1298,2788,2050,2901,1310,1039,1278,2804,2035,2776,1312,1912,1316,2793,2052,2884,1309,1040,1297,2806
1782219239.7458,2.9926,1,lf,0.0986,0.0986,-0.1100,0,0.3315,0.3325,-0.1103,-0.0012,0.0003,0.0020,CLIMB,4,1,0,0.0,0.000,0.000,0,-1,0,0.0,0.0,0.0,0.0,0.0,0.0,2037,2781,1318,1912,1298,2788,2050,2901,1310,1039,1278,2804,2036,2776,1313,1912,1316,2793,2052,2884,1309,1040,1297,2806
1782219239.7658,3.0126,1,lf,0.0986,0.0986,-0.1100,0,0.3318,0.3323,-0.1103,-0.0013,0.0004,0.0020,CLIMB,4,1,0,0.0,0.000,0.000,0,-1,0,0.0,0.0,0.0,0.0,0.0,0.0,2037,2781,1318,1912,1298,2788,2050,2901,1310,1039,1278,2804,2036,2776,1313,1912,1316,2793,2052,2884,1309,1040,1297,2806
1782219239.7858,3.0325,1,lf,0.0986,0.0986,-0.1100,0,0.3318,0.3323,-0.1103,-0.0014,0.0005,0.0020,CLIMB,4,1,0,0.0,0.000,0.000,0,-1,0,0.0,0.0,0.0,0.0,0.0,0.0,2037,2781,1318,1912,1298,2788,2050,2901,1310,1039,1278,2804,2036,2776,1313,1912,1316,2793,2052,2884,1309,1040,1297,2806
1782219239.8058,3.0525,1,lf,0.0986,0.0986,-0.1100,0,0.3318,0.3323,-0.1103,-0.0014,0.0005,0.0020,CLIMB,4,1,0,0.0,0.000,0.000,0,-1,0,0.0,0.0,0.0,0.0,0.0,0.0,2037,2781,1318,1912,1298,2788,2050,2901,1310,1039,1278,2804,2035,2776,1312,1912,1316,2793,2052,2884,1308,1040,1297,2806
1782219239.8257,3.0724,1,lf,0.0986,0.0986,-0.1100,0,0.3315,0.3325,-0.1103,-0.0013,0.0004,0.0020,CLIMB,4,1,0,0.0,0.000,0.000,0,-1,0,0.0,0.0,0.0,0.0,0.0,0.0,2037,2781,1318,1912,1298,2788,2050,2901,1310,1039,1278,2804,2035,2776,1312,1912,1316,2793,2052,2884,1308,1040,1297,2806
1782219239.8457,3.0924,1,lf,0.0986,0.0986,-0.1100,0,0.3315,0.3325,-0.1103,-0.0013,0.0003,0.0020,CLIMB,4,1,0,0.0,0.000,0.000,0,-1,0,0.0,0.0,0.0,0.0,0.0,0.0,2037,2781,1318,1912,1298,2788,2050,2901,1310,1039,1278,2804,2036,2776,1312,1912,1316,2793,2052,2884,1308,1040,1297,2806
1782219239.8657,3.1124,1,lf,0.0986,0.0986,-0.1100,0,0.3318,0.3322,-0.1103,-0.0013,0.0004,0.0020,CLIMB,4,1,0,0.0,0.000,0.000,0,-1,0,0.0,0.0,0.0,0.0,0.0,0.0,2037,2781,1318,1912,1298,2788,2050,2901,1310,1039,1278,2804,2036,2776,1312,1912,1316,2793,2052,2884,1308,1040,1297,2806
1782219239.8856,3.1324,1,lf,0.0986,0.0986,-0.1100,0,0.3318,0.3322,-0.1103,-0.0014,0.0005,0.0020,CLIMB,4,1,0,0.0,0.000,0.000,0,-1,0,0.0,0.0,0.0,0.0,0.0,0.0,2037,2781,1318,1912,1298,2788,2050,2901,1310,1039,1278,2804,2036,2776,1312,1912,1316,2793,2052,2884,1308,1040,1297,2806
1782219239.9057,3.1524,1,lf,0.0986,0.0986,-0.1100,0,0.3318,0.3322,-0.1103,-0.0014,0.0005,0.0020,CLIMB,4,1,0,0.0,0.000,0.000,0,-1,0,0.0,0.0,0.0,0.0,0.0,0.0,2037,2781,1318,1912,1298,2788,2050,2901,1310,1039,1278,2804,2035,2776,1312,1912,1316,2793,2052,2884,1308,1040,1297,2806
1782219239.9258,3.1725,1,lf,0.0986,0.0986,-0.1100,0,0.3315,0.3325,-0.1103,-0.0013,0.0004,0.0020,CLIMB,4,1,0,0.0,0.000,0.000,0,-1,0,0.0,0.0,0.0,0.0,0.0,0.0,2037,2781,1318,1912,1298,2788,2050,2901,1310,1039,1278,2804,2035,2776,1312,1912,1316,2793,2052,2884,1308,1040,1297,2806
1782219239.9457,3.1924,1,lf,0.0986,0.0986,-0.1100,0,0.3315,0.3325,-0.1103,-0.0012,0.0003,0.0020,CLIMB,4,1,0,0.0,0.000,0.000,0,-1,0,0.0,0.0,0.0,0.0,0.0,0.0,2037,2781,1318,1912,1298,2788,2050,2901,1310,1039,1278,2804,2035,2776,1313,1912,1316,2793,2052,2885,1308,1040,1297,2806
1782219239.9657,3.2125,1,lf,0.0986,0.0986,-0.1100,0,0.3316,0.3325,-0.1103,-0.0012,0.0003,0.0020,CLIMB,4,1,0,0.0,0.000,0.000,0,-1,0,0.0,0.0,0.0,0.0,0.0,0.0,2037,2781,1318,1912,1298,2788,2050,2901,1310,1039,1278,2804,2035,2776,1313,1912,1316,2793,2052,2885,1308,1040,1297,2806
1782219239.9857,3.2325,1,lf,0.0986,0.0986,-0.1100,0,0.3316,0.3325,-0.1103,-0.0013,0.0003,0.0020,CLIMB,4,1,0,0.0,0.000,0.000,0,-1,0,0.0,0.0,0.0,0.0,0.0,0.0,2037,2781,1318,1912,1298,2788,2050,2901,1310,1039,1278,2804,2035,2776,1313,1912,1316,2793,2052,2885,1308,1040,1297,2806
1782219240.0058,3.2525,1,lf,0.0986,0.0986,-0.1100,0,0.3316,0.3325,-0.1103,-0.0013,0.0002,0.0020,CLIMB,4,1,0,0.0,0.000,0.000,0,-1,0,0.0,0.0,0.0,0.0,0.0,0.0,2037,2781,1318,1912,1298,2788,2050,2901,1310,1039,1278,2804,2035,2776,1313,1912,1316,2793,2052,2884,1309,1040,1297,2806
1782219240.0257,3.2725,1,lf,0.0986,0.0986,-0.1100,0,0.3316,0.3325,-0.1103,-0.0013,0.0002,0.0020,CLIMB,4,1,0,0.0,0.000,0.000,0,-1,0,0.0,0.0,0.0,0.0,0.0,0.0,2037,2781,1318,1912,1298,2788,2050,2901,1310,1039,1278,2804,2035,2776,1313,1912,1316,2793,2052,2884,1309,1040,1297,2806
1782219240.0459,3.2927,1,lf,0.0986,0.0986,-0.1100,0,0.3316,0.3325,-0.1103,-0.0013,0.0002,0.0020,CLIMB,4,1,0,0.0,0.000,0.000,0,-1,0,0.0,0.0,0.0,0.0,0.0,0.0,2037,2781,1318,1912,1298,2788,2050,2901,1310,1039,1278,2804,2035,2776,1312,1912,1316,2793,2052,2884,1309,1040,1297,2806
1782219240.0658,3.3125,1,lf,0.0986,0.0986,-0.1100,0,0.3315,0.3325,-0.1103,-0.0012,0.0003,0.0020,CLIMB,4,1,0,0.0,0.000,0.000,0,-1,0,0.0,0.0,0.0,0.0,0.0,0.0,2037,2781,1318,1912,1298,2788,2050,2901,1310,1039,1278,2804,2035,2776,1312,1912,1316,2793,2052,2884,1309,1040,1297,2806
1782219240.0857,3.3324,1,lf,0.0986,0.0986,-0.1100,0,0.3315,0.3325,-0.1103,-0.0012,0.0003,0.0020,CLIMB,4,1,0,0.0,0.000,0.000,0,-1,0,0.0,0.0,0.0,0.0,0.0,0.0,2037,2781,1318,1912,1298,2788,2050,2901,1310,1039,1278,2804,2035,2776,1312,1912,1316,2793,2052,2884,1309,1040,1297,2806
1782219240.1057,3.3525,1,lf,0.0986,0.0986,-0.1100,0,0.3315,0.3325,-0.1103,-0.0012,0.0003,0.0020,CLIMB,4,1,0,0.0,0.000,0.000,0,-1,0,0.0,0.0,0.0,0.0,0.0,0.0,2037,2781,1318,1912,1298,2788,2050,2901,1310,1039,1278,2804,2035,2776,1312,1912,1316,2793,2052,2884,1308,1040,1297,2806
1782219240.1258,3.3726,1,lf,0.0986,0.0986,-0.1100,0,0.3315,0.3325,-0.1103,-0.0012,0.0003,0.0020,CLIMB,4,1,0,0.0,0.000,0.000,0,-1,0,0.0,0.0,0.0,0.0,0.0,0.0,2037,2781,1318,1912,1298,2788,2050,2901,1310,1039,1278,2804,2035,2776,1312,1912,1316,2793,2052,2884,1308,1040,1297,2806
1782219240.1457,3.3924,1,lf,0.0986,0.0986,-0.1100,0,0.3315,0.3325,-0.1103,-0.0012,0.0003,0.0020,CLIMB,4,1,0,0.0,0.000,0.000,0,-1,0,0.0,0.0,0.0,0.0,0.0,0.0,2037,2781,1318,1912,1298,2788,2050,2901,1310,1039,1278,2804,2035,2776,1312,1912,1316,2793,2052,2884,1308,1040,1297,2806
1782219240.1658,3.4125,1,lf,0.0986,0.0986,-0.1100,0,0.3315,0.3325,-0.1103,-0.0012,0.0003,0.0020,CLIMB,4,1,0,0.0,0.000,0.000,0,-1,0,0.0,0.0,0.0,0.0,0.0,0.0,2037,2781,1318,1912,1298,2788,2050,2901,1310,1039,1278,2804,2035,2776,1312,1912,1316,2793,2052,2884,1308,1040,1297,2806
1782219240.1863,3.4330,1,lf,0.0986,0.0986,-0.1100,0,0.3315,0.3325,-0.1103,-0.0012,0.0003,0.0020,CLIMB,4,1,0,0.0,0.000,0.000,0,-1,0,0.0,0.0,0.0,0.0,0.0,0.0,2037,2781,1318,1912,1298,2788,2050,2901,1310,1039,1278,2804,2035,2776,1312,1912,1316,2793,2052,2884,1308,1040,1297,2806
1782219240.2058,3.4525,1,lf,0.0986,0.0986,-0.1100,0,0.3315,0.3325,-0.1103,-0.0012,0.0003,0.0020,CLIMB,4,1,0,0.0,0.000,0.000,0,-1,0,0.0,0.0,0.0,0.0,0.0,0.0,2037,2781,1318,1912,1298,2788,2050,2901,1310,1039,1278,2804,2036,2776,1313,1912,1315,2793,2052,2884,1308,1040,1297,2806
1782219240.2257,3.4725,1,lf,0.0986,0.0986,-0.1100,0,0.3318,0.3323,-0.1103,-0.0014,0.0004,0.0020,CLIMB,4,1,0,0.0,0.000,0.000,0,-1,0,0.0,0.0,0.0,0.0,0.0,0.0,2037,2781,1318,1912,1298,2788,2050,2901,1310,1039,1278,2804,2036,2776,1313,1912,1315,2793,2052,2884,1308,1040,1297,2806
1782219240.2458,3.4925,1,lf,0.0986,0.0986,-0.1100,0,0.3318,0.3323,-0.1103,-0.0014,0.0005,0.0020,CLIMB,4,1,0,0.0,0.000,0.000,0,-1,0,0.0,0.0,0.0,0.0,0.0,0.0,2037,2781,1318,1912,1298,2788,2050,2901,1310,1039,1278,2804,2035,2776,1313,1912,1316,2793,2052,2884,1309,1040,1297,2806
1782219240.2658,3.5125,1,lf,0.0986,0.0986,-0.1100,0,0.3316,0.3325,-0.1103,-0.0013,0.0004,0.0020,CLIMB,4,1,0,0.0,0.000,0.000,0,-1,0,0.0,0.0,0.0,0.0,0.0,0.0,2037,2781,1318,1912,1298,2788,2050,2901,1310,1039,1278,2804,2035,2776,1313,1912,1316,2793,2052,2884,1309,1040,1297,2806
1782219240.2860,3.5327,1,lf,0.0986,0.0986,-0.1100,0,0.3316,0.3325,-0.1103,-0.0013,0.0003,0.0020,CLIMB,4,1,0,0.0,0.000,0.000,0,-1,0,0.0,0.0,0.0,0.0,0.0,0.0,2037,2781,1318,1912,1298,2788,2050,2901,1310,1039,1278,2804,2035,2776,1313,1912,1316,2793,2052,2884,1309,1040,1297,2806
1782219240.3058,3.5525,1,lf,0.0986,0.0986,-0.1100,0,0.3316,0.3325,-0.1103,-0.0013,0.0003,0.0020,CLIMB,4,1,0,0.0,0.000,0.000,0,-1,0,0.0,0.0,0.0,0.0,0.0,0.0,2037,2781,1318,1912,1298,2788,2050,2901,1310,1039,1278,2804,2035,2776,1312,1912,1316,2793,2052,2884,1309,1040,1297,2806
1782219240.3258,3.5726,1,lf,0.0986,0.0986,-0.1100,0,0.3315,0.3325,-0.1103,-0.0013,0.0003,0.0020,CLIMB,4,1,0,0.0,0.000,0.000,0,-1,0,0.0,0.0,0.0,0.0,0.0,0.0,2037,2781,1318,1912,1298,2788,2050,2901,1310,1039,1278,2804,2035,2776,1312,1912,1316,2793,2052,2884,1309,1040,1297,2806
1782219240.3458,3.5926,1,lf,0.0986,0.0986,-0.1100,0,0.3315,0.3325,-0.1103,-0.0012,0.0003,0.0020,CLIMB,4,1,0,0.0,0.000,0.000,0,-1,0,0.0,0.0,0.0,0.0,0.0,0.0,2037,2781,1318,1912,1298,2788,2050,2901,1310,1039,1278,2804,2036,2776,1312,1912,1316,2794,2052,2884,1308,1040,1297,2806
1782219240.3658,3.6126,1,lf,0.0986,0.0986,-0.1100,0,0.3318,0.3322,-0.1103,-0.0013,0.0004,0.0020,CLIMB,4,1,0,0.0,0.000,0.000,0,-1,0,0.0,0.0,0.0,0.0,0.0,0.0,2037,2781,1318,1912,1298,2788,2050,2901,1310,1039,1278,2804,2036,2776,1312,1912,1316,2794,2052,2884,1308,1040,1297,2806
1782219240.3858,3.6325,1,lf,0.0986,0.0986,-0.1100,0,0.3318,0.3322,-0.1103,-0.0013,0.0005,0.0020,CLIMB,4,1,0,0.0,0.000,0.000,0,-1,0,0.0,0.0,0.0,0.0,0.0,0.0,2037,2781,1318,1912,1298,2788,2050,2901,1310,1039,1278,2804,2036,2776,1312,1912,1316,2794,2052,2884,1308,1040,1297,2806
1782219240.4057,3.6524,1,lf,0.0986,0.0986,-0.1100,0,0.3318,0.3322,-0.1103,-0.0013,0.0005,0.0020,CLIMB,4,1,0,0.0,0.000,0.000,0,-1,0,0.0,0.0,0.0,0.0,0.0,0.0,2037,2781,1318,1912,1298,2788,2050,2901,1310,1039,1278,2804,2036,2776,1312,1912,1316,2793,2052,2884,1309,1040,1297,2806
1782219240.4256,3.6723,1,lf,0.0986,0.0986,-0.1100,0,0.3318,0.3322,-0.1103,-0.0014,0.0005,0.0020,CLIMB,4,1,0,0.0,0.000,0.000,0,-1,0,0.0,0.0,0.0,0.0,0.0,0.0,2037,2781,1318,1912,1298,2788,2050,2901,1310,1039,1278,2804,2036,2776,1312,1912,1316,2793,2052,2884,1309,1040,1297,2806
1782219240.4457,3.6924,1,lf,0.0986,0.0986,-0.1100,0,0.3318,0.3322,-0.1103,-0.0014,0.0006,0.0020,CLIMB,4,1,0,0.0,0.000,0.000,0,-1,0,0.0,0.0,0.0,0.0,0.0,0.0,2037,2781,1318,1912,1298,2788,2050,2901,1310,1039,1278,2804,2035,2776,1312,1912,1316,2793,2052,2884,1308,1040,1297,2806
1782219240.4655,3.7122,1,lf,0.0986,0.0986,-0.1100,0,0.3315,0.3325,-0.1103,-0.0013,0.0004,0.0020,CLIMB,4,1,0,0.0,0.000,0.000,0,-1,0,0.0,0.0,0.0,0.0,0.0,0.0,2037,2781,1318,1912,1298,2788,2050,2901,1310,1039,1278,2804,2035,2776,1312,1912,1316,2793,2052,2884,1308,1040,1297,2806
1782219240.4856,3.7323,1,lf,0.0986,0.0986,-0.1100,0,0.3315,0.3325,-0.1103,-0.0012,0.0003,0.0020,CLIMB,4,1,0,0.0,0.000,0.000,0,-1,0,0.0,0.0,0.0,0.0,0.0,0.0,2037,2781,1318,1912,1298,2788,2050,2901,1310,1039,1278,2804,2035,2776,1312,1912,1316,2793,2052,2884,1308,1040,1297,2806
1782219240.5058,3.7525,1,lf,0.0986,0.0986,-0.1100,0,0.3315,0.3325,-0.1103,-0.0012,0.0003,0.0020,CLIMB,4,1,0,0.0,0.000,0.000,0,-1,0,0.0,0.0,0.0,0.0,0.0,0.0,2037,2781,1318,1912,1298,2788,2050,2901,1310,1039,1278,2804,2036,2777,1312,1912,1316,2794,2052,2884,1308,1040,1297,2806
1782219240.5258,3.7726,1,lf,0.0986,0.0986,-0.1100,0,0.3319,0.3324,-0.1101,-0.0014,0.0004,0.0019,CLIMB,4,1,0,0.0,0.000,0.000,0,-1,0,0.0,0.0,0.0,0.0,0.0,0.0,2037,2781,1318,1912,1298,2788,2050,2901,1310,1039,1278,2804,2036,2777,1312,1912,1316,2794,2052,2884,1308,1040,1297,2806
1782219240.5458,3.7926,1,lf,0.0986,0.0986,-0.1100,0,0.3319,0.3324,-0.1101,-0.0014,0.0004,0.0018,CLIMB,4,1,0,0.0,0.000,0.000,0,-1,0,0.0,0.0,0.0,0.0,0.0,0.0,2037,2781,1318,1912,1298,2788,2050,2901,1310,1039,1278,2804,2035,2776,1313,1912,1316,2793,2052,2884,1308,1040,1297,2806
1782219240.5660,3.8127,1,lf,0.0986,0.0986,-0.1100,0,0.3316,0.3325,-0.1103,-0.0013,0.0003,0.0019,CLIMB,4,1,0,0.0,0.000,0.000,0,-1,0,0.0,0.0,0.0,0.0,0.0,0.0,2037,2781,1318,1912,1298,2788,2050,2901,1310,1039,1278,2804,2035,2776,1313,1912,1316,2793,2052,2884,1308,1040,1297,2806
1782219240.5857,3.8324,1,lf,0.0986,0.0986,-0.1100,0,0.3316,0.3325,-0.1103,-0.0013,0.0003,0.0020,CLIMB,5,1,0,0.0,0.000,0.000,0,-1,0,0.0,0.0,0.0,0.0,0.0,0.0,2037,2781,1318,1912,1298,2788,2050,2901,1310,1039,1278,2804,2035,2776,1313,1912,1316,2793,2052,2884,1308,1040,1297,2806
1782219240.6058,3.8525,1,lf,0.0986,0.0986,-0.1100,0,0.3316,0.3325,-0.1103,-0.0013,0.0003,0.0020,CLIMB,5,1,0,0.0,0.000,0.000,0,-1,0,0.0,0.0,0.0,0.0,0.0,0.0,2037,2781,1318,1912,1298,2788,2050,2901,1310,1039,1278,2804,2035,2776,1313,1912,1316,2793,2052,2884,1309,1040,1297,2806
1782219240.6257,3.8725,1,lf,0.0986,0.0986,-0.1097,0,0.3316,0.3325,-0.1103,-0.0013,0.0002,0.0020,CLIMB,5,1,0,0.0,0.000,0.000,0,-1,0,0.0,0.0,0.0,0.0,0.0,0.0,2037,2782,1315,1912,1298,2788,2050,2901,1310,1039,1278,2804,2035,2776,1313,1912,1316,2793,2052,2884,1309,1040,1297,2806
1782219240.6457,3.8925,1,lf,0.0986,0.0986,-0.1091,0,0.3316,0.3325,-0.1103,-0.0013,0.0002,0.0020,CLIMB,5,1,0,0.0,0.000,0.000,0,-1,0,0.0,0.0,0.0,0.0,0.0,0.0,2037,2785,1308,1912,1298,2788,2050,2901,1310,1039,1278,2804,2036,2776,1312,1912,1316,2793,2052,2884,1308,1040,1297,2806
1782219240.6658,3.9125,1,lf,0.0986,0.0986,-0.1081,0,0.3318,0.3322,-0.1103,-0.0013,0.0004,0.0020,CLIMB,5,1,0,0.0,0.000,0.000,0,-1,0,0.0,0.0,0.0,0.0,0.0,0.0,2037,2789,1297,1912,1298,2788,2050,2901,1310,1039,1278,2804,2036,2776,1312,1912,1316,2793,2052,2884,1308,1040,1297,2806
1782219240.6858,3.9325,1,lf,0.0986,0.0986,-0.1068,0,0.3318,0.3322,-0.1103,-0.0014,0.0005,0.0020,CLIMB,5,1,0,0.0,0.000,0.000,0,-1,0,0.0,0.0,0.0,0.0,0.0,0.0,2037,2795,1283,1912,1298,2788,2050,2901,1310,1039,1278,2804,2036,2776,1312,1912,1316,2793,2052,2884,1308,1040,1297,2806
1782219240.7058,3.9525,1,lf,0.0986,0.0986,-0.1054,0,0.3318,0.3322,-0.1103,-0.0014,0.0005,0.0020,CLIMB,5,1,0,0.0,0.000,0.000,0,-1,0,0.0,0.0,0.0,0.0,0.0,0.0,2037,2802,1267,1912,1298,2788,2050,2901,1310,1039,1278,2804,2035,2776,1312,1912,1316,2793,2052,2884,1308,1040,1297,2806
1782219240.7258,3.9725,1,lf,0.0986,0.0986,-0.1039,0,0.3315,0.3325,-0.1103,-0.0013,0.0004,0.0020,CLIMB,5,1,0,0.0,0.000,0.000,0,-1,0,0.0,0.0,0.0,0.0,0.0,0.0,2037,2809,1251,1912,1298,2788,2050,2901,1310,1039,1278,2804,2035,2776,1312,1912,1316,2793,2052,2884,1308,1040,1297,2806
1782219240.7457,3.9925,1,lf,0.0986,0.0986,-0.1025,0,0.3315,0.3325,-0.1103,-0.0012,0.0004,0.0020,CLIMB,5,1,0,0.0,0.000,0.000,0,-1,0,0.0,0.0,0.0,0.0,0.0,0.0,2037,2815,1237,1912,1298,2788,2050,2901,1310,1039,1278,2804,2035,2777,1312,1912,1316,2793,2052,2884,1308,1040,1297,2806
1782219240.7657,4.0125,1,lf,0.0986,0.0986,-0.1014,0,0.3316,0.3326,-0.1101,-0.0013,0.0003,0.0019,CLIMB,5,1,0,0.0,0.000,0.000,0,-1,0,0.0,0.0,0.0,0.0,0.0,0.0,2037,2820,1225,1912,1298,2788,2050,2901,1310,1039,1278,2804,2035,2777,1312,1912,1316,2793,2052,2884,1308,1040,1297,2806
1782219240.7858,4.0325,1,lf,0.0986,0.0986,-0.1006,0,0.3316,0.3326,-0.1101,-0.0013,0.0002,0.0018,CLIMB,5,1,0,0.0,0.000,0.000,0,-1,0,0.0,0.0,0.0,0.0,0.0,0.0,2037,2823,1217,1912,1298,2788,2050,2901,1310,1039,1278,2804,2035,2777,1312,1912,1316,2793,2052,2884,1308,1040,1297,2806
1782219240.8058,4.0525,1,lf,0.0986,0.0986,-0.1001,0,0.3316,0.3326,-0.1101,-0.0013,0.0002,0.0018,CLIMB,5,1,0,0.0,0.000,0.000,0,-1,0,0.0,0.0,0.0,0.0,0.0,0.0,2037,2825,1213,1912,1298,2788,2050,2901,1310,1039,1278,2804,2035,2776,1312,1912,1316,2793,2052,2884,1308,1040,1297,2806
1782219240.8258,4.0725,1,lf,0.0986,0.0986,-0.1000,0,0.3315,0.3325,-0.1103,-0.0013,0.0002,0.0019,CLIMB,5,1,0,0.0,0.000,0.000,0,-1,0,0.0,0.0,0.0,0.0,0.0,0.0,2037,2826,1212,1912,1298,2788,2050,2901,1310,1039,1278,2804,2035,2776,1312,1912,1316,2793,2052,2884,1308,1040,1297,2806
1782219240.8458,4.0925,1,lf,0.0986,0.0986,-0.1000,0,0.3315,0.3325,-0.1103,-0.0012,0.0003,0.0020,CLIMB,5,1,0,97.0,0.000,0.000,0,-1,0,-1.0,-50.0,97.0,0.0,0.0,0.0,2037,2826,1212,1912,1298,2788,2050,2901,1310,1039,1278,2804,2036,2776,1309,1912,1316,2793,2052,2884,1308,1040,1297,2806
1782219240.8657,4.1125,1,lf,0.0986,0.0986,-0.1000,0,0.3316,0.3321,-0.1103,-0.0012,0.0005,0.0020,CLIMB,5,1,0,90.0,0.000,0.020,0,-1,0,-2.0,-49.0,90.0,0.0,0.0,0.0,2037,2826,1212,1912,1298,2788,2050,2901,1310,1039,1278,2804,2036,2776,1309,1912,1316,2793,2052,2884,1308,1040,1297,2806
1782219240.8858,4.1326,1,lf,0.0986,0.0986,-0.1000,0,0.3316,0.3321,-0.1103,-0.0012,0.0006,0.0020,CLIMB,5,1,0,90.0,0.000,0.040,0,-1,0,-2.0,-49.0,90.0,0.0,0.0,0.0,2037,2826,1212,1912,1298,2788,2050,2901,1310,1039,1278,2804,2036,2776,1309,1912,1316,2793,2052,2884,1308,1040,1297,2806
1782219240.9058,4.1525,1,lf,0.0986,0.0986,-0.1000,0,0.3316,0.3321,-0.1103,-0.0012,0.0007,0.0020,CLIMB,5,1,0,81.0,0.000,0.060,0,-1,0,-2.0,-49.0,81.0,0.0,0.0,0.0,2037,2826,1212,1912,1298,2788,2050,2901,1310,1039,1278,2804,2035,2777,1293,1912,1316,2793,2052,2884,1308,1040,1297,2806
1782219240.9258,4.1725,1,lf,0.0986,0.0986,-0.1000,0,0.3307,0.3317,-0.1100,-0.0007,0.0008,0.0019,CLIMB,5,1,0,81.0,0.000,0.080,0,-1,0,-2.0,-49.0,81.0,0.0,0.0,0.0,2037,2826,1212,1912,1298,2788,2050,2901,1310,1039,1278,2804,2035,2777,1293,1912,1316,2793,2052,2884,1308,1040,1297,2806
1782219240.9458,4.1925,1,lf,0.0986,0.0986,-0.1000,0,0.3307,0.3317,-0.1100,-0.0005,0.0009,0.0018,CLIMB,5,1,0,69.0,0.000,0.100,0,-1,0,-2.0,-46.0,69.0,0.0,0.0,0.0,2037,2826,1212,1912,1298,2788,2050,2901,1310,1039,1278,2804,2035,2780,1281,1912,1316,2793,2052,2884,1309,1040,1297,2806
1782219240.9657,4.2124,1,lf,0.0986,0.0986,-0.1000,0,0.3305,0.3315,-0.1094,-0.0002,0.0010,0.0014,CLIMB,5,1,0,55.0,0.000,0.120,0,-1,0,-2.0,-42.0,55.0,0.0,0.0,0.0,2037,2826,1212,1912,1298,2788,2050,2901,1310,1039,1278,2804,2035,2780,1281,1912,1316,2793,2052,2884,1309,1040,1297,2806
1782219240.9857,4.2324,1,lf,0.0986,0.0986,-0.1000,0,0.3305,0.3315,-0.1094,-0.0001,0.0011,0.0012,CLIMB,5,1,0,55.0,0.000,0.140,0,-1,0,-2.0,-42.0,55.0,0.0,0.0,0.0,2037,2826,1212,1912,1298,2788,2050,2901,1310,1039,1278,2804,2035,2780,1281,1912,1316,2793,2052,2884,1309,1040,1297,2806
1782219241.0058,4.2525,1,lf,0.0986,0.0986,-0.1000,0,0.3305,0.3315,-0.1094,0.0000,0.0011,0.0011,CLIMB,5,1,0,42.0,0.000,0.160,0,-1,0,-1.0,-39.0,42.0,0.0,0.0,0.0,2037,2826,1212,1912,1298,2788,2050,2901,1310,1039,1278,2804,2036,2787,1254,1912,1316,2793,2052,2884,1309,1040,1297,2806
1782219241.0258,4.2725,1,lf,0.0986,0.0986,-0.1000,0,0.3303,0.3307,-0.1078,0.0002,0.0014,0.0002,CLIMB,5,1,0,34.0,0.000,0.180,0,-1,0,-1.0,-34.0,30.0,0.0,0.0,0.0,2037,2826,1212,1912,1298,2788,2050,2901,1310,1039,1278,2804,2036,2787,1254,1912,1316,2793,2052,2884,1309,1040,1297,2806
1782219241.0459,4.2926,1,lf,0.0986,0.0986,-0.1000,0,0.3303,0.3307,-0.1078,0.0004,0.0016,-0.0002,CLIMB,5,1,0,34.0,0.000,0.200,0,-1,0,-1.0,-34.0,30.0,0.0,0.0,0.0,2037,2826,1212,1912,1298,2788,2050,2901,1310,1039,1278,2804,2036,2792,1242,1912,1316,2793,2052,2884,1309,1040,1297,2806
1782219241.0657,4.3124,1,lf,0.0986,0.0986,-0.1000,0,0.3303,0.3308,-0.1066,0.0004,0.0017,-0.0010,CLIMB,5,1,0,28.0,0.000,0.220,0,-1,0,-2.0,-28.0,20.0,0.0,0.0,0.0,2037,2826,1212,1912,1298,2788,2050,2901,1310,1039,1278,2804,2036,2792,1242,1912,1316,2793,2052,2884,1309,1040,1297,2806
1782219241.0857,4.3324,1,lf,0.0986,0.0986,-0.1000,0,0.3303,0.3308,-0.1066,0.0004,0.0017,-0.0014,CLIMB,5,1,0,28.0,0.000,0.240,0,-1,0,-2.0,-28.0,20.0,0.0,0.0,0.0,2037,2826,1212,1912,1298,2788,2050,2901,1310,1039,1278,2804,2036,2792,1242,1912,1316,2793,2052,2884,1309,1040,1297,2806
1782219241.1058,4.3525,1,lf,0.0986,0.0986,-0.1000,0,0.3303,0.3308,-0.1066,0.0005,0.0017,-0.0016,CLIMB,5,1,0,24.0,0.000,0.260,0,-1,0,-2.0,-24.0,13.0,0.0,0.0,0.0,2037,2826,1212,1912,1298,2788,2050,2901,1310,1039,1278,2804,2035,2802,1225,1912,1316,2793,2052,2884,1309,1040,1297,2806
1782219241.1257,4.3724,1,lf,0.0986,0.0986,-0.1000,0,0.3304,0.3313,-0.1044,0.0003,0.0014,-0.0029,CLIMB,5,1,0,21.0,0.000,0.280,0,-1,0,-2.0,-21.0,6.0,0.0,0.0,0.0,2037,2826,1212,1912,1298,2788,2050,2901,1310,1039,1278,2804,2035,2802,1225,1912,1316,2793,2052,2884,1309,1040,1297,2806
1782219241.1458,4.3925,1,lf,0.0986,0.0986,-0.1000,0,0.3304,0.3313,-0.1044,0.0003,0.0013,-0.0034,CLIMB,5,1,0,21.0,0.000,0.300,0,-1,0,-2.0,-21.0,6.0,0.0,0.0,0.0,2037,2826,1212,1912,1298,2788,2050,2901,1310,1039,1278,2804,2035,2809,1213,1912,1316,2793,2052,2884,1308,1040,1297,2806
1782219241.1658,4.4125,1,lf,0.0986,0.0986,-0.1000,0,0.3306,0.3315,-0.1029,0.0001,0.0011,-0.0046,CLIMB,5,1,0,17.0,0.000,0.320,0,-1,0,-2.0,-17.0,1.0,0.0,0.0,0.0,2037,2826,1212,1912,1298,2788,2050,2901,1310,1039,1278,2804,2035,2809,1213,1912,1316,2793,2052,2884,1308,1040,1297,2806
1782219241.1858,4.4325,1,lf,0.0986,0.0986,-0.1000,0,0.3306,0.3315,-0.1029,0.0000,0.0010,-0.0051,CLIMB,5,1,0,15.0,0.000,0.340,0,-1,0,-2.0,-15.0,-1.0,0.0,0.0,0.0,2037,2826,1212,1912,1298,2788,2050,2901,1310,1039,1278,2804,2035,2809,1213,1912,1316,2793,2052,2884,1308,1040,1297,2806
1782219241.2057,4.4524,1,lf,0.0986,0.0986,-0.1000,0,0.3306,0.3315,-0.1029,-0.0000,0.0010,-0.0054,CLIMB,5,1,0,15.0,0.000,0.360,0,-1,0,-2.0,-15.0,-1.0,0.0,0.0,0.0,2037,2826,1212,1912,1298,2788,2050,2901,1310,1039,1278,2804,2035,2811,1211,1912,1316,2793,2052,2884,1309,1040,1297,2806
1782219241.2257,4.4724,1,lf,0.0986,0.0986,-0.1000,0,0.3307,0.3317,-0.1024,-0.0001,0.0009,-0.0057,CLIMB,5,1,0,15.0,0.000,0.380,0,-1,0,-2.0,-15.0,-1.0,0.0,0.0,0.0,2037,2826,1212,1912,1298,2788,2050,2901,1310,1039,1278,2804,2035,2811,1211,1912,1316,2793,2052,2884,1309,1040,1297,2806
1782219241.2457,4.4924,1,lf,0.0986,0.0986,-0.1000,0,0.3307,0.3317,-0.1024,-0.0002,0.0009,-0.0059,CLIMB,5,1,0,15.0,0.000,0.400,0,-1,0,-2.0,-15.0,-1.0,0.0,0.0,0.0,2037,2826,1212,1912,1298,2788,2050,2901,1310,1039,1278,2804,2036,2812,1211,1912,1316,2793,2052,2884,1309,1040,1297,2806
1782219241.2657,4.5125,1,lf,0.0986,0.0986,-0.1000,0,0.3311,0.3315,-0.1022,-0.0004,0.0010,-0.0061,CLIMB,5,1,0,14.0,0.000,0.420,0,-1,0,-1.0,-14.0,-1.0,0.0,0.0,0.0,2037,2826,1212,1912,1298,2788,2050,2901,1310,1039,1278,2804,2036,2812,1211,1912,1316,2793,2052,2884,1309,1040,1297,2806
1782219241.2857,4.5324,1,lf,0.0986,0.0986,-0.1000,0,0.3311,0.3315,-0.1022,-0.0005,0.0010,-0.0061,CLIMB,5,1,0,13.0,0.000,0.440,0,-1,0,-1.0,-13.0,-1.0,0.0,0.0,0.0,2037,2826,1212,1912,1298,2788,2050,2901,1310,1039,1278,2804,2036,2812,1211,1912,1316,2793,2052,2884,1309,1040,1297,2806
1782219241.3057,4.5524,1,lf,0.0986,0.0986,-0.1000,0,0.3311,0.3315,-0.1022,-0.0005,0.0010,-0.0062,CLIMB,5,1,0,13.0,0.000,0.460,0,-1,0,-1.0,-13.0,-1.0,0.0,0.0,0.0,2037,2826,1212,1912,1298,2788,2050,2901,1310,1039,1278,2804,2036,2813,1211,1912,1316,2794,2052,2884,1309,1040,1297,2806
1782219241.3257,4.5724,1,lf,0.0986,0.0986,-0.1000,0,0.3312,0.3316,-0.1020,-0.0006,0.0010,-0.0063,CLIMB,5,1,0,14.0,0.000,0.480,0,-1,0,-1.0,-14.0,-1.0,0.0,0.0,0.0,2037,2826,1212,1912,1298,2788,2050,2901,1310,1039,1278,2804,2036,2813,1211,1912,1316,2794,2052,2884,1309,1040,1297,2806
1782219241.3457,4.5925,1,lf,0.0986,0.0986,-0.1000,0,0.3312,0.3316,-0.1020,-0.0007,0.0010,-0.0063,CLIMB,5,1,0,13.0,0.000,0.500,0,-1,0,-2.0,-13.0,-1.0,0.0,0.0,0.0,2037,2826,1212,1912,1298,2788,2050,2901,1310,1039,1278,2804,2035,2813,1211,1912,1316,2793,2052,2884,1309,1040,1297,2806
1782219241.3657,4.6125,1,lf,0.0986,0.0986,-0.1000,0,0.3309,0.3319,-0.1020,-0.0006,0.0008,-0.0063,CLIMB,5,1,0,13.0,0.000,0.520,0,-1,0,-2.0,-13.0,-1.0,0.0,0.0,0.0,2037,2826,1212,1912,1298,2788,2050,2901,1310,1039,1278,2804,2035,2813,1211,1912,1316,2793,2052,2884,1309,1040,1297,2806
1782219241.3857,4.6324,1,lf,0.0986,0.0986,-0.1000,0,0.3309,0.3319,-0.1020,-0.0006,0.0007,-0.0063,CLIMB,5,1,0,14.0,0.000,0.540,0,-1,0,-1.0,-14.0,-1.0,0.0,0.0,0.0,2037,2826,1212,1912,1298,2788,2050,2901,1310,1039,1278,2804,2035,2813,1211,1912,1316,2793,2052,2884,1309,1040,1297,2806
1782219241.4056,4.6523,1,lf,0.0986,0.0986,-0.1000,0,0.3309,0.3319,-0.1020,-0.0006,0.0007,-0.0063,CLIMB,5,1,0,14.0,0.000,0.560,0,-1,0,-1.0,-14.0,-1.0,0.0,0.0,0.0,2037,2826,1212,1912,1298,2788,2050,2901,1310,1039,1278,2804,2036,2812,1211,1912,1316,2793,2052,2884,1309,1040,1297,2806
1782219241.4256,4.6724,1,lf,0.0986,0.0986,-0.1000,0,0.3311,0.3315,-0.1022,-0.0006,0.0009,-0.0061,CLIMB,5,1,0,13.0,0.000,0.580,0,-1,0,-1.0,-13.0,-1.0,0.0,0.0,0.0,2037,2826,1212,1912,1298,2788,2050,2901,1310,1039,1278,2804,2036,2812,1211,1912,1316,2793,2052,2884,1309,1040,1297,2806
1782219241.4457,4.6924,1,lf,0.0986,0.0986,-0.1000,0,0.3311,0.3315,-0.1022,-0.0006,0.0010,-0.0060,CLIMB,5,1,0,13.0,0.000,0.600,0,-1,0,-1.0,-13.0,-1.0,0.0,0.0,0.0,2037,2826,1212,1912,1298,2788,2050,2901,1310,1039,1278,2804,2036,2813,1211,1912,1316,2793,2052,2884,1308,1040,1297,2806
1782219241.4656,4.7124,1,lf,0.0986,0.0986,-0.1000,0,0.3312,0.3316,-0.1020,-0.0006,0.0009,-0.0061,CLIMB,5,1,0,13.0,0.000,0.620,0,-1,0,-1.0,-13.0,-1.0,0.0,0.0,0.0,2037,2826,1212,1912,1298,2788,2050,2901,1310,1039,1278,2804,2036,2813,1211,1912,1316,2793,2052,2884,1308,1040,1297,2806
1782219241.4857,4.7324,1,lf,0.0986,0.0986,-0.1000,0,0.3312,0.3316,-0.1020,-0.0007,0.0009,-0.0061,CLIMB,5,1,0,13.0,0.000,0.640,0,-1,0,-2.0,-13.0,-1.0,0.0,0.0,0.0,2037,2826,1212,1912,1298,2788,2050,2901,1310,1039,1278,2804,2036,2813,1211,1912,1316,2793,2052,2884,1308,1040,1297,2806
1782219241.5057,4.7524,1,lf,0.0986,0.0986,-0.1000,0,0.3312,0.3316,-0.1020,-0.0007,0.0009,-0.0061,CLIMB,5,1,0,14.0,0.000,0.660,0,-1,0,-2.0,-14.0,-1.0,0.0,0.0,0.0,2037,2826,1212,1912,1298,2788,2050,2901,1310,1039,1278,2804,2035,2813,1211,1912,1316,2793,2052,2884,1308,1040,1297,2806
1782219241.5257,4.7724,1,lf,0.0986,0.0986,-0.1000,0,0.3309,0.3319,-0.1020,-0.0006,0.0008,-0.0061,CLIMB,5,1,0,14.0,0.000,0.680,0,-1,0,-2.0,-14.0,-1.0,0.0,0.0,0.0,2037,2826,1212,1912,1298,2788,2050,2901,1310,1039,1278,2804,2035,2813,1211,1912,1316,2793,2052,2884,1308,1040,1297,2806
1782219241.5456,4.7924,1,lf,0.0986,0.0986,-0.1000,0,0.3309,0.3319,-0.1020,-0.0005,0.0007,-0.0061,CLIMB,5,1,0,14.0,0.000,0.700,0,-1,0,-2.0,-14.0,-1.0,0.0,0.0,0.0,2037,2826,1212,1912,1298,2788,2050,2901,1310,1039,1278,2804,2035,2812,1211,1912,1316,2793,2052,2884,1308,1040,1297,2806
1782219241.5657,4.8124,1,lf,0.0986,0.0986,-0.1000,0,0.3308,0.3318,-0.1022,-0.0004,0.0007,-0.0060,CLIMB,5,1,0,14.0,0.000,0.720,0,-1,0,-2.0,-14.0,-1.0,0.0,0.0,0.0,2037,2826,1212,1912,1298,2788,2050,2901,1310,1039,1278,2804,2035,2812,1211,1912,1316,2793,2052,2884,1308,1040,1297,2806
1782219241.5858,4.8326,1,lf,0.0986,0.0986,-0.1000,0,0.3308,0.3318,-0.1022,-0.0004,0.0007,-0.0059,CLIMB,5,1,0,13.0,0.000,0.740,0,-1,0,-1.0,-13.0,-2.0,0.0,0.0,0.0,2037,2826,1212,1912,1298,2788,2050,2901,1310,1039,1278,2804,2035,2812,1211,1912,1316,2793,2052,2884,1308,1040,1297,2806
1782219241.6058,4.8525,1,lf,0.0986,0.0986,-0.1000,0,0.3308,0.3318,-0.1022,-0.0004,0.0007,-0.0059,CLIMB,5,1,0,13.0,0.000,0.760,0,-1,0,-1.0,-13.0,-1.0,0.0,0.0,0.0,2037,2826,1212,1912,1298,2788,2050,2901,1310,1039,1278,2804,2036,2813,1211,1912,1316,2793,2052,2884,1308,1040,1297,2806
1782219241.6258,4.8725,1,lf,0.0986,0.0986,-0.1000,0,0.3312,0.3316,-0.1020,-0.0005,0.0008,-0.0060,CLIMB,5,1,0,13.0,0.000,0.780,0,-1,0,-1.0,-13.0,-1.0,0.0,0.0,0.0,2037,2826,1212,1912,1298,2788,2050,2901,1310,1039,1278,2804,2036,2813,1211,1912,1316,2793,2052,2884,1308,1040,1297,2806
1782219241.6457,4.8925,1,lf,0.0986,0.0986,-0.1000,0,0.3312,0.3316,-0.1020,-0.0006,0.0009,-0.0060,CLIMB,5,1,0,13.0,0.000,0.800,0,-1,0,-1.0,-13.0,-1.0,0.0,0.0,0.0,2037,2826,1212,1912,1298,2788,2050,2901,1310,1039,1278,2804,2036,2813,1211,1912,1316,2793,2052,2884,1308,1040,1297,2806
1782219241.6658,4.9125,1,lf,0.0986,0.0986,-0.1000,0,0.3312,0.3316,-0.1020,-0.0007,0.0009,-0.0060,CLIMB,5,1,0,13.0,0.000,0.820,0,-1,0,-1.0,-13.0,-1.0,0.0,0.0,0.0,2037,2826,1212,1912,1298,2788,2050,2901,1310,1039,1278,2804,2036,2813,1211,1912,1316,2793,2052,2884,1308,1040,1297,2806
1782219241.6858,4.9326,1,lf,0.0986,0.0986,-0.1000,0,0.3312,0.3316,-0.1020,-0.0007,0.0009,-0.0060,CLIMB,5,1,0,13.0,0.000,0.840,0,-1,0,-1.0,-13.0,-1.0,0.0,0.0,0.0,2037,2826,1212,1912,1298,2788,2050,2901,1310,1039,1278,2804,2036,2813,1211,1912,1316,2793,2052,2884,1308,1040,1297,2806
1782219241.7057,4.9525,1,lf,0.0986,0.0986,-0.1000,0,0.3312,0.3316,-0.1020,-0.0007,0.0010,-0.0060,CLIMB,5,1,0,14.0,0.000,0.860,0,-1,0,-2.0,-14.0,-1.0,0.0,0.0,0.0,2037,2826,1212,1912,1298,2788,2050,2901,1310,1039,1278,2804,2035,2812,1211,1912,1316,2793,2052,2884,1309,1040,1297,2806
1782219241.7257,4.9725,1,lf,0.0986,0.0986,-0.1000,0,0.3308,0.3318,-0.1022,-0.0005,0.0008,-0.0059,CLIMB,5,1,0,14.0,0.000,0.880,0,-1,0,-2.0,-14.0,-1.0,0.0,0.0,0.0,2037,2826,1212,1912,1298,2788,2050,2901,1310,1039,1278,2804,2035,2812,1211,1912,1316,2793,2052,2884,1309,1040,1297,2806
1782219241.7458,4.9925,1,lf,0.0986,0.0986,-0.1000,0,0.3308,0.3318,-0.1022,-0.0004,0.0008,-0.0059,CLIMB,5,1,0,14.0,0.000,0.900,0,-1,0,-2.0,-14.0,-1.0,0.0,0.0,0.0,2037,2826,1212,1912,1298,2788,2050,2901,1310,1039,1278,2804,2035,2812,1211,1912,1316,2793,2052,2884,1308,1040,1297,2806
1782219241.7658,5.0125,1,lf,0.0986,0.0986,-0.1000,0,0.3308,0.3318,-0.1022,-0.0004,0.0008,-0.0058,CLIMB,5,1,0,14.0,0.000,0.920,0,-1,0,-2.0,-14.0,-1.0,0.0,0.0,0.0,2037,2826,1212,1912,1298,2788,2050,2901,1310,1039,1278,2804,2035,2812,1211,1912,1316,2793,2052,2884,1308,1040,1297,2806
1782219241.7858,5.0325,1,lf,0.0986,0.0986,-0.1000,0,0.3308,0.3318,-0.1022,-0.0004,0.0007,-0.0058,CLIMB,5,1,0,14.0,0.000,0.940,0,-1,0,-2.0,-14.0,-1.0,0.0,0.0,0.0,2037,2826,1212,1912,1298,2788,2050,2901,1310,1039,1278,2804,2035,2812,1211,1912,1316,2793,2052,2884,1308,1040,1297,2806
1782219241.8057,5.0525,1,lf,0.0986,0.0986,-0.1000,0,0.3308,0.3318,-0.1022,-0.0004,0.0007,-0.0058,CLIMB,5,1,0,14.0,0.000,0.960,0,-1,0,-2.0,-14.0,-2.0,0.0,0.0,0.0,2037,2826,1212,1912,1298,2788,2050,2901,1310,1039,1278,2804,2035,2812,1210,1912,1316,2793,2052,2884,1308,1040,1297,2806
1782219241.8258,5.0726,1,lf,0.0986,0.0986,-0.1000,0,0.3308,0.3317,-0.1022,-0.0003,0.0007,-0.0058,CLIMB,5,1,0,13.0,0.000,0.980,0,-1,0,-2.0,-13.0,-1.0,0.0,0.0,0.0,2037,2826,1212,1912,1298,2788,2050,2901,1310,1039,1278,2804,2035,2812,1210,1912,1316,2793,2052,2884,1308,1040,1297,2806
1782219241.8457,5.0924,1,lf,0.0986,0.0986,-0.1000,0,0.3308,0.3317,-0.1022,-0.0003,0.0008,-0.0058,CLIMB,5,1,0,13.0,0.000,1.000,0,-1,0,-2.0,-13.0,-1.0,0.0,0.0,0.0,2037,2826,1212,1912,1298,2788,2050,2901,1310,1039,1278,2804,2035,2813,1211,1912,1316,2794,2052,2884,1308,1040,1297,2806
1782219241.8658,5.1125,1,lf,0.0986,0.0986,-0.1000,0,0.3309,0.3319,-0.1020,-0.0004,0.0007,-0.0059,CLIMB,5,1,0,13.0,0.000,1.020,0,-1,0,-1.0,-13.0,-1.0,0.0,0.0,0.0,2037,2826,1212,1912,1298,2788,2050,2901,1310,1039,1278,2804,2035,2813,1211,1912,1316,2794,2052,2884,1308,1040,1297,2806
1782219241.8857,5.1324,1,lf,0.0986,0.0986,-0.1000,0,0.3309,0.3319,-0.1020,-0.0005,0.0007,-0.0060,CLIMB,5,1,0,13.0,0.000,1.040,0,-1,0,-1.0,-13.0,-1.0,0.0,0.0,0.0,2037,2826,1212,1912,1298,2788,2050,2901,1310,1039,1278,2804,2035,2813,1211,1912,1316,2794,2052,2884,1308,1040,1297,2806
1782219241.9057,5.1524,1,lf,0.0986,0.0986,-0.1000,0,0.3309,0.3319,-0.1020,-0.0005,0.0007,-0.0060,CLIMB,5,1,0,14.0,0.000,1.060,0,-1,0,-2.0,-14.0,-1.0,0.0,0.0,0.0,2037,2826,1212,1912,1298,2788,2050,2901,1310,1039,1278,2804,2035,2812,1211,1912,1316,2793,2052,2884,1308,1040,1297,2806
1782219241.9257,5.1724,1,lf,0.0986,0.0986,-0.1000,0,0.3308,0.3318,-0.1022,-0.0004,0.0007,-0.0059,CLIMB,5,1,0,14.0,0.000,1.080,0,-1,0,-1.0,-14.0,-1.0,0.0,0.0,0.0,2037,2826,1212,1912,1298,2788,2050,2901,1310,1039,1278,2804,2035,2812,1211,1912,1316,2793,2052,2884,1308,1040,1297,2806
1782219241.9457,5.1924,1,lf,0.0986,0.0986,-0.1000,0,0.3308,0.3318,-0.1022,-0.0004,0.0007,-0.0058,CLIMB,5,1,0,14.0,0.000,1.100,0,-1,0,-1.0,-14.0,-1.0,0.0,0.0,0.0,2037,2826,1212,1912,1298,2788,2050,2901,1310,1039,1278,2804,2035,2812,1211,1912,1316,2793,2052,2885,1309,1040,1297,2806
1782219241.9657,5.2124,1,lf,0.0986,0.0986,-0.1000,0,0.3308,0.3318,-0.1022,-0.0004,0.0007,-0.0058,CLIMB,5,1,0,14.0,0.000,1.120,0,-1,0,-2.0,-14.0,-1.0,0.0,0.0,0.0,2037,2826,1212,1912,1298,2788,2050,2901,1310,1039,1278,2804,2035,2812,1211,1912,1316,2793,2052,2885,1309,1040,1297,2806
1782219241.9858,5.2326,1,lf,0.0986,0.0986,-0.1000,0,0.3308,0.3318,-0.1022,-0.0004,0.0007,-0.0058,CLIMB,5,1,0,14.0,0.000,1.140,0,-1,0,-1.0,-14.0,-1.0,0.0,0.0,0.0,2037,2826,1212,1912,1298,2788,2050,2901,1310,1039,1278,2804,2035,2812,1211,1912,1316,2793,2052,2885,1309,1040,1297,2806
1782219242.0057,5.2525,1,lf,0.0986,0.0986,-0.1000,0,0.3308,0.3318,-0.1022,-0.0004,0.0007,-0.0058,CLIMB,5,1,0,14.0,0.000,1.160,0,-1,0,-1.0,-14.0,-1.0,0.0,0.0,0.0,2037,2826,1212,1912,1298,2788,2050,2901,1310,1039,1278,2804,2036,2812,1211,1912,1316,2793,2052,2884,1309,1040,1297,2806
1782219242.0258,5.2725,1,lf,0.0986,0.0986,-0.1000,0,0.3311,0.3315,-0.1022,-0.0005,0.0009,-0.0058,CLIMB,5,1,0,14.0,0.000,1.180,0,-1,0,-1.0,-14.0,-1.0,0.0,0.0,0.0,2037,2826,1212,1912,1298,2788,2050,2901,1310,1039,1278,2804,2036,2812,1211,1912,1316,2793,2052,2884,1309,1040,1297,2806
1782219242.0457,5.2924,1,lf,0.0986,0.0986,-0.1000,0,0.3311,0.3315,-0.1022,-0.0005,0.0010,-0.0058,CLIMB,5,1,0,14.0,0.000,1.200,0,-1,0,-1.0,-14.0,-1.0,0.0,0.0,0.0,2037,2826,1212,1912,1298,2788,2050,2901,1310,1039,1278,2804,2036,2813,1211,1912,1316,2793,2052,2884,1308,1040,1297,2806
1782219242.0657,5.3124,1,lf,0.0986,0.0986,-0.1000,0,0.3312,0.3316,-0.1020,-0.0006,0.0010,-0.0059,CLIMB,5,1,0,13.0,0.000,1.220,0,-1,0,-1.0,-13.0,-1.0,0.0,0.0,0.0,2037,2826,1212,1912,1298,2788,2050,2901,1310,1039,1278,2804,2036,2813,1211,1912,1316,2793,2052,2884,1308,1040,1297,2806
1782219242.0857,5.3324,1,lf,0.0986,0.0986,-0.1000,0,0.3312,0.3316,-0.1020,-0.0006,0.0010,-0.0059,CLIMB,5,1,0,14.0,0.000,1.240,0,-1,0,-1.0,-14.0,-1.0,0.0,0.0,0.0,2037,2826,1212,1912,1298,2788,2050,2901,1310,1039,1278,2804,2036,2813,1211,1912,1316,2793,2052,2884,1308,1040,1297,2806
1782219242.1057,5.3524,1,lf,0.0986,0.0986,-0.1000,0,0.3312,0.3316,-0.1020,-0.0007,0.0009,-0.0060,CLIMB,5,1,0,14.0,0.000,1.260,0,-1,0,-1.0,-14.0,-1.0,0.0,0.0,0.0,2037,2826,1212,1912,1298,2788,2050,2901,1310,1039,1278,2804,2036,2812,1211,1912,1315,2793,2052,2884,1308,1040,1297,2806
1782219242.1257,5.3724,1,lf,0.0986,0.0986,-0.1000,0,0.3311,0.3315,-0.1022,-0.0006,0.0010,-0.0059,CLIMB,5,1,0,13.0,0.000,1.280,0,-1,0,-2.0,-13.0,-1.0,0.0,0.0,0.0,2037,2826,1212,1912,1298,2788,2050,2901,1310,1039,1278,2804,2036,2812,1211,1912,1315,2793,2052,2884,1308,1040,1297,2806
1782219242.1457,5.3924,1,lf,0.0986,0.0986,-0.1000,0,0.3311,0.3315,-0.1022,-0.0006,0.0010,-0.0058,CLIMB,5,1,0,14.0,0.000,1.300,0,-1,0,-1.0,-14.0,-2.0,0.0,0.0,0.0,2037,2826,1212,1912,1298,2788,2050,2901,1310,1039,1278,2804,2036,2812,1210,1912,1316,2793,2052,2884,1309,1040,1297,2806
1782219242.1657,5.4124,1,lf,0.0986,0.0986,-0.1000,0,0.3310,0.3315,-0.1022,-0.0005,0.0010,-0.0058,CLIMB,5,1,0,14.0,0.000,1.320,0,-1,0,-1.0,-14.0,-2.0,0.0,0.0,0.0,2037,2826,1212,1912,1298,2788,2050,2901,1310,1039,1278,2804,2036,2812,1210,1912,1316,2793,2052,2884,1309,1040,1297,2806
1782219242.1857,5.4324,1,lf,0.0986,0.0986,-0.1000,0,0.3310,0.3315,-0.1022,-0.0005,0.0010,-0.0058,CLIMB,5,1,0,14.0,0.000,1.340,0,-1,0,-2.0,-14.0,-2.0,0.0,0.0,0.0,2037,2826,1212,1912,1298,2788,2050,2901,1310,1039,1278,2804,2036,2812,1210,1912,1316,2793,2052,2884,1309,1040,1297,2806
1782219242.2057,5.4524,1,lf,0.0986,0.0986,-0.1000,0,0.3310,0.3315,-0.1022,-0.0005,0.0011,-0.0058,CLIMB,5,1,0,14.0,0.000,1.360,0,-1,0,-2.0,-14.0,-2.0,0.0,0.0,0.0,2037,2826,1212,1912,1298,2788,2050,2901,1310,1039,1278,2804,2035,2812,1210,1912,1316,2793,2052,2885,1308,1040,1297,2806
1782219242.2257,5.4724,1,lf,0.0986,0.0986,-0.1000,0,0.3308,0.3317,-0.1022,-0.0004,0.0009,-0.0058,CLIMB,5,1,0,14.0,0.000,1.380,0,-1,0,-1.0,-14.0,-1.0,0.0,0.0,0.0,2037,2826,1212,1912,1298,2788,2050,2901,1310,1039,1278,2804,2035,2812,1210,1912,1316,2793,2052,2885,1308,1040,1297,2806
1782219242.2456,5.4924,1,lf,0.0986,0.0986,-0.1000,0,0.3308,0.3317,-0.1022,-0.0004,0.0008,-0.0058,CLIMB,5,1,0,14.0,0.000,1.400,0,-1,0,-2.0,-14.0,-1.0,0.0,0.0,0.0,2037,2826,1212,1912,1298,2788,2050,2901,1310,1039,1278,2804,2035,2812,1211,1912,1316,2793,2052,2884,1308,1040,1297,2806
1782219242.2656,5.5124,1,lf,0.0986,0.0986,-0.1000,0,0.3308,0.3318,-0.1022,-0.0004,0.0008,-0.0058,CLIMB,5,1,0,14.0,0.000,1.420,0,-1,0,-2.0,-14.0,-1.0,0.0,0.0,0.0,2037,2826,1212,1912,1298,2788,2050,2901,1310,1039,1278,2804,2035,2812,1211,1912,1316,2793,2052,2884,1308,1040,1297,2806
1782219242.2856,5.5323,1,lf,0.0986,0.0986,-0.1000,0,0.3308,0.3318,-0.1022,-0.0004,0.0008,-0.0057,CLIMB,5,1,0,13.0,0.000,1.440,0,-1,0,-1.0,-13.0,-1.0,0.0,0.0,0.0,2037,2826,1212,1912,1298,2788,2050,2901,1310,1039,1278,2804,2035,2812,1211,1912,1316,2793,2052,2884,1308,1040,1297,2806
1782219242.3057,5.5524,1,lf,0.0986,0.0986,-0.1000,0,0.3308,0.3318,-0.1022,-0.0004,0.0007,-0.0058,CLIMB,5,1,0,13.0,0.000,1.460,0,-1,0,-2.0,-13.0,-1.0,0.0,0.0,0.0,2037,2826,1212,1912,1298,2788,2050,2901,1310,1039,1278,2804,2035,2813,1211,1912,1316,2793,2052,2884,1308,1040,1297,2806
1782219242.3257,5.5724,1,lf,0.0986,0.0986,-0.1000,0,0.3309,0.3319,-0.1020,-0.0004,0.0007,-0.0059,CLIMB,5,1,0,13.0,0.000,1.480,0,-1,0,-2.0,-13.0,-1.0,0.0,0.0,0.0,2037,2826,1212,1912,1298,2788,2050,2901,1310,1039,1278,2804,2035,2813,1211,1912,1316,2793,2052,2884,1308,1040,1297,2806
1782219242.3457,5.5924,1,lf,0.0986,0.0986,-0.1000,0,0.3309,0.3319,-0.1020,-0.0005,0.0006,-0.0059,CLIMB,5,1,0,13.0,0.000,1.500,0,-1,0,-1.0,-13.0,-1.0,0.0,0.0,0.0,2037,2826,1212,1912,1298,2788,2050,2901,1310,1039,1278,2804,2036,2813,1211,1912,1316,2793,2052,2884,1309,1040,1297,2806
1782219242.3657,5.6124,1,lf,0.0986,0.0986,-0.1000,0,0.3312,0.3316,-0.1020,-0.0006,0.0008,-0.0059,CLIMB,5,1,0,13.0,0.000,1.520,0,-1,0,-1.0,-13.0,-1.0,0.0,0.0,0.0,2037,2826,1212,1912,1298,2788,2050,2901,1310,1039,1278,2804,2036,2813,1211,1912,1316,2793,2052,2884,1309,1040,1297,2806
1782219242.3857,5.6324,1,lf,0.0986,0.0986,-0.1000,0,0.3312,0.3316,-0.1020,-0.0006,0.0008,-0.0059,CLIMB,5,1,0,13.0,0.000,1.540,0,-1,0,-2.0,-13.0,-1.0,0.0,0.0,0.0,2037,2826,1212,1912,1298,2788,2050,2901,1310,1039,1278,2804,2036,2813,1211,1912,1316,2793,2052,2884,1309,1040,1297,2806
1782219242.4056,5.6524,1,lf,0.0986,0.0986,-0.1000,0,0.3312,0.3316,-0.1020,-0.0007,0.0009,-0.0060,CLIMB,5,1,0,14.0,0.000,1.560,0,-1,0,-1.0,-14.0,-1.0,0.0,0.0,0.0,2037,2826,1212,1912,1298,2788,2050,2901,1310,1039,1278,2804,2036,2812,1211,1912,1316,2793,2052,2884,1309,1040,1297,2806
1782219242.4256,5.6723,1,lf,0.0986,0.0986,-0.1000,0,0.3311,0.3315,-0.1022,-0.0006,0.0009,-0.0059,CLIMB,5,1,0,14.0,0.000,1.580,0,-1,0,-1.0,-14.0,-1.0,0.0,0.0,0.0,2037,2826,1212,1912,1298,2788,2050,2901,1310,1039,1278,2804,2036,2812,1211,1912,1316,2793,2052,2884,1309,1040,1297,2806
1782219242.4456,5.6924,1,lf,0.0986,0.0986,-0.1000,0,0.3311,0.3315,-0.1022,-0.0006,0.0010,-0.0058,CLIMB,5,1,0,14.0,0.000,1.600,0,-1,0,-1.0,-14.0,-2.0,0.0,0.0,0.0,2037,2826,1212,1912,1298,2788,2050,2901,1310,1039,1278,2804,2036,2812,1210,1912,1316,2793,2052,2884,1308,1040,1297,2806
1782219242.4657,5.7124,1,lf,0.0986,0.0986,-0.1000,0,0.3310,0.3315,-0.1022,-0.0005,0.0010,-0.0058,CLIMB,5,1,0,14.0,0.000,1.620,0,-1,0,-1.0,-14.0,-1.0,0.0,0.0,0.0,2037,2826,1212,1912,1298,2788,2050,2901,1310,1039,1278,2804,2036,2812,1210,1912,1316,2793,2052,2884,1308,1040,1297,2806
1782219242.4856,5.7324,1,lf,0.0986,0.0986,-0.1000,0,0.3310,0.3315,-0.1022,-0.0005,0.0010,-0.0058,CLIMB,5,1,0,14.0,0.000,1.640,0,-1,0,-1.0,-14.0,-1.0,0.0,0.0,0.0,2037,2826,1212,1912,1298,2788,2050,2901,1310,1039,1278,2804,2036,2812,1210,1912,1316,2793,2052,2884,1308,1040,1297,2806
1782219242.5056,5.7524,1,lf,0.0986,0.0986,-0.1000,0,0.3310,0.3315,-0.1022,-0.0005,0.0010,-0.0058,CLIMB,5,1,0,13.0,0.000,1.660,0,-1,0,-2.0,-13.0,-1.0,0.0,0.0,0.0,2037,2826,1212,1912,1298,2788,2050,2901,1310,1039,1278,2804,2035,2813,1211,1912,1316,2793,2052,2884,1309,1040,1297,2806
1782219242.5257,5.7724,1,lf,0.0986,0.0986,-0.1000,0,0.3309,0.3319,-0.1020,-0.0005,0.0008,-0.0059,CLIMB,5,1,0,13.0,0.000,1.680,0,-1,0,-2.0,-13.0,-1.0,0.0,0.0,0.0,2037,2826,1212,1912,1298,2788,2050,2901,1310,1039,1278,2804,2035,2813,1211,1912,1316,2793,2052,2884,1309,1040,1297,2806
1782219242.5456,5.7924,1,lf,0.0986,0.0986,-0.1000,0,0.3309,0.3319,-0.1020,-0.0005,0.0007,-0.0059,CLIMB,5,1,0,13.0,0.000,1.700,0,-1,0,-2.0,-13.0,-1.0,0.0,0.0,0.0,2037,2826,1212,1912,1298,2788,2050,2901,1310,1039,1278,2804,2035,2813,1211,1912,1316,2793,2052,2884,1308,1040,1297,2806
1782219242.5656,5.8124,1,lf,0.0986,0.0986,-0.1000,0,0.3309,0.3319,-0.1020,-0.0005,0.0007,-0.0059,CLIMB,5,1,0,14.0,0.000,1.720,0,-1,0,-1.0,-14.0,-1.0,0.0,0.0,0.0,2037,2826,1212,1912,1298,2788,2050,2901,1310,1039,1278,2804,2035,2813,1211,1912,1316,2793,2052,2884,1308,1040,1297,2806
1782219242.5857,5.8324,1,lf,0.0986,0.0986,-0.1000,0,0.3309,0.3319,-0.1020,-0.0005,0.0006,-0.0059,CLIMB,5,1,0,14.0,0.000,1.740,0,-1,0,-1.0,-14.0,-1.0,0.0,0.0,0.0,2037,2826,1212,1912,1298,2788,2050,2901,1310,1039,1278,2804,2035,2813,1211,1912,1316,2793,2052,2884,1308,1040,1297,2806
1782219242.6057,5.8525,1,lf,0.0986,0.0986,-0.1000,0,0.3309,0.3319,-0.1020,-0.0005,0.0006,-0.0059,CLIMB,5,1,0,13.0,0.000,1.760,0,-1,0,-1.0,-13.0,-1.0,0.0,0.0,0.0,2037,2826,1212,1912,1298,2788,2050,2901,1310,1039,1278,2804,2036,2813,1211,1912,1316,2793,2052,2885,1308,1040,1297,2806
1782219242.6257,5.8724,1,lf,0.0986,0.0986,-0.1000,0,0.3312,0.3316,-0.1020,-0.0006,0.0008,-0.0060,CLIMB,5,1,0,13.0,0.000,1.780,0,-1,0,-1.0,-13.0,-1.0,0.0,0.0,0.0,2037,2826,1212,1912,1298,2788,2050,2901,1310,1039,1278,2804,2036,2813,1211,1912,1316,2793,2052,2885,1308,1040,1297,2806
1782219242.6457,5.8924,1,lf,0.0986,0.0986,-0.1000,0,0.3312,0.3316,-0.1020,-0.0006,0.0008,-0.0060,CLIMB,5,1,0,13.0,0.000,1.800,0,-1,0,-1.0,-13.0,-1.0,0.0,0.0,0.0,2037,2826,1212,1912,1298,2788,2050,2901,1310,1039,1278,2804,2036,2813,1211,1912,1316,2793,2052,2884,1308,1040,1297,2806
1782219242.6656,5.9124,1,lf,0.0986,0.0986,-0.1000,0,0.3312,0.3316,-0.1020,-0.0007,0.0009,-0.0060,CLIMB,5,1,0,14.0,0.000,1.820,0,-1,0,-1.0,-14.0,-2.0,0.0,0.0,0.0,2037,2826,1212,1912,1298,2788,2050,2901,1310,1039,1278,2804,2036,2813,1211,1912,1316,2793,2052,2884,1308,1040,1297,2806
1782219242.6857,5.9324,1,lf,0.0986,0.0986,-0.1000,0,0.3312,0.3316,-0.1020,-0.0007,0.0009,-0.0060,CLIMB,5,1,0,14.0,0.000,1.840,0,-1,0,-1.0,-14.0,-2.0,0.0,0.0,0.0,2037,2826,1212,1912,1298,2788,2050,2901,1310,1039,1278,2804,2036,2813,1211,1912,1316,2793,2052,2884,1308,1040,1297,2806
1782219242.7057,5.9524,1,lf,0.0986,0.0986,-0.1000,0,0.3312,0.3316,-0.1020,-0.0007,0.0009,-0.0060,CLIMB,5,1,0,14.0,0.000,1.860,0,-1,0,-1.0,-14.0,-1.0,0.0,0.0,0.0,2037,2826,1212,1912,1298,2788,2050,2901,1310,1039,1278,2804,2036,2812,1211,1912,1316,2793,2052,2884,1309,1040,1297,2806
1782219242.7256,5.9724,1,lf,0.0986,0.0986,-0.1000,0,0.3311,0.3315,-0.1022,-0.0006,0.0009,-0.0058,CLIMB,5,1,0,14.0,0.000,1.880,0,-1,0,-2.0,-14.0,-1.0,0.0,0.0,0.0,2037,2826,1212,1912,1298,2788,2050,2901,1310,1039,1278,2804,2036,2812,1211,1912,1316,2793,2052,2884,1309,1040,1297,2806
1782219242.7456,5.9924,1,lf,0.0986,0.0986,-0.1000,0,0.3311,0.3315,-0.1022,-0.0006,0.0010,-0.0058,CLIMB,5,1,0,14.0,0.000,1.900,0,-1,0,-2.0,-14.0,-1.0,0.0,0.0,0.0,2037,2826,1212,1912,1298,2788,2050,2901,1310,1039,1278,2804,2036,2812,1211,1912,1316,2793,2052,2884,1308,1040,1297,2806
1782219242.7657,6.0124,1,lf,0.0986,0.0986,-0.1000,0,0.3311,0.3315,-0.1022,-0.0006,0.0010,-0.0058,CLIMB,5,1,0,14.0,0.000,1.920,0,-1,0,-1.0,-14.0,-1.0,0.0,0.0,0.0,2037,2826,1212,1912,1298,2788,2050,2901,1310,1039,1278,2804,2036,2812,1211,1912,1316,2793,2052,2884,1308,1040,1297,2806
1782219242.7856,6.0324,1,lf,0.0986,0.0986,-0.1000,0,0.3311,0.3315,-0.1022,-0.0006,0.0010,-0.0058,CLIMB,5,1,0,13.0,0.000,1.940,0,-1,0,-2.0,-13.0,-1.0,0.0,0.0,0.0,2037,2826,1212,1912,1298,2788,2050,2901,1310,1039,1278,2804,2036,2812,1211,1912,1316,2793,2052,2884,1308,1040,1297,2806
1782219242.8056,6.0524,1,lf,0.0986,0.0986,-0.1000,0,0.3311,0.3315,-0.1022,-0.0006,0.0010,-0.0057,CLIMB,5,1,0,13.0,0.000,1.960,0,-1,0,-2.0,-13.0,-1.0,0.0,0.0,0.0,2037,2826,1212,1912,1298,2788,2050,2901,1310,1039,1278,2804,2035,2813,1211,1912,1316,2793,2052,2884,1308,1040,1297,2806
1782219242.8256,6.0724,1,lf,0.0986,0.0986,-0.1000,0,0.3309,0.3319,-0.1020,-0.0005,0.0008,-0.0059,CLIMB,5,1,0,13.0,0.000,1.980,0,-1,0,-2.0,-13.0,-1.0,0.0,0.0,0.0,2037,2826,1212,1912,1298,2788,2050,2901,1310,1039,1278,2804,2035,2813,1211,1912,1316,2793,2052,2884,1308,1040,1297,2806
1782219242.8457,6.0924,1,lf,0.0986,0.0986,-0.1000,0,0.3309,0.3319,-0.1020,-0.0005,0.0007,-0.0059,CLIMB,5,1,0,13.0,0.000,2.000,0,-1,0,-2.0,-13.0,-1.0,0.0,0.0,0.0,2037,2826,1212,1912,1298,2788,2050,2901,1310,1039,1278,2804,2036,2813,1210,1912,1316,2793,2052,2884,1309,1040,1297,2806
1782219242.8656,6.1123,1,lf,0.0986,0.0986,-0.1000,0,0.3311,0.3316,-0.1020,-0.0006,0.0008,-0.0059,CLIMB,5,1,0,13.0,0.000,2.020,0,-1,0,-1.0,-13.0,-2.0,0.0,0.0,0.0,2037,2826,1212,1912,1298,2788,2050,2901,1310,1039,1278,2804,2036,2813,1210,1912,1316,2793,2052,2884,1309,1040,1297,2806
1782219242.8856,6.1324,1,lf,0.0986,0.0986,-0.1000,0,0.3311,0.3316,-0.1020,-0.0006,0.0009,-0.0059,CLIMB,5,1,0,13.0,0.000,2.040,0,-1,0,-1.0,-13.0,-1.0,0.0,0.0,0.0,2037,2826,1212,1912,1298,2788,2050,2901,1310,1039,1278,2804,2036,2813,1210,1912,1316,2793,2052,2884,1309,1040,1297,2806
1782219242.9056,6.1523,1,lf,0.0986,0.0986,-0.1000,0,0.3311,0.3316,-0.1020,-0.0006,0.0009,-0.0060,CLIMB,5,1,0,13.0,0.000,2.060,0,-1,0,-1.0,-13.0,-1.0,0.0,0.0,0.0,2037,2826,1212,1912,1298,2788,2050,2901,1310,1039,1278,2804,2036,2813,1211,1912,1316,2794,2052,2884,1308,1040,1297,2806
1782219242.9256,6.1723,1,lf,0.0986,0.0986,-0.1000,0,0.3312,0.3316,-0.1020,-0.0007,0.0009,-0.0060,CLIMB,5,1,0,14.0,0.000,2.080,0,-1,0,-1.0,-14.0,-1.0,0.0,0.0,0.0,2037,2826,1212,1912,1298,2788,2050,2901,1310,1039,1278,2804,2036,2813,1211,1912,1316,2794,2052,2884,1308,1040,1297,2806
1782219242.9456,6.1924,1,lf,0.0986,0.0986,-0.1000,0,0.3312,0.3316,-0.1020,-0.0007,0.0009,-0.0060,CLIMB,5,1,0,14.0,0.000,2.100,0,-1,0,-2.0,-14.0,-1.0,0.0,0.0,0.0,2037,2826,1212,1912,1298,2788,2050,2901,1310,1039,1278,2804,2035,2812,1211,1912,1316,2793,2052,2884,1309,1040,1297,2806
1782219242.9656,6.2124,1,lf,0.0986,0.0986,-0.1000,0,0.3308,0.3318,-0.1022,-0.0005,0.0008,-0.0058,CLIMB,5,1,0,14.0,0.000,2.120,0,-1,0,-2.0,-14.0,-1.0,0.0,0.0,0.0,2037,2826,1212,1912,1298,2788,2050,2901,1310,1039,1278,2804,2035,2812,1211,1912,1316,2793,2052,2884,1309,1040,1297,2806
1782219242.9856,6.2324,1,lf,0.0986,0.0986,-0.1000,0,0.3308,0.3318,-0.1022,-0.0005,0.0008,-0.0058,CLIMB,5,1,0,13.0,0.000,2.140,0,-1,0,-1.0,-13.0,-1.0,0.0,0.0,0.0,2037,2826,1212,1912,1298,2788,2050,2901,1310,1039,1278,2804,2035,2812,1211,1912,1316,2793,2052,2884,1309,1040,1297,2806
1782219243.0056,6.2523,1,lf,0.0986,0.0986,-0.1000,0,0.3308,0.3318,-0.1022,-0.0004,0.0007,-0.0058,CLIMB,5,1,0,13.0,0.000,2.160,0,-1,0,-1.0,-13.0,-1.0,0.0,0.0,0.0,2037,2826,1212,1912,1298,2788,2050,2901,1310,1039,1278,2804,2036,2813,1211,1912,1316,2793,2052,2884,1308,1040,1297,2806
1782219243.0257,6.2724,1,lf,0.0986,0.0986,-0.1000,0,0.3312,0.3316,-0.1020,-0.0006,0.0008,-0.0059,CLIMB,5,1,0,13.0,0.000,2.180,0,-1,0,-1.0,-13.0,-1.0,0.0,0.0,0.0,2037,2826,1212,1912,1298,2788,2050,2901,1310,1039,1278,2804,2036,2813,1211,1912,1316,2793,2052,2884,1308,1040,1297,2806
1782219243.0457,6.2924,1,lf,0.0986,0.0986,-0.1000,0,0.3312,0.3316,-0.1020,-0.0006,0.0009,-0.0059,CLIMB,5,1,0,13.0,0.000,2.200,0,-1,0,-2.0,-13.0,-1.0,0.0,0.0,0.0,2037,2826,1212,1912,1298,2788,2050,2901,1310,1039,1278,2804,2035,2813,1211,1912,1316,2793,2052,2884,1308,1040,1297,2806
1782219243.0656,6.3124,1,lf,0.0986,0.0986,-0.1000,0,0.3309,0.3319,-0.1020,-0.0006,0.0007,-0.0059,CLIMB,5,1,0,13.0,0.000,2.220,0,-1,0,-2.0,-13.0,-1.0,0.0,0.0,0.0,2037,2826,1212,1912,1298,2788,2050,2901,1310,1039,1278,2804,2035,2813,1211,1912,1316,2793,2052,2884,1308,1040,1297,2806
1782219243.0856,6.3324,1,lf,0.0986,0.0986,-0.1000,0,0.3309,0.3319,-0.1020,-0.0005,0.0007,-0.0060,CLIMB,5,1,0,13.0,0.000,2.240,0,-1,0,-1.0,-13.0,-2.0,0.0,0.0,0.0,2037,2826,1212,1912,1298,2788,2050,2901,1310,1039,1278,2804,2035,2813,1211,1912,1316,2793,2052,2884,1308,1040,1297,2806
1782219243.1056,6.3524,1,lf,0.0986,0.0986,-0.1000,0,0.3309,0.3319,-0.1020,-0.0005,0.0006,-0.0060,CLIMB,5,1,0,14.0,0.000,2.260,0,-1,0,-1.0,-14.0,-1.0,0.0,0.0,0.0,2037,2826,1212,1912,1298,2788,2050,2901,1310,1039,1278,2804,2036,2812,1211,1912,1316,2793,2052,2884,1309,1040,1297,2806
1782219243.1257,6.3724,1,lf,0.0986,0.0986,-0.1000,0,0.3311,0.3315,-0.1022,-0.0006,0.0008,-0.0059,CLIMB,5,1,0,14.0,0.000,2.280,0,-1,0,-1.0,-14.0,-1.0,0.0,0.0,0.0,2037,2826,1212,1912,1298,2788,2050,2901,1310,1039,1278,2804,2036,2812,1211,1912,1316,2793,2052,2884,1309,1040,1297,2806
1782219243.1456,6.3924,1,lf,0.0986,0.0986,-0.1000,0,0.3311,0.3315,-0.1022,-0.0006,0.0009,-0.0058,CLIMB,5,1,0,14.0,0.000,2.300,0,-1,0,-2.0,-14.0,-1.0,0.0,0.0,0.0,2037,2826,1212,1912,1298,2788,2050,2901,1310,1039,1278,2804,2035,2812,1211,1912,1316,2793,2052,2884,1309,1040,1297,2806
1782219243.1656,6.4124,1,lf,0.0986,0.0986,-0.1000,0,0.3308,0.3318,-0.1022,-0.0005,0.0008,-0.0058,CLIMB,5,1,0,14.0,0.000,2.320,0,-1,0,-2.0,-14.0,-1.0,0.0,0.0,0.0,2037,2826,1212,1912,1298,2788,2050,2901,1310,1039,1278,2804,2035,2812,1211,1912,1316,2793,2052,2884,1309,1040,1297,2806
1782219243.1856,6.4324,1,lf,0.0986,0.0986,-0.1000,0,0.3308,0.3318,-0.1022,-0.0004,0.0008,-0.0058,CLIMB,5,1,0,14.0,0.000,2.340,0,-1,0,-2.0,-14.0,-1.0,0.0,0.0,0.0,2037,2826,1212,1912,1298,2788,2050,2901,1310,1039,1278,2804,2035,2812,1211,1912,1316,2793,2052,2884,1309,1040,1297,2806
1782219243.2056,6.4523,1,lf,0.0986,0.0986,-0.1000,0,0.3308,0.3318,-0.1022,-0.0004,0.0007,-0.0057,CLIMB,5,1,0,13.0,0.000,2.360,0,-1,0,-2.0,-13.0,-1.0,0.0,0.0,0.0,2037,2826,1212,1912,1298,2788,2050,2901,1310,1039,1278,2804,2035,2813,1211,1912,1316,2793,2052,2884,1309,1040,1297,2806
1782219243.2255,6.4723,1,lf,0.0986,0.0986,-0.1000,0,0.3309,0.3319,-0.1020,-0.0005,0.0007,-0.0058,CLIMB,5,1,0,13.0,0.000,2.380,0,-1,0,-2.0,-13.0,-1.0,0.0,0.0,0.0,2037,2826,1212,1912,1298,2788,2050,2901,1310,1039,1278,2804,2035,2813,1211,1912,1316,2793,2052,2884,1309,1040,1297,2806
1782219243.2456,6.4923,1,lf,0.0986,0.0986,-0.1000,0,0.3309,0.3319,-0.1020,-0.0005,0.0006,-0.0059,CLIMB,5,1,0,14.0,0.000,2.400,0,-1,0,-2.0,-14.0,-1.0,0.0,0.0,0.0,2037,2826,1212,1912,1298,2788,2050,2901,1310,1039,1278,2804,2035,2812,1211,1912,1316,2793,2052,2884,1308,1040,1297,2806
1782219243.2656,6.5124,1,lf,0.0986,0.0986,-0.1000,0,0.3308,0.3318,-0.1022,-0.0004,0.0007,-0.0058,CLIMB,5,1,0,14.0,0.000,2.420,0,-1,0,-2.0,-14.0,-1.0,0.0,0.0,0.0,2037,2826,1212,1912,1298,2788,2050,2901,1310,1039,1278,2804,2035,2812,1211,1912,1316,2793,2052,2884,1308,1040,1297,2806
1782219243.2856,6.5324,1,lf,0.0986,0.0986,-0.1000,0,0.3308,0.3318,-0.1022,-0.0004,0.0007,-0.0058,CLIMB,5,1,0,14.0,0.000,2.440,0,-1,0,-2.0,-14.0,-1.0,0.0,0.0,0.0,2037,2826,1212,1912,1298,2788,2050,2901,1310,1039,1278,2804,2035,2812,1211,1912,1316,2793,2052,2884,1308,1040,1297,2806
1782219243.3056,6.5524,1,lf,0.0986,0.0986,-0.1000,0,0.3308,0.3318,-0.1022,-0.0004,0.0007,-0.0057,CLIMB,5,1,0,13.0,0.000,2.460,0,-1,0,-1.0,-13.0,-1.0,0.0,0.0,0.0,2037,2826,1212,1912,1298,2788,2050,2901,1310,1039,1278,2804,2036,2813,1211,1913,1316,2794,2052,2884,1309,1040,1297,2806
1782219243.3256,6.5724,1,lf,0.0986,0.0986,-0.1000,0,0.3312,0.3316,-0.1020,-0.0005,0.0008,-0.0058,CLIMB,5,1,0,13.0,0.000,2.480,0,-1,0,-1.0,-13.0,-1.0,0.0,0.0,0.0,2037,2826,1212,1912,1298,2788,2050,2901,1310,1039,1278,2804,2036,2813,1211,1913,1316,2794,2052,2884,1309,1040,1297,2806
1782219243.3456,6.5923,1,lf,0.0986,0.0986,-0.1000,0,0.3312,0.3316,-0.1020,-0.0006,0.0008,-0.0059,CLIMB,5,1,0,13.0,0.000,2.500,0,-1,0,-2.0,-13.0,-1.0,0.0,0.0,0.0,2037,2826,1212,1912,1298,2788,2050,2901,1310,1039,1278,2804,2035,2813,1211,1912,1316,2793,2052,2884,1308,1040,1297,2806
1782219243.3656,6.6124,1,lf,0.0986,0.0986,-0.1000,0,0.3309,0.3319,-0.1020,-0.0006,0.0007,-0.0059,CLIMB,5,1,0,14.0,0.000,2.520,0,-1,0,-2.0,-14.0,-1.0,0.0,0.0,0.0,2037,2826,1212,1912,1298,2788,2050,2901,1310,1039,1278,2804,2035,2813,1211,1912,1316,2793,2052,2884,1308,1040,1297,2806
1782219243.3856,6.6324,1,lf,0.0986,0.0986,-0.1000,0,0.3309,0.3319,-0.1020,-0.0005,0.0007,-0.0059,CLIMB,5,1,0,14.0,0.000,2.540,0,-1,0,-2.0,-14.0,-1.0,0.0,0.0,0.0,2037,2826,1212,1912,1298,2788,2050,2901,1310,1039,1278,2804,2035,2813,1211,1912,1316,2793,2052,2884,1308,1040,1297,2806
1782219243.4056,6.6523,1,lf,0.0986,0.0986,-0.1000,0,0.3309,0.3319,-0.1020,-0.0005,0.0006,-0.0059,CLIMB,5,1,0,14.0,0.000,2.560,0,-1,0,-1.0,-14.0,-1.0,0.0,0.0,0.0,2037,2826,1212,1912,1298,2788,2050,2901,1310,1039,1278,2804,2036,2812,1211,1912,1316,2793,2052,2884,1308,1040,1297,2806
1782219243.4256,6.6723,1,lf,0.0986,0.0986,-0.1000,0,0.3311,0.3315,-0.1022,-0.0005,0.0008,-0.0058,CLIMB,5,1,0,14.0,0.000,2.580,0,-1,0,-2.0,-14.0,-2.0,0.0,0.0,0.0,2037,2826,1212,1912,1298,2788,2050,2901,1310,1039,1278,2804,2036,2812,1211,1912,1316,2793,2052,2884,1308,1040,1297,2806
1782219243.4456,6.6923,1,lf,0.0986,0.0986,-0.1000,0,0.3311,0.3315,-0.1022,-0.0005,0.0009,-0.0058,CLIMB,5,1,0,14.0,0.000,2.600,0,-1,0,-2.0,-14.0,-2.0,0.0,0.0,0.0,2037,2826,1212,1912,1298,2788,2050,2901,1310,1039,1278,2804,2035,2812,1210,1912,1316,2793,2052,2885,1309,1040,1297,2806
1782219243.4656,6.7124,1,lf,0.0986,0.0986,-0.1000,0,0.3308,0.3317,-0.1022,-0.0004,0.0008,-0.0058,CLIMB,5,1,0,13.0,0.000,2.620,0,-1,0,-2.0,-13.0,-1.0,0.0,0.0,0.0,2037,2826,1212,1912,1298,2788,2050,2901,1310,1039,1278,2804,2035,2812,1210,1912,1316,2793,2052,2885,1309,1040,1297,2806
1782219243.4857,6.7324,1,lf,0.0986,0.0986,-0.1000,0,0.3308,0.3317,-0.1022,-0.0004,0.0008,-0.0057,CLIMB,5,1,0,13.0,0.000,2.640,0,-1,0,-2.0,-13.0,-1.0,0.0,0.0,0.0,2037,2826,1212,1912,1298,2788,2050,2901,1310,1039,1278,2804,2035,2812,1210,1912,1316,2793,2052,2885,1309,1040,1297,2806
1782219243.5056,6.7524,1,lf,0.0986,0.0986,-0.1000,0,0.3308,0.3317,-0.1022,-0.0003,0.0008,-0.0057,CLIMB,5,1,0,13.0,0.000,2.660,0,-1,0,-1.0,-13.0,-1.0,0.0,0.0,0.0,2037,2826,1212,1912,1298,2788,2050,2901,1310,1039,1278,2804,2036,2813,1211,1912,1316,2793,2052,2884,1308,1040,1297,2806
1782219243.5256,6.7724,1,lf,0.0986,0.0986,-0.1000,0,0.3312,0.3316,-0.1020,-0.0005,0.0008,-0.0058,CLIMB,5,1,0,13.0,0.000,2.680,0,-1,0,-1.0,-13.0,-1.0,0.0,0.0,0.0,2037,2826,1212,1912,1298,2788,2050,2901,1310,1039,1278,2804,2036,2813,1211,1912,1316,2793,2052,2884,1308,1040,1297,2806
1782219243.5457,6.7924,1,lf,0.0986,0.0986,-0.1000,0,0.3312,0.3316,-0.1020,-0.0006,0.0009,-0.0059,CLIMB,5,1,0,13.0,0.000,2.700,0,-1,0,-1.0,-13.0,-1.0,0.0,0.0,0.0,2037,2826,1212,1912,1298,2788,2050,2901,1310,1039,1278,2804,2035,2812,1211,1912,1316,2793,2052,2884,1308,1040,1297,2806
1782219243.5656,6.8124,1,lf,0.0986,0.0986,-0.1000,0,0.3308,0.3318,-0.1022,-0.0005,0.0008,-0.0058,CLIMB,5,1,0,14.0,0.000,2.720,0,-1,0,-2.0,-14.0,-1.0,0.0,0.0,0.0,2037,2826,1212,1912,1298,2788,2050,2901,1310,1039,1278,2804,2035,2812,1211,1912,1316,2793,2052,2884,1308,1040,1297,2806
1782219243.5857,6.8324,1,lf,0.0986,0.0986,-0.1000,0,0.3308,0.3318,-0.1022,-0.0004,0.0008,-0.0058,CLIMB,5,1,0,13.0,0.000,2.740,0,-1,0,-1.0,-13.0,-1.0,0.0,0.0,0.0,2037,2826,1212,1912,1298,2788,2050,2901,1310,1039,1278,2804,2035,2812,1211,1912,1316,2793,2052,2884,1308,1040,1297,2806
1782219243.6057,6.8525,1,lf,0.0986,0.0986,-0.1000,0,0.3308,0.3318,-0.1022,-0.0004,0.0007,-0.0057,CLIMB,5,1,0,13.0,0.000,2.760,0,-1,0,-1.0,-13.0,-1.0,0.0,0.0,0.0,2037,2826,1212,1912,1298,2788,2050,2901,1310,1039,1278,2804,2036,2813,1211,1912,1316,2793,2052,2884,1309,1040,1297,2806
1782219243.6257,6.8725,1,lf,0.0986,0.0986,-0.1000,0,0.3312,0.3316,-0.1020,-0.0006,0.0008,-0.0058,CLIMB,5,1,0,13.0,0.000,2.780,0,-1,0,-1.0,-13.0,-1.0,0.0,0.0,0.0,2037,2826,1212,1912,1298,2788,2050,2901,1310,1039,1278,2804,2036,2813,1211,1912,1316,2793,2052,2884,1309,1040,1297,2806
1782219243.6457,6.8925,1,lf,0.0986,0.0986,-0.1000,0,0.3312,0.3316,-0.1020,-0.0006,0.0009,-0.0059,CLIMB,5,1,0,13.0,0.000,2.800,0,-1,0,-1.0,-13.0,-1.0,0.0,0.0,0.0,2037,2826,1212,1912,1298,2788,2050,2901,1310,1039,1278,2804,2035,2812,1211,1912,1316,2793,2052,2884,1308,1040,1297,2806
1782219243.6658,6.9125,1,lf,0.0986,0.0986,-0.1000,0,0.3308,0.3318,-0.1022,-0.0005,0.0008,-0.0058,CLIMB,5,1,0,14.0,0.000,2.820,0,-1,0,-2.0,-14.0,-1.0,0.0,0.0,0.0,2037,2826,1212,1912,1298,2788,2050,2901,1310,1039,1278,2804,2035,2812,1211,1912,1316,2793,2052,2884,1308,1040,1297,2806
1782219243.6858,6.9325,1,lf,0.0986,0.0986,-0.1000,0,0.3308,0.3318,-0.1022,-0.0004,0.0008,-0.0058,CLIMB,5,1,0,13.0,0.000,2.840,0,-1,0,-2.0,-13.0,-1.0,0.0,0.0,0.0,2037,2826,1212,1912,1298,2788,2050,2901,1310,1039,1278,2804,2035,2812,1211,1912,1316,2793,2052,2884,1308,1040,1297,2806
1782219243.7057,6.9525,1,lf,0.0986,0.0986,-0.1000,0,0.3308,0.3318,-0.1022,-0.0004,0.0007,-0.0057,CLIMB,5,1,0,13.0,0.000,2.860,0,-1,0,-2.0,-13.0,-1.0,0.0,0.0,0.0,2037,2826,1212,1912,1298,2788,2050,2901,1310,1039,1278,2804,2035,2813,1211,1912,1316,2794,2052,2884,1309,1040,1297,2806
1782219243.7257,6.9724,1,lf,0.0986,0.0986,-0.1000,0,0.3309,0.3319,-0.1020,-0.0005,0.0007,-0.0059,CLIMB,5,1,0,14.0,0.000,2.880,0,-1,0,-2.0,-14.0,-1.0,0.0,0.0,0.0,2037,2826,1212,1912,1298,2788,2050,2901,1310,1039,1278,2804,2035,2813,1211,1912,1316,2794,2052,2884,1309,1040,1297,2806
1782219243.7457,6.9925,1,lf,0.0986,0.0986,-0.1000,0,0.3309,0.3319,-0.1020,-0.0005,0.0007,-0.0059,CLIMB,5,1,0,14.0,0.000,2.900,0,-1,0,-1.0,-14.0,-1.0,0.0,0.0,0.0,2037,2826,1212,1912,1298,2788,2050,2901,1310,1039,1278,2804,2036,2812,1211,1912,1316,2793,2052,2884,1308,1040,1297,2806
1782219243.7658,7.0125,1,lf,0.0986,0.0986,-0.1000,0,0.3311,0.3315,-0.1022,-0.0005,0.0008,-0.0058,CLIMB,5,1,0,14.0,0.000,2.920,0,-1,0,-1.0,-14.0,-1.0,0.0,0.0,0.0,2037,2826,1212,1912,1298,2788,2050,2901,1310,1039,1278,2804,2036,2812,1211,1912,1316,2793,2052,2884,1308,1040,1297,2806
1782219243.7857,7.0325,1,lf,0.0986,0.0986,-0.1000,0,0.3311,0.3315,-0.1022,-0.0006,0.0009,-0.0058,CLIMB,5,1,0,14.0,0.000,2.940,0,-1,0,-2.0,-14.0,-2.0,0.0,0.0,0.0,2037,2826,1212,1912,1298,2788,2050,2901,1310,1039,1278,2804,2036,2812,1211,1912,1316,2793,2052,2884,1308,1040,1297,2806
1782219243.8058,7.0525,1,lf,0.0986,0.0986,-0.1000,0,0.3311,0.3315,-0.1022,-0.0006,0.0010,-0.0058,CLIMB,5,1,0,14.0,0.000,2.960,0,-1,0,-2.0,-14.0,-2.0,0.0,0.0,0.0,2037,2826,1212,1912,1298,2788,2050,2901,1310,1039,1278,2804,2035,2812,1210,1912,1316,2793,2052,2884,1309,1040,1297,2806
1782219243.8258,7.0725,1,lf,0.0986,0.0986,-0.1000,0,0.3308,0.3317,-0.1022,-0.0005,0.0009,-0.0058,CLIMB,5,1,0,14.0,0.000,2.980,0,-1,0,-1.0,-14.0,-1.0,0.0,0.0,0.0,2037,2826,1212,1912,1298,2788,2050,2901,1310,1039,1278,2804,2035,2812,1210,1912,1316,2793,2052,2884,1309,1040,1297,2806
1782219243.8458,7.0925,1,lf,0.0986,0.0986,-0.1000,0,0.3308,0.3317,-0.1022,-0.0004,0.0008,-0.0058,CLIMB,5,1,0,14.0,0.000,3.000,0,-1,0,-1.0,-14.0,-1.0,0.0,0.0,0.0,2037,2826,1212,1912,1298,2788,2050,2901,1310,1039,1278,2804,2036,2812,1211,1912,1316,2793,2052,2884,1309,1040,1297,2806
1782219243.8657,7.1125,1,lf,0.0986,0.0986,-0.1000,0,0.3311,0.3315,-0.1022,-0.0005,0.0009,-0.0058,CLIMB,5,1,0,14.0,0.000,3.020,1,-1,0,-1.0,-14.0,-1.0,0.0,0.0,0.0,2037,2826,1212,1912,1298,2788,2050,2901,1310,1039,1278,2804,2036,2812,1211,1912,1316,2793,2052,2884,1309,1040,1297,2806
1782219243.8857,7.1325,1,lf,0.0986,0.0986,-0.1000,0,0.3311,0.3315,-0.1022,-0.0005,0.0010,-0.0058,CLIMB,5,1,0,14.0,0.000,3.040,1,-1,0,-1.0,-14.0,-1.0,0.0,0.0,0.0,2037,2826,1212,1912,1298,2788,2050,2901,1310,1039,1278,2804,2036,2812,1211,1912,1316,2793,2052,2884,1309,1040,1297,2806
1782219243.9057,7.1525,1,lf,0.0986,0.0986,-0.1000,0,0.3311,0.3315,-0.1022,-0.0006,0.0010,-0.0058,CLIMB,5,1,0,14.0,0.000,3.060,1,-1,0,-2.0,-14.0,-1.0,0.0,0.0,0.0,2037,2826,1212,1912,1298,2788,2050,2901,1310,1039,1278,2804,2035,2812,1211,1912,1316,2793,2052,2884,1309,1040,1297,2806
1782219243.9257,7.1725,1,lf,0.0986,0.0986,-0.1000,0,0.3308,0.3318,-0.1022,-0.0005,0.0009,-0.0058,CLIMB,5,1,0,14.0,0.000,3.080,1,-1,0,-2.0,-14.0,-1.0,0.0,0.0,0.0,2037,2826,1212,1912,1298,2788,2050,2901,1310,1039,1278,2804,2035,2812,1211,1912,1316,2793,2052,2884,1309,1040,1297,2806
1782219243.9457,7.1924,1,lf,0.0986,0.0986,-0.1000,0,0.3308,0.3318,-0.1022,-0.0004,0.0008,-0.0058,CLIMB,5,1,0,14.0,0.000,3.100,1,-1,0,-1.0,-14.0,-1.0,0.0,0.0,0.0,2037,2826,1212,1912,1298,2788,2050,2901,1310,1039,1278,2804,2036,2812,1211,1912,1316,2793,2052,2884,1308,1040,1297,2806
1782219243.9657,7.2124,1,lf,0.0986,0.0986,-0.1000,0,0.3311,0.3315,-0.1022,-0.0005,0.0009,-0.0058,CLIMB,5,1,0,14.0,0.000,3.120,1,-1,0,-1.0,-14.0,-1.0,0.0,0.0,0.0,2037,2826,1212,1912,1298,2788,2050,2901,1310,1039,1278,2804,2036,2812,1211,1912,1316,2793,2052,2884,1308,1040,1297,2806
1782219243.9858,7.2325,1,lf,0.0986,0.0986,-0.1000,0,0.3311,0.3315,-0.1022,-0.0006,0.0010,-0.0058,CLIMB,5,1,0,13.0,0.000,3.140,1,-1,0,-1.0,-13.0,-1.0,0.0,0.0,0.0,2037,2826,1212,1912,1298,2788,2050,2901,1310,1039,1278,2804,2036,2812,1211,1912,1316,2793,2052,2884,1308,1040,1297,2806
1782219244.0058,7.2525,1,lf,0.0986,0.0986,-0.1000,0,0.3311,0.3315,-0.1022,-0.0006,0.0010,-0.0058,CLIMB,5,1,0,14.0,0.000,3.160,1,-1,0,-1.0,-14.0,-1.0,0.0,0.0,0.0,2037,2826,1212,1912,1298,2788,2050,2901,1310,1039,1278,2804,2036,2812,1211,1912,1316,2793,2052,2884,1309,1040,1297,2806
1782219244.0256,7.2724,1,lf,0.0986,0.0986,-0.1000,0,0.3311,0.3315,-0.1022,-0.0006,0.0010,-0.0058,CLIMB,5,1,0,14.0,0.000,3.180,1,-1,0,-1.0,-14.0,-1.0,0.0,0.0,0.0,2037,2826,1212,1912,1298,2788,2050,2901,1310,1039,1278,2804,2036,2812,1211,1912,1316,2793,2052,2884,1309,1040,1297,2806
1782219244.0457,7.2925,1,lf,0.0986,0.0986,-0.1000,0,0.3311,0.3315,-0.1022,-0.0006,0.0010,-0.0058,CLIMB,5,1,0,13.0,0.000,3.200,1,-1,0,-1.0,-13.0,-1.0,0.0,0.0,0.0,2037,2826,1212,1912,1298,2788,2050,2901,1310,1039,1278,2804,2036,2813,1211,1912,1316,2794,2052,2884,1308,1040,1297,2806
1782219244.0657,7.3125,1,lf,0.0986,0.0986,-0.1000,0,0.3312,0.3316,-0.1020,-0.0007,0.0010,-0.0059,CLIMB,5,1,0,13.0,0.000,3.220,1,-1,0,-1.0,-13.0,-1.0,0.0,0.0,0.0,2037,2826,1212,1912,1298,2788,2050,2901,1310,1039,1278,2804,2036,2813,1211,1912,1316,2794,2052,2884,1308,1040,1297,2806
1782219244.0857,7.3324,1,lf,0.0986,0.0986,-0.1000,0,0.3312,0.3316,-0.1020,-0.0007,0.0009,-0.0059,CLIMB,5,1,0,13.0,0.000,3.240,1,-1,0,-1.0,-13.0,-1.0,0.0,0.0,0.0,2037,2826,1212,1912,1298,2788,2050,2901,1310,1039,1278,2804,2036,2813,1211,1912,1316,2794,2052,2884,1308,1040,1297,2806
1782219244.1058,7.3525,1,lf,0.0986,0.0986,-0.1000,0,0.3312,0.3316,-0.1020,-0.0007,0.0009,-0.0060,CLIMB,5,1,0,14.0,0.000,3.260,1,-1,0,-1.0,-14.0,-1.0,0.0,0.0,0.0,2037,2826,1212,1912,1298,2788,2050,2901,1310,1039,1278,2804,2036,2812,1211,1912,1316,2794,2052,2884,1308,1040,1297,2806
1782219244.1257,7.3724,1,lf,0.0986,0.0986,-0.1000,0,0.3311,0.3315,-0.1022,-0.0007,0.0010,-0.0059,CLIMB,5,1,0,14.0,0.000,3.280,1,-1,0,-1.0,-14.0,-1.0,0.0,0.0,0.0,2037,2826,1212,1912,1298,2788,2050,2901,1310,1039,1278,2804,2036,2812,1211,1912,1316,2794,2052,2884,1308,1040,1297,2806
1782219244.1457,7.3925,1,lf,0.0986,0.0986,-0.1000,0,0.3311,0.3315,-0.1022,-0.0006,0.0010,-0.0058,CLIMB,5,1,0,13.0,0.000,3.300,1,-1,0,-1.0,-13.0,-1.0,0.0,0.0,0.0,2037,2826,1212,1912,1298,2788,2050,2901,1310,1039,1278,2804,2036,2813,1211,1912,1316,2793,2052,2884,1308,1040,1297,2806
1782219244.1656,7.4124,1,lf,0.0986,0.0986,-0.1000,0,0.3312,0.3316,-0.1020,-0.0007,0.0010,-0.0059,CLIMB,5,1,0,13.0,0.000,3.320,1,-1,0,-2.0,-13.0,-1.0,0.0,0.0,0.0,2037,2826,1212,1912,1298,2788,2050,2901,1310,1039,1278,2804,2036,2813,1211,1912,1316,2793,2052,2884,1308,1040,1297,2806
1782219244.1857,7.4325,1,lf,0.0986,0.0986,-0.1000,0,0.3312,0.3316,-0.1020,-0.0007,0.0009,-0.0059,CLIMB,5,1,0,13.0,0.000,3.340,1,-1,0,-2.0,-13.0,-1.0,0.0,0.0,0.0,2037,2826,1212,1912,1298,2788,2050,2901,1310,1039,1278,2804,2036,2813,1211,1912,1316,2793,2052,2884,1308,1040,1297,2806
1782219244.2057,7.4524,1,lf,0.0986,0.0986,-0.1000,0,0.3312,0.3316,-0.1020,-0.0007,0.0009,-0.0060,CLIMB,5,1,0,13.0,0.000,3.360,1,-1,0,-2.0,-13.0,-1.0,0.0,0.0,0.0,2037,2826,1212,1912,1298,2788,2050,2901,1310,1039,1278,2804,2035,2813,1211,1912,1316,2793,2052,2884,1308,1040,1297,2806
1782219244.2257,7.4724,1,lf,0.0986,0.0986,-0.1000,0,0.3309,0.3319,-0.1020,-0.0006,0.0008,-0.0060,CLIMB,5,1,0,13.0,0.000,3.380,1,-1,0,-2.0,-13.0,-1.0,0.0,0.0,0.0,2037,2826,1212,1912,1298,2788,2050,2901,1310,1039,1278,2804,2035,2813,1211,1912,1316,2793,2052,2884,1308,1040,1297,2806
1782219244.2456,7.4924,1,lf,0.0986,0.0986,-0.1000,0,0.3309,0.3319,-0.1020,-0.0006,0.0007,-0.0060,CLIMB,5,1,0,13.0,0.000,3.400,1,-1,0,-2.0,-13.0,-1.0,0.0,0.0,0.0,2037,2826,1212,1912,1298,2788,2050,2901,1310,1039,1278,2804,2035,2813,1211,1912,1316,2793,2052,2884,1309,1040,1297,2806
1782219244.2657,7.5124,1,lf,0.0986,0.0986,-0.1000,0,0.3309,0.3319,-0.1020,-0.0006,0.0007,-0.0060,CLIMB,5,1,0,13.0,0.000,3.420,1,-1,0,-1.0,-13.0,-1.0,0.0,0.0,0.0,2037,2826,1212,1912,1298,2788,2050,2901,1310,1039,1278,2804,2035,2813,1211,1912,1316,2793,2052,2884,1309,1040,1297,2806
1782219244.2857,7.5325,1,lf,0.0986,0.0986,-0.1000,0,0.3309,0.3319,-0.1020,-0.0005,0.0006,-0.0060,CLIMB,5,1,0,13.0,0.000,3.440,1,-1,0,-1.0,-13.0,-1.0,0.0,0.0,0.0,2037,2826,1212,1912,1298,2788,2050,2901,1310,1039,1278,2804,2035,2813,1211,1912,1316,2793,2052,2884,1309,1040,1297,2806
1782219244.3057,7.5524,1,lf,0.0986,0.0986,-0.1000,0,0.3309,0.3319,-0.1020,-0.0005,0.0006,-0.0060,CLIMB,5,1,0,13.0,0.000,3.460,1,-1,0,-2.0,-13.0,-2.0,0.0,0.0,0.0,2037,2826,1212,1912,1298,2788,2050,2901,1310,1039,1278,2804,2035,2813,1210,1912,1316,2794,2052,2884,1309,1040,1297,2806
1782219244.3257,7.5725,1,lf,0.0986,0.0986,-0.1000,0,0.3309,0.3318,-0.1020,-0.0005,0.0006,-0.0060,CLIMB,5,1,0,14.0,0.000,3.480,1,-1,0,-1.0,-14.0,-1.0,0.0,0.0,0.0,2037,2826,1212,1912,1298,2788,2050,2901,1310,1039,1278,2804,2035,2813,1210,1912,1316,2794,2052,2884,1309,1040,1297,2806
1782219244.3458,7.5925,1,lf,0.0986,0.0986,-0.1000,0,0.3309,0.3318,-0.1020,-0.0005,0.0006,-0.0060,CLIMB,5,1,0,14.0,0.000,3.500,1,-1,0,-1.0,-14.0,-1.0,0.0,0.0,0.0,2037,2826,1212,1912,1298,2788,2050,2901,1310,1039,1278,2804,2036,2813,1211,1912,1316,2793,2052,2884,1309,1040,1297,2806
1782219244.3658,7.6125,1,lf,0.0986,0.0986,-0.1000,0,0.3312,0.3316,-0.1020,-0.0006,0.0008,-0.0060,CLIMB,5,1,0,13.0,0.000,3.520,1,-1,0,-1.0,-13.0,-1.0,0.0,0.0,0.0,2037,2826,1212,1912,1298,2788,2050,2901,1310,1039,1278,2804,2036,2813,1211,1912,1316,2793,2052,2884,1309,1040,1297,2806
1782219244.3858,7.6325,1,lf,0.0986,0.0986,-0.1000,0,0.3312,0.3316,-0.1020,-0.0007,0.0009,-0.0060,CLIMB,5,1,0,14.0,0.000,3.540,1,-1,0,-1.0,-14.0,-2.0,0.0,0.0,0.0,2037,2826,1212,1912,1298,2788,2050,2901,1310,1039,1278,2804,2036,2813,1211,1912,1316,2793,2052,2884,1309,1040,1297,2806
1782219244.4058,7.6525,1,lf,0.0986,0.0986,-0.1000,0,0.3312,0.3316,-0.1020,-0.0007,0.0009,-0.0060,CLIMB,5,1,0,14.0,0.000,3.560,1,-1,0,-1.0,-14.0,-2.0,0.0,0.0,0.0,2037,2826,1212,1912,1298,2788,2050,2901,1310,1039,1278,2804,2036,2812,1210,1913,1316,2793,2052,2884,1308,1040,1297,2806
1782219244.4257,7.6725,1,lf,0.0986,0.0986,-0.1000,0,0.3310,0.3315,-0.1022,-0.0006,0.0010,-0.0059,CLIMB,5,1,0,14.0,0.000,3.580,1,-1,0,-2.0,-14.0,-1.0,0.0,0.0,0.0,2037,2826,1212,1912,1298,2788,2050,2901,1310,1039,1278,2804,2036,2812,1210,1913,1316,2793,2052,2884,1308,1040,1297,2806
1782219244.4457,7.6925,1,lf,0.0986,0.0986,-0.1000,0,0.3310,0.3315,-0.1022,-0.0006,0.0010,-0.0058,CLIMB,5,1,0,14.0,0.000,3.600,1,-1,0,-2.0,-14.0,-1.0,0.0,0.0,0.0,2037,2826,1212,1912,1298,2788,2050,2901,1310,1039,1278,2804,2035,2812,1211,1912,1316,2793,2052,2884,1308,1040,1297,2806
1782219244.4658,7.7125,1,lf,0.0986,0.0986,-0.1000,0,0.3308,0.3318,-0.1022,-0.0005,0.0009,-0.0058,CLIMB,5,1,0,14.0,0.000,3.620,1,-1,0,-2.0,-14.0,-1.0,0.0,0.0,0.0,2037,2826,1212,1912,1298,2788,2050,2901,1310,1039,1278,2804,2035,2812,1211,1912,1316,2793,2052,2884,1308,1040,1297,2806
1782219244.4859,7.7326,1,lf,0.0986,0.0986,-0.1000,0,0.3308,0.3318,-0.1022,-0.0005,0.0008,-0.0058,CLIMB,5,1,0,13.0,0.000,3.640,1,-1,0,-1.0,-13.0,-1.0,0.0,0.0,0.0,2037,2826,1212,1912,1298,2788,2050,2901,1310,1039,1278,2804,2035,2812,1211,1912,1316,2793,2052,2884,1308,1040,1297,2806
1782219244.5058,7.7525,1,lf,0.0986,0.0986,-0.1000,0,0.3308,0.3318,-0.1022,-0.0004,0.0008,-0.0058,CLIMB,5,1,0,13.0,0.000,3.660,1,-1,0,-1.0,-13.0,-1.0,0.0,0.0,0.0,2037,2826,1212,1912,1298,2788,2050,2901,1310,1039,1278,2804,2036,2813,1211,1912,1316,2793,2052,2885,1308,1040,1297,2806
1782219244.5257,7.7725,1,lf,0.0986,0.0986,-0.1000,0,0.3312,0.3316,-0.1020,-0.0006,0.0009,-0.0059,CLIMB,5,1,0,13.0,0.000,3.680,1,-1,0,-2.0,-13.0,-1.0,0.0,0.0,0.0,2037,2826,1212,1912,1298,2788,2050,2901,1310,1039,1278,2804,2036,2813,1211,1912,1316,2793,2052,2885,1308,1040,1297,2806
1782219244.5457,7.7925,1,lf,0.0986,0.0986,-0.1000,0,0.3312,0.3316,-0.1020,-0.0007,0.0009,-0.0059,CLIMB,5,1,0,14.0,0.000,3.700,1,-1,0,-1.0,-14.0,-1.0,0.0,0.0,0.0,2037,2826,1212,1912,1298,2788,2050,2901,1310,1039,1278,2804,2036,2812,1211,1912,1316,2794,2052,2884,1308,1040,1297,2806
1782219244.5658,7.8125,1,lf,0.0986,0.0986,-0.1000,0,0.3311,0.3315,-0.1022,-0.0006,0.0010,-0.0058,CLIMB,5,1,0,14.0,0.000,3.720,1,-1,0,-1.0,-14.0,-1.0,0.0,0.0,0.0,2037,2826,1212,1912,1298,2788,2050,2901,1310,1039,1278,2804,2036,2812,1211,1912,1316,2794,2052,2884,1308,1040,1297,2806
1782219244.5857,7.8324,1,lf,0.0986,0.0986,-0.1000,0,0.3311,0.3315,-0.1022,-0.0006,0.0010,-0.0058,CLIMB,5,1,0,13.0,0.000,3.740,1,-1,0,-2.0,-13.0,-1.0,0.0,0.0,0.0,2037,2826,1212,1912,1298,2788,2050,2901,1310,1039,1278,2804,2036,2812,1211,1912,1316,2794,2052,2884,1308,1040,1297,2806
1782219244.6056,7.8524,1,lf,0.0986,0.0986,-0.1000,0,0.3311,0.3315,-0.1022,-0.0006,0.0010,-0.0058,CLIMB,5,1,0,13.0,0.000,3.760,1,-1,0,-2.0,-13.0,-1.0,0.0,0.0,0.0,2037,2826,1212,1912,1298,2788,2050,2901,1310,1039,1278,2804,2035,2813,1211,1912,1316,2793,2052,2884,1309,1040,1297,2806
1782219244.6257,7.8725,1,lf,0.0986,0.0986,-0.1000,0,0.3309,0.3319,-0.1020,-0.0006,0.0008,-0.0059,CLIMB,5,1,0,14.0,0.000,3.780,1,-1,0,-1.0,-14.0,-1.0,0.0,0.0,0.0,2037,2826,1212,1912,1298,2788,2050,2901,1310,1039,1278,2804,2035,2813,1211,1912,1316,2793,2052,2884,1309,1040,1297,2806
1782219244.6458,7.8925,1,lf,0.0986,0.0986,-0.1000,0,0.3309,0.3319,-0.1020,-0.0006,0.0007,-0.0059,CLIMB,5,1,0,14.0,0.000,3.800,1,-1,0,-2.0,-14.0,-1.0,0.0,0.0,0.0,2037,2826,1212,1912,1298,2788,2050,2901,1310,1039,1278,2804,2035,2812,1211,1912,1316,2793,2052,2884,1309,1040,1297,2806
1782219244.6657,7.9125,1,lf,0.0986,0.0986,-0.1000,0,0.3308,0.3318,-0.1022,-0.0005,0.0007,-0.0058,CLIMB,5,1,0,14.0,0.000,3.820,1,-1,0,-2.0,-14.0,-1.0,0.0,0.0,0.0,2037,2826,1212,1912,1298,2788,2050,2901,1310,1039,1278,2804,2035,2812,1211,1912,1316,2793,2052,2884,1309,1040,1297,2806
1782219244.6858,7.9325,1,lf,0.0986,0.0986,-0.1000,0,0.3308,0.3318,-0.1022,-0.0005,0.0007,-0.0058,CLIMB,5,1,0,13.0,0.000,3.840,1,-1,0,-2.0,-13.0,-1.0,0.0,0.0,0.0,2037,2826,1212,1912,1298,2788,2050,2901,1310,1039,1278,2804,2035,2812,1211,1912,1316,2793,2052,2884,1309,1040,1297,2806
1782219244.7058,7.9525,1,lf,0.0986,0.0986,-0.1000,0,0.3308,0.3318,-0.1022,-0.0004,0.0007,-0.0058,CLIMB,5,1,0,14.0,0.000,3.860,1,-1,0,-2.0,-14.0,-1.0,0.0,0.0,0.0,2037,2826,1212,1912,1298,2788,2050,2901,1310,1039,1278,2804,2035,2812,1211,1912,1316,2794,2052,2884,1308,1040,1297,2806
1782219244.7258,7.9725,1,lf,0.0986,0.0986,-0.1000,0,0.3308,0.3318,-0.1022,-0.0004,0.0007,-0.0058,CLIMB,5,1,0,14.0,0.000,3.880,1,-1,0,-2.0,-14.0,-1.0,0.0,0.0,0.0,2037,2826,1212,1912,1298,2788,2050,2901,1310,1039,1278,2804,2035,2812,1211,1912,1316,2794,2052,2884,1308,1040,1297,2806
1782219244.7457,7.9924,1,lf,0.0986,0.0986,-0.1000,0,0.3308,0.3318,-0.1022,-0.0004,0.0007,-0.0058,CLIMB,5,1,0,13.0,0.000,3.900,1,-1,0,-2.0,-13.0,-1.0,0.0,0.0,0.0,2037,2826,1212,1912,1298,2788,2050,2901,1310,1039,1278,2804,2035,2813,1211,1912,1316,2794,2052,2884,1308,1040,1297,2806
1782219244.7658,8.0125,1,lf,0.0986,0.0986,-0.1000,0,0.3309,0.3319,-0.1020,-0.0005,0.0007,-0.0059,CLIMB,5,1,0,13.0,0.000,3.920,1,-1,0,-2.0,-13.0,-1.0,0.0,0.0,0.0,2037,2826,1212,1912,1298,2788,2050,2901,1310,1039,1278,2804,2035,2813,1211,1912,1316,2794,2052,2884,1308,1040,1297,2806
1782219244.7858,8.0325,1,lf,0.0986,0.0986,-0.1000,0,0.3309,0.3319,-0.1020,-0.0005,0.0007,-0.0059,CLIMB,5,1,0,14.0,0.000,3.940,1,-1,0,-2.0,-14.0,-1.0,0.0,0.0,0.0,2037,2826,1212,1912,1298,2788,2050,2901,1310,1039,1278,2804,2035,2813,1211,1912,1316,2794,2052,2884,1308,1040,1297,2806
1782219244.8058,8.0525,1,lf,0.0986,0.0986,-0.1000,0,0.3309,0.3319,-0.1020,-0.0005,0.0006,-0.0059,CLIMB,5,1,0,14.0,0.000,3.960,1,-1,0,-1.0,-14.0,-1.0,0.0,0.0,0.0,2037,2826,1212,1912,1298,2788,2050,2901,1310,1039,1278,2804,2036,2812,1211,1912,1316,2793,2052,2884,1309,1040,1297,2806
1782219244.8258,8.0725,1,lf,0.0986,0.0986,-0.1000,0,0.3311,0.3315,-0.1022,-0.0006,0.0008,-0.0058,CLIMB,5,1,0,14.0,0.000,3.980,1,-1,0,-1.0,-14.0,-1.0,0.0,0.0,0.0,2037,2826,1212,1912,1298,2788,2050,2901,1310,1039,1278,2804,2036,2812,1211,1912,1316,2793,2052,2884,1309,1040,1297,2806
1782219244.8458,8.0925,1,lf,0.0986,0.0986,-0.1000,0,0.3311,0.3315,-0.1022,-0.0006,0.0009,-0.0058,CLIMB,5,1,0,14.0,0.000,4.000,1,-1,0,-1.0,-14.0,-1.0,0.0,0.0,0.0,2037,2826,1212,1912,1298,2788,2050,2901,1310,1039,1278,2804,2036,2812,1211,1912,1316,2793,2052,2884,1308,1040,1297,2806
1782219244.8657,8.1124,1,lf,0.0986,0.0986,-0.1000,0,0.3311,0.3315,-0.1022,-0.0006,0.0010,-0.0058,CLIMB,5,1,0,13.0,0.000,4.020,1,-1,0,-1.0,-13.0,-1.0,0.0,0.0,0.0,2037,2826,1212,1912,1298,2788,2050,2901,1310,1039,1278,2804,2036,2812,1211,1912,1316,2793,2052,2884,1308,1040,1297,2806
1782219244.8857,8.1324,1,lf,0.0986,0.0986,-0.1000,0,0.3311,0.3315,-0.1022,-0.0006,0.0010,-0.0058,CLIMB,5,1,0,13.0,0.000,4.040,1,-1,0,-1.0,-13.0,-1.0,0.0,0.0,0.0,2037,2826,1212,1912,1298,2788,2050,2901,1310,1039,1278,2804,2036,2812,1211,1912,1316,2793,2052,2884,1308,1040,1297,2806
1782219244.9057,8.1525,1,lf,0.0986,0.0986,-0.1000,0,0.3311,0.3315,-0.1022,-0.0006,0.0010,-0.0057,CLIMB,5,1,0,14.0,0.000,4.060,1,-1,0,-1.0,-14.0,-2.0,0.0,0.0,0.0,2037,2826,1212,1912,1298,2788,2050,2901,1310,1039,1278,2804,2036,2812,1210,1912,1316,2794,2052,2884,1309,1040,1297,2806
1782219244.9257,8.1724,1,lf,0.0986,0.0986,-0.1000,0,0.3310,0.3315,-0.1022,-0.0006,0.0011,-0.0057,CLIMB,5,1,0,14.0,0.000,4.080,1,-1,0,-1.0,-14.0,-2.0,0.0,0.0,0.0,2037,2826,1212,1912,1298,2788,2050,2901,1310,1039,1278,2804,2036,2812,1210,1912,1316,2794,2052,2884,1309,1040,1297,2806
1782219244.9458,8.1925,1,lf,0.0986,0.0986,-0.1000,0,0.3310,0.3315,-0.1022,-0.0006,0.0011,-0.0057,CLIMB,5,1,0,13.0,0.000,4.100,1,-1,0,-1.0,-13.0,-2.0,0.0,0.0,0.0,2037,2826,1212,1912,1298,2788,2050,2901,1310,1039,1278,2804,2036,2813,1210,1912,1316,2794,2052,2884,1309,1040,1297,2806
1782219244.9658,8.2125,1,lf,0.0986,0.0986,-0.1000,0,0.3311,0.3316,-0.1020,-0.0006,0.0010,-0.0059,CLIMB,5,1,0,13.0,0.000,4.120,1,-1,0,-1.0,-13.0,-1.0,0.0,0.0,0.0,2037,2826,1212,1912,1298,2788,2050,2901,1310,1039,1278,2804,2036,2813,1210,1912,1316,2794,2052,2884,1309,1040,1297,2806
1782219244.9857,8.2325,1,lf,0.0986,0.0986,-0.1000,0,0.3311,0.3316,-0.1020,-0.0007,0.0010,-0.0059,CLIMB,5,1,0,13.0,0.000,4.140,1,-1,0,-1.0,-13.0,-1.0,0.0,0.0,0.0,2037,2826,1212,1912,1298,2788,2050,2901,1310,1039,1278,2804,2036,2813,1210,1912,1316,2794,2052,2884,1309,1040,1297,2806
1782219245.0058,8.2525,1,lf,0.0986,0.0986,-0.1000,0,0.3311,0.3316,-0.1020,-0.0007,0.0010,-0.0059,CLIMB,5,1,0,13.0,0.000,4.160,1,-1,0,-1.0,-13.0,-1.0,0.0,0.0,0.0,2037,2826,1212,1912,1298,2788,2050,2901,1310,1039,1278,2804,2036,2813,1211,1912,1316,2793,2052,2884,1309,1040,1297,2806
1782219245.0258,8.2725,1,lf,0.0986,0.0986,-0.1000,0,0.3312,0.3316,-0.1020,-0.0007,0.0010,-0.0059,CLIMB,5,1,0,13.0,0.000,4.180,1,-1,0,-2.0,-13.0,-1.0,0.0,0.0,0.0,2037,2826,1212,1912,1298,2788,2050,2901,1310,1039,1278,2804,2036,2813,1211,1912,1316,2793,2052,2884,1309,1040,1297,2806
1782219245.0458,8.2925,1,lf,0.0986,0.0986,-0.1000,0,0.3312,0.3316,-0.1020,-0.0007,0.0010,-0.0059,CLIMB,5,1,0,13.0,0.000,4.200,1,-1,0,-2.0,-13.0,-1.0,0.0,0.0,0.0,2037,2826,1212,1912,1298,2788,2050,2901,1310,1039,1278,2804,2035,2813,1211,1912,1316,2793,2052,2884,1308,1040,1297,2806
1782219245.0658,8.3125,1,lf,0.0986,0.0986,-0.1000,0,0.3309,0.3319,-0.1020,-0.0007,0.0008,-0.0059,CLIMB,5,1,0,14.0,0.000,4.220,1,-1,0,-1.0,-14.0,-1.0,0.0,0.0,0.0,2037,2826,1212,1912,1298,2788,2050,2901,1310,1039,1278,2804,2035,2813,1211,1912,1316,2793,2052,2884,1308,1040,1297,2806
1782219245.0857,8.3325,1,lf,0.0986,0.0986,-0.1000,0,0.3309,0.3319,-0.1020,-0.0006,0.0008,-0.0059,CLIMB,5,1,0,14.0,0.000,4.240,1,-1,0,-1.0,-14.0,-1.0,0.0,0.0,0.0,2037,2826,1212,1912,1298,2788,2050,2901,1310,1039,1278,2804,2035,2813,1211,1912,1316,2793,2052,2884,1308,1040,1297,2806
1782219245.1058,8.3525,1,lf,0.0986,0.0986,-0.1000,0,0.3309,0.3319,-0.1020,-0.0006,0.0007,-0.0059,CLIMB,5,1,0,13.0,0.000,4.260,1,-1,0,-2.0,-13.0,-1.0,0.0,0.0,0.0,2037,2826,1212,1912,1298,2788,2050,2901,1310,1039,1278,2804,2035,2813,1211,1912,1316,2793,2052,2884,1308,1040,1297,2806
1782219245.1257,8.3724,1,lf,0.0986,0.0986,-0.1000,0,0.3309,0.3319,-0.1020,-0.0006,0.0007,-0.0059,CLIMB,5,1,0,13.0,0.000,4.280,1,-1,0,-1.0,-13.0,-1.0,0.0,0.0,0.0,2037,2826,1212,1912,1298,2788,2050,2901,1310,1039,1278,2804,2035,2813,1211,1912,1316,2793,2052,2884,1308,1040,1297,2806
1782219245.1457,8.3925,1,lf,0.0986,0.0986,-0.1000,0,0.3309,0.3319,-0.1020,-0.0006,0.0007,-0.0059,CLIMB,5,1,0,13.0,0.000,4.300,1,-1,0,-1.0,-13.0,-1.0,0.0,0.0,0.0,2037,2826,1212,1912,1298,2788,2050,2901,1310,1039,1278,2804,2036,2813,1210,1912,1316,2793,2052,2884,1308,1040,1297,2806
1782219245.1658,8.4125,1,lf,0.0986,0.0986,-0.1000,0,0.3311,0.3316,-0.1020,-0.0006,0.0008,-0.0059,CLIMB,5,1,0,13.0,0.000,4.320,1,-1,0,-1.0,-13.0,-2.0,0.0,0.0,0.0,2037,2826,1212,1912,1298,2788,2050,2901,1310,1039,1278,2804,2036,2813,1210,1912,1316,2793,2052,2884,1308,1040,1297,2806
1782219245.1857,8.4324,1,lf,0.0986,0.0986,-0.1000,0,0.3311,0.3316,-0.1020,-0.0007,0.0009,-0.0059,CLIMB,5,1,0,14.0,0.000,4.340,1,-1,0,-1.0,-14.0,-1.0,0.0,0.0,0.0,2037,2826,1212,1912,1298,2788,2050,2901,1310,1039,1278,2804,2036,2813,1210,1912,1316,2793,2052,2884,1308,1040,1297,2806
1782219245.2057,8.4525,1,lf,0.0986,0.0986,-0.1000,0,0.3311,0.3316,-0.1020,-0.0007,0.0010,-0.0059,CLIMB,5,1,0,14.0,0.000,4.360,1,-1,0,-1.0,-14.0,-1.0,0.0,0.0,0.0,2037,2826,1212,1912,1298,2788,2050,2901,1310,1039,1278,2804,2036,2812,1211,1912,1316,2793,2052,2884,1308,1040,1297,2806
1782219245.2258,8.4725,1,lf,0.0986,0.0986,-0.1000,0,0.3311,0.3315,-0.1022,-0.0006,0.0010,-0.0058,CLIMB,5,1,0,14.0,0.000,4.380,1,-1,0,-2.0,-14.0,-1.0,0.0,0.0,0.0,2037,2826,1212,1912,1298,2788,2050,2901,1310,1039,1278,2804,2036,2812,1211,1912,1316,2793,2052,2884,1308,1040,1297,2806
1782219245.2457,8.4924,1,lf,0.0986,0.0986,-0.1000,0,0.3311,0.3315,-0.1022,-0.0006,0.0010,-0.0058,CLIMB,5,1,0,14.0,0.000,4.400,1,-1,0,-2.0,-14.0,-1.0,0.0,0.0,0.0,2037,2826,1212,1912,1298,2788,2050,2901,1310,1039,1278,2804,2036,2812,1211,1912,1316,2794,2052,2884,1309,1040,1297,2806
1782219245.2658,8.5125,1,lf,0.0986,0.0986,-0.1000,0,0.3311,0.3315,-0.1022,-0.0006,0.0010,-0.0057,CLIMB,5,1,0,14.0,0.000,4.420,1,-1,0,-1.0,-14.0,-1.0,0.0,0.0,0.0,2037,2826,1212,1912,1298,2788,2050,2901,1310,1039,1278,2804,2036,2812,1211,1912,1316,2794,2052,2884,1309,1040,1297,2806
1782219245.2857,8.5325,1,lf,0.0986,0.0986,-0.1000,0,0.3311,0.3315,-0.1022,-0.0006,0.0011,-0.0057,CLIMB,5,1,0,14.0,0.000,4.440,1,-1,0,-2.0,-14.0,-1.0,0.0,0.0,0.0,2037,2826,1212,1912,1298,2788,2050,2901,1310,1039,1278,2804,2036,2812,1211,1912,1316,2794,2052,2884,1309,1040,1297,2806
1782219245.3058,8.5525,1,lf,0.0986,0.0986,-0.1000,0,0.3311,0.3315,-0.1022,-0.0006,0.0011,-0.0057,CLIMB,5,1,0,14.0,0.000,4.460,1,-1,0,-2.0,-14.0,-1.0,0.0,0.0,0.0,2037,2826,1212,1912,1298,2788,2050,2901,1310,1039,1278,2804,2035,2812,1211,1912,1316,2793,2052,2884,1308,1040,1297,2806
1782219245.3257,8.5724,1,lf,0.0986,0.0986,-0.1000,0,0.3308,0.3318,-0.1022,-0.0005,0.0009,-0.0057,CLIMB,5,1,0,13.0,0.000,4.480,1,-1,0,-1.0,-13.0,-1.0,0.0,0.0,0.0,2037,2826,1212,1912,1298,2788,2050,2901,1310,1039,1278,2804,2035,2812,1211,1912,1316,2793,2052,2884,1308,1040,1297,2806
1782219245.3457,8.5925,1,lf,0.0986,0.0986,-0.1000,0,0.3308,0.3318,-0.1022,-0.0005,0.0008,-0.0057,CLIMB,5,1,0,13.0,0.000,4.500,1,-1,0,-2.0,-13.0,-1.0,0.0,0.0,0.0,2037,2826,1212,1912,1298,2788,2050,2901,1310,1039,1278,2804,2035,2813,1211,1912,1316,2793,2052,2884,1309,1039,1297,2806
1782219245.3657,8.6125,1,lf,0.0986,0.0986,-0.1000,0,0.3309,0.3319,-0.1020,-0.0005,0.0007,-0.0058,CLIMB,5,1,0,13.0,0.000,4.520,1,-1,0,-2.0,-13.0,-1.0,0.0,0.0,0.0,2037,2826,1212,1912,1298,2788,2050,2901,1310,1039,1278,2804,2035,2813,1211,1912,1316,2793,2052,2884,1309,1039,1297,2806
1782219245.3857,8.6324,1,lf,0.0986,0.0986,-0.1000,0,0.3309,0.3319,-0.1020,-0.0005,0.0007,-0.0059,CLIMB,5,1,0,14.0,0.000,4.540,1,-1,0,-1.0,-14.0,-1.0,0.0,0.0,0.0,2037,2826,1212,1912,1298,2788,2050,2901,1310,1039,1278,2804,2035,2813,1211,1912,1316,2793,2052,2884,1309,1039,1297,2806
1782219245.4057,8.6525,1,lf,0.0986,0.0986,-0.1000,0,0.3309,0.3319,-0.1020,-0.0006,0.0007,-0.0059,CLIMB,5,1,0,14.0,0.000,4.560,1,-1,0,-1.0,-14.0,-1.0,0.0,0.0,0.0,2037,2826,1212,1912,1298,2788,2050,2901,1310,1039,1278,2804,2036,2812,1211,1912,1316,2793,2052,2884,1308,1040,1297,2806
1782219245.4257,8.6724,1,lf,0.0986,0.0986,-0.1000,0,0.3311,0.3315,-0.1022,-0.0006,0.0009,-0.0058,CLIMB,5,1,0,14.0,0.000,4.580,1,-1,0,-1.0,-14.0,-2.0,0.0,0.0,0.0,2037,2826,1212,1912,1298,2788,2050,2901,1310,1039,1278,2804,2036,2812,1211,1912,1316,2793,2052,2884,1308,1040,1297,2806
1782219245.4457,8.6924,1,lf,0.0986,0.0986,-0.1000,0,0.3311,0.3315,-0.1022,-0.0006,0.0010,-0.0058,CLIMB,5,1,0,14.0,0.000,4.600,1,-1,0,-2.0,-14.0,-1.0,0.0,0.0,0.0,2037,2826,1212,1912,1298,2788,2050,2901,1310,1039,1278,2804,2035,2812,1211,1912,1316,2793,2052,2884,1309,1040,1297,2806
1782219245.4657,8.7124,1,lf,0.0986,0.0986,-0.1000,0,0.3308,0.3318,-0.1022,-0.0005,0.0009,-0.0058,CLIMB,5,1,0,14.0,0.000,4.620,1,-1,0,-2.0,-14.0,-1.0,0.0,0.0,0.0,2037,2826,1212,1912,1298,2788,2050,2901,1310,1039,1278,2804,2035,2812,1211,1912,1316,2793,2052,2884,1309,1040,1297,2806
1782219245.4857,8.7325,1,lf,0.0986,0.0986,-0.1000,0,0.3308,0.3318,-0.1022,-0.0005,0.0008,-0.0057,CLIMB,5,1,0,13.0,0.000,4.640,1,-1,0,-1.0,-13.0,-1.0,0.0,0.0,0.0,2037,2826,1212,1912,1298,2788,2050,2901,1310,1039,1278,2804,2035,2812,1211,1912,1316,2793,2052,2884,1309,1040,1297,2806
1782219245.5058,8.7525,1,lf,0.0986,0.0986,-0.1000,0,0.3308,0.3318,-0.1022,-0.0005,0.0008,-0.0057,CLIMB,5,1,0,13.0,0.000,4.660,1,-1,0,-1.0,-13.0,-1.0,0.0,0.0,0.0,2037,2826,1212,1912,1298,2788,2050,2901,1310,1039,1278,2804,2036,2813,1211,1912,1316,2793,2052,2884,1308,1040,1297,2806
1782219245.5258,8.7725,1,lf,0.0986,0.0986,-0.1000,0,0.3312,0.3316,-0.1020,-0.0006,0.0009,-0.0059,CLIMB,5,1,0,13.0,0.000,4.680,1,-1,0,-1.0,-13.0,-1.0,0.0,0.0,0.0,2037,2826,1212,1912,1298,2788,2050,2901,1310,1039,1278,2804,2036,2813,1211,1912,1316,2793,2052,2884,1308,1040,1297,2806
1782219245.5457,8.7924,1,lf,0.0986,0.0986,-0.1000,0,0.3312,0.3316,-0.1020,-0.0007,0.0009,-0.0059,CLIMB,5,1,0,14.0,0.000,4.700,1,-1,0,-1.0,-14.0,-1.0,0.0,0.0,0.0,2037,2826,1212,1912,1298,2788,2050,2901,1310,1039,1278,2804,2036,2812,1211,1912,1316,2794,2052,2884,1309,1040,1297,2806
1782219245.5657,8.8124,1,lf,0.0986,0.0986,-0.1000,0,0.3311,0.3315,-0.1022,-0.0006,0.0010,-0.0058,CLIMB,5,1,0,14.0,0.000,4.720,1,-1,0,-1.0,-14.0,-1.0,0.0,0.0,0.0,2037,2826,1212,1912,1298,2788,2050,2901,1310,1039,1278,2804,2036,2812,1211,1912,1316,2794,2052,2884,1309,1040,1297,2806
1782219245.5857,8.8324,1,lf,0.0986,0.0986,-0.1000,0,0.3311,0.3315,-0.1022,-0.0006,0.0010,-0.0058,CLIMB,5,1,0,13.0,0.000,4.740,1,-1,0,-1.0,-13.0,-1.0,0.0,0.0,0.0,2037,2826,1212,1912,1298,2788,2050,2901,1310,1039,1278,2804,2036,2812,1211,1912,1316,2794,2052,2884,1309,1040,1297,2806
1782219245.6057,8.8524,1,lf,0.0986,0.0986,-0.1000,0,0.3311,0.3315,-0.1022,-0.0006,0.0010,-0.0058,CLIMB,5,1,0,13.0,0.000,4.760,1,-1,0,-1.0,-13.0,-1.0,0.0,0.0,0.0,2037,2826,1212,1912,1298,2788,2050,2901,1310,1039,1278,2804,2036,2813,1211,1912,1316,2793,2052,2884,1308,1040,1297,2806
1782219245.6257,8.8724,1,lf,0.0986,0.0986,-0.1000,0,0.3312,0.3316,-0.1020,-0.0007,0.0010,-0.0059,CLIMB,5,1,0,13.0,0.000,4.780,1,-1,0,-1.0,-13.0,-1.0,0.0,0.0,0.0,2037,2826,1212,1912,1298,2788,2050,2901,1310,1039,1278,2804,2036,2813,1211,1912,1316,2793,2052,2884,1308,1040,1297,2806
1782219245.6457,8.8924,1,lf,0.0986,0.0986,-0.1000,0,0.3312,0.3316,-0.1020,-0.0007,0.0010,-0.0059,CLIMB,5,1,0,14.0,0.000,4.800,1,-1,0,-2.0,-14.0,-1.0,0.0,0.0,0.0,2037,2826,1212,1912,1298,2788,2050,2901,1310,1039,1278,2804,2035,2812,1211,1912,1316,2793,2052,2884,1308,1040,1297,2806
1782219245.6657,8.9125,1,lf,0.0986,0.0986,-0.1000,0,0.3308,0.3318,-0.1022,-0.0006,0.0009,-0.0058,CLIMB,5,1,0,14.0,0.000,4.820,1,-1,0,-2.0,-14.0,-1.0,0.0,0.0,0.0,2037,2826,1212,1912,1298,2788,2050,2901,1310,1039,1278,2804,2035,2812,1211,1912,1316,2793,2052,2884,1308,1040,1297,2806
1782219245.6857,8.9324,1,lf,0.0986,0.0986,-0.1000,0,0.3308,0.3318,-0.1022,-0.0005,0.0008,-0.0058,CLIMB,5,1,0,14.0,0.000,4.840,1,-1,0,-2.0,-14.0,-1.0,0.0,0.0,0.0,2037,2826,1212,1912,1298,2788,2050,2901,1310,1039,1278,2804,2035,2812,1211,1912,1316,2793,2052,2884,1308,1040,1297,2806
1782219245.7057,8.9524,1,lf,0.0986,0.0986,-0.1000,0,0.3308,0.3318,-0.1022,-0.0005,0.0008,-0.0057,CLIMB,5,1,0,14.0,0.000,4.860,1,-1,0,-2.0,-14.0,-1.0,0.0,0.0,0.0,2037,2826,1212,1912,1298,2788,2050,2901,1310,1039,1278,2804,2035,2812,1211,1912,1316,2793,2052,2884,1309,1040,1297,2806
1782219245.7257,8.9725,1,lf,0.0986,0.0986,-0.1000,0,0.3308,0.3318,-0.1022,-0.0004,0.0008,-0.0057,CLIMB,5,1,0,14.0,0.000,4.880,1,-1,0,-2.0,-14.0,-1.0,0.0,0.0,0.0,2037,2826,1212,1912,1298,2788,2050,2901,1310,1039,1278,2804,2035,2812,1211,1912,1316,2793,2052,2884,1309,1040,1297,2806
1782219245.7457,8.9924,1,lf,0.0986,0.0986,-0.1000,0,0.3308,0.3318,-0.1022,-0.0004,0.0008,-0.0057,CLIMB,5,1,0,13.0,0.000,4.900,1,-1,0,-2.0,-13.0,-1.0,0.0,0.0,0.0,2037,2826,1212,1912,1298,2788,2050,2901,1310,1039,1278,2804,2035,2813,1211,1912,1316,2793,2052,2884,1309,1040,1297,2806
1782219245.7656,9.0123,1,lf,0.0986,0.0986,-0.1000,0,0.3309,0.3319,-0.1020,-0.0005,0.0007,-0.0058,CLIMB,5,1,0,13.0,0.000,4.920,1,-1,0,-2.0,-13.0,-1.0,0.0,0.0,0.0,2037,2826,1212,1912,1298,2788,2050,2901,1310,1039,1278,2804,2035,2813,1211,1912,1316,2793,2052,2884,1309,1040,1297,2806
1782219245.7857,9.0324,1,lf,0.0986,0.0986,-0.1000,0,0.3309,0.3319,-0.1020,-0.0005,0.0007,-0.0059,CLIMB,5,1,0,13.0,0.000,4.940,1,-1,0,-2.0,-13.0,-1.0,0.0,0.0,0.0,2037,2826,1212,1912,1298,2788,2050,2901,1310,1039,1278,2804,2035,2813,1211,1912,1316,2793,2052,2884,1309,1040,1297,2806
1782219245.8057,9.0524,1,lf,0.0986,0.0986,-0.1000,0,0.3309,0.3319,-0.1020,-0.0006,0.0007,-0.0059,CLIMB,5,1,0,14.0,0.000,4.960,1,-1,0,-1.0,-14.0,-1.0,0.0,0.0,0.0,2037,2826,1212,1912,1298,2788,2050,2901,1310,1039,1278,2804,2036,2812,1211,1913,1316,2793,2052,2884,1308,1040,1297,2806
1782219245.8257,9.0724,1,lf,0.0986,0.0986,-0.1000,0,0.3311,0.3315,-0.1022,-0.0006,0.0009,-0.0058,CLIMB,5,1,0,13.0,0.000,4.980,1,-1,0,-1.0,-13.0,-1.0,0.0,0.0,0.0,2037,2826,1212,1912,1298,2788,2050,2901,1310,1039,1278,2804,2036,2812,1211,1913,1316,2793,2052,2884,1308,1040,1297,2806
1782219245.8459,9.0926,1,lf,0.0986,0.0986,-0.1000,0,0.3311,0.3315,-0.1022,-0.0006,0.0010,-0.0058,CLIMB,5,1,0,13.0,0.000,5.000,1,-1,0,-1.0,-13.0,-1.0,0.0,0.0,0.0,2037,2826,1212,1912,1298,2788,2050,2901,1310,1039,1278,2804,2036,2813,1211,1912,1316,2793,2052,2884,1308,1039,1297,2806
1782219245.8657,9.1124,1,lf,0.0986,0.0986,-0.1000,0,0.3312,0.3316,-0.1020,-0.0007,0.0010,-0.0059,CLIMB,5,1,0,14.0,0.000,5.020,1,-1,0,-2.0,-14.0,-1.0,0.0,0.0,0.0,2037,2826,1212,1912,1298,2788,2050,2901,1310,1039,1278,2804,2036,2813,1211,1912,1316,2793,2052,2884,1308,1039,1297,2806
1782219245.8857,9.1325,1,lf,0.0986,0.0986,-0.1000,0,0.3312,0.3316,-0.1020,-0.0007,0.0010,-0.0059,CLIMB,5,1,0,14.0,0.000,5.040,1,-1,0,-2.0,-14.0,-1.0,0.0,0.0,0.0,2037,2826,1212,1912,1298,2788,2050,2901,1310,1039,1278,2804,2036,2813,1211,1912,1316,2793,2052,2884,1308,1039,1297,2806
1782219245.9056,9.1523,1,lf,0.0986,0.0986,-0.1000,0,0.3312,0.3316,-0.1020,-0.0007,0.0010,-0.0059,CLIMB,5,1,0,14.0,0.000,5.060,1,-1,0,-2.0,-14.0,-1.0,0.0,0.0,0.0,2037,2826,1212,1912,1298,2788,2050,2901,1310,1039,1278,2804,2035,2812,1211,1912,1316,2794,2052,2884,1309,1040,1297,2806
1782219245.9257,9.1724,1,lf,0.0986,0.0986,-0.1000,0,0.3308,0.3318,-0.1022,-0.0006,0.0009,-0.0058,CLIMB,5,1,0,14.0,0.000,5.080,1,-1,0,-1.0,-14.0,-1.0,0.0,0.0,0.0,2037,2826,1212,1912,1298,2788,2050,2901,1310,1039,1278,2804,2035,2812,1211,1912,1316,2794,2052,2884,1309,1040,1297,2806
1782219245.9457,9.1924,1,lf,0.0986,0.0986,-0.1000,0,0.3308,0.3318,-0.1022,-0.0005,0.0008,-0.0058,CLIMB,5,1,0,14.0,0.000,5.100,1,-1,0,-1.0,-14.0,-1.0,0.0,0.0,0.0,2037,2826,1212,1912,1298,2788,2050,2901,1310,1039,1278,2804,2035,2812,1211,1912,1316,2793,2052,2884,1308,1040,1297,2806
1782219245.9657,9.2125,1,lf,0.0986,0.0986,-0.1000,0,0.3308,0.3318,-0.1022,-0.0005,0.0008,-0.0057,CLIMB,5,1,0,14.0,0.000,5.120,1,-1,0,-2.0,-14.0,-1.0,0.0,0.0,0.0,2037,2826,1212,1912,1298,2788,2050,2901,1310,1039,1278,2804,2035,2812,1211,1912,1316,2793,2052,2884,1308,1040,1297,2806
1782219245.9856,9.2324,1,lf,0.0986,0.0986,-0.1000,0,0.3308,0.3318,-0.1022,-0.0005,0.0008,-0.0057,CLIMB,5,1,0,14.0,0.000,5.140,1,-1,0,-1.0,-14.0,-1.0,0.0,0.0,0.0,2037,2826,1212,1912,1298,2788,2050,2901,1310,1039,1278,2804,2035,2812,1211,1912,1316,2793,2052,2884,1308,1040,1297,2806
1782219246.0057,9.2525,1,lf,0.0986,0.0986,-0.1000,0,0.3308,0.3318,-0.1022,-0.0004,0.0008,-0.0057,CLIMB,5,1,0,14.0,0.000,5.160,1,-1,0,-1.0,-14.0,-1.0,0.0,0.0,0.0,2037,2826,1212,1912,1298,2788,2050,2901,1310,1039,1278,2804,2036,2812,1211,1912,1316,2793,2052,2884,1309,1040,1297,2806
1782219246.0257,9.2725,1,lf,0.0986,0.0986,-0.1000,0,0.3311,0.3315,-0.1022,-0.0005,0.0009,-0.0057,CLIMB,5,1,0,14.0,0.000,5.180,1,-1,0,-2.0,-14.0,-1.0,0.0,0.0,0.0,2037,2826,1212,1912,1298,2788,2050,2901,1310,1039,1278,2804,2036,2812,1211,1912,1316,2793,2052,2884,1309,1040,1297,2806
1782219246.0457,9.2925,1,lf,0.0986,0.0986,-0.1000,0,0.3311,0.3315,-0.1022,-0.0006,0.0010,-0.0057,CLIMB,5,1,0,14.0,0.000,5.200,1,-1,0,-2.0,-14.0,-1.0,0.0,0.0,0.0,2037,2826,1212,1912,1298,2788,2050,2901,1310,1039,1278,2804,2036,2813,1211,1912,1316,2793,2052,2884,1309,1040,1297,2806
1782219246.0657,9.3124,1,lf,0.0986,0.0986,-0.1000,0,0.3312,0.3316,-0.1020,-0.0007,0.0010,-0.0058,CLIMB,5,1,0,13.0,0.000,5.220,1,-1,0,-1.0,-13.0,-1.0,0.0,0.0,0.0,2037,2826,1212,1912,1298,2788,2050,2901,1310,1039,1278,2804,2036,2813,1211,1912,1316,2793,2052,2884,1309,1040,1297,2806
1782219246.0857,9.3324,1,lf,0.0986,0.0986,-0.1000,0,0.3312,0.3316,-0.1020,-0.0007,0.0010,-0.0059,CLIMB,5,1,0,14.0,0.000,5.240,1,-1,0,-1.0,-14.0,-1.0,0.0,0.0,0.0,2037,2826,1212,1912,1298,2788,2050,2901,1310,1039,1278,2804,2036,2813,1211,1912,1316,2793,2052,2884,1309,1040,1297,2806
1782219246.1057,9.3524,1,lf,0.0986,0.0986,-0.1000,0,0.3312,0.3316,-0.1020,-0.0008,0.0010,-0.0059,CLIMB,5,1,0,14.0,0.000,5.260,1,-1,0,-1.0,-14.0,-1.0,0.0,0.0,0.0,2037,2826,1212,1912,1298,2788,2050,2901,1310,1039,1278,2804,2036,2812,1211,1912,1316,2793,2052,2884,1309,1040,1297,2806
1782219246.1257,9.3724,1,lf,0.0986,0.0986,-0.1000,0,0.3311,0.3315,-0.1022,-0.0007,0.0010,-0.0058,CLIMB,5,1,0,14.0,0.000,5.280,1,-1,0,-2.0,-14.0,-1.0,0.0,0.0,0.0,2037,2826,1212,1912,1298,2788,2050,2901,1310,1039,1278,2804,2036,2812,1211,1912,1316,2793,2052,2884,1309,1040,1297,2806
1782219246.1457,9.3924,1,lf,0.0986,0.0986,-0.1000,0,0.3311,0.3315,-0.1022,-0.0007,0.0011,-0.0058,CLIMB,5,1,0,14.0,0.000,5.300,1,-1,0,-2.0,-14.0,-1.0,0.0,0.0,0.0,2037,2826,1212,1912,1298,2788,2050,2901,1310,1039,1278,2804,2035,2812,1211,1912,1316,2793,2052,2884,1308,1040,1297,2806
1782219246.1657,9.4124,1,lf,0.0986,0.0986,-0.1000,0,0.3308,0.3318,-0.1022,-0.0006,0.0009,-0.0057,CLIMB,5,1,0,14.0,0.000,5.320,1,-1,0,-2.0,-14.0,-1.0,0.0,0.0,0.0,2037,2826,1212,1912,1298,2788,2050,2901,1310,1039,1278,2804,2035,2812,1211,1912,1316,2793,2052,2884,1308,1040,1297,2806
1782219246.1857,9.4324,1,lf,0.0986,0.0986,-0.1000,0,0.3308,0.3318,-0.1022,-0.0005,0.0008,-0.0057,CLIMB,5,1,0,13.0,0.000,5.340,1,-1,0,-2.0,-13.0,-1.0,0.0,0.0,0.0,2037,2826,1212,1912,1298,2788,2050,2901,1310,1039,1278,2804,2035,2812,1211,1912,1316,2793,2052,2884,1308,1040,1297,2806
1782219246.2057,9.4525,1,lf,0.0986,0.0986,-0.1000,0,0.3308,0.3318,-0.1022,-0.0005,0.0008,-0.0057,CLIMB,5,1,0,13.0,0.000,5.360,1,-1,0,-2.0,-13.0,-1.0,0.0,0.0,0.0,2037,2826,1212,1912,1298,2788,2050,2901,1310,1039,1278,2804,2035,2813,1211,1912,1316,2793,2052,2884,1309,1040,1297,2806
1782219246.2257,9.4724,1,lf,0.0986,0.0986,-0.1000,0,0.3309,0.3319,-0.1020,-0.0005,0.0007,-0.0058,CLIMB,5,1,0,14.0,0.000,5.380,1,-1,0,-1.0,-14.0,-1.0,0.0,0.0,0.0,2037,2826,1212,1912,1298,2788,2050,2901,1310,1039,1278,2804,2035,2813,1211,1912,1316,2793,2052,2884,1309,1040,1297,2806
1782219246.2457,9.4924,1,lf,0.0986,0.0986,-0.1000,0,0.3309,0.3319,-0.1020,-0.0005,0.0007,-0.0059,CLIMB,5,1,0,13.0,0.000,5.400,1,-1,0,-2.0,-13.0,-2.0,0.0,0.0,0.0,2037,2826,1212,1912,1298,2788,2050,2901,1310,1039,1278,2804,2035,2813,1210,1912,1316,2793,2052,2884,1309,1040,1297,2806
1782219246.2657,9.5124,1,lf,0.0986,0.0986,-0.1000,0,0.3309,0.3318,-0.1020,-0.0005,0.0007,-0.0059,CLIMB,5,1,0,13.0,0.000,5.420,1,-1,0,-2.0,-13.0,-2.0,0.0,0.0,0.0,2037,2826,1212,1912,1298,2788,2050,2901,1310,1039,1278,2804,2035,2813,1210,1912,1316,2793,2052,2884,1309,1040,1297,2806
1782219246.2857,9.5324,1,lf,0.0986,0.0986,-0.1000,0,0.3309,0.3318,-0.1020,-0.0005,0.0007,-0.0059,CLIMB,5,1,0,14.0,0.000,5.440,1,-1,0,-2.0,-14.0,-1.0,0.0,0.0,0.0,2037,2826,1212,1912,1298,2788,2050,2901,1310,1039,1278,2804,2035,2813,1210,1912,1316,2793,2052,2884,1309,1040,1297,2806
1782219246.3057,9.5524,1,lf,0.0986,0.0986,-0.1000,0,0.3309,0.3318,-0.1020,-0.0005,0.0007,-0.0059,CLIMB,5,1,0,14.0,0.000,5.460,1,-1,0,-1.0,-14.0,-1.0,0.0,0.0,0.0,2037,2826,1212,1912,1298,2788,2050,2901,1310,1039,1278,2804,2036,2812,1211,1912,1316,2793,2052,2884,1308,1040,1297,2806
1782219246.3257,9.5724,1,lf,0.0986,0.0986,-0.1000,0,0.3311,0.3315,-0.1022,-0.0006,0.0009,-0.0058,CLIMB,5,1,0,14.0,0.000,5.480,1,-1,0,-1.0,-14.0,-1.0,0.0,0.0,0.0,2037,2826,1212,1912,1298,2788,2050,2901,1310,1039,1278,2804,2036,2812,1211,1912,1316,2793,2052,2884,1308,1040,1297,2806
1782219246.3456,9.5923,1,lf,0.0986,0.0986,-0.1000,0,0.3311,0.3315,-0.1022,-0.0006,0.0010,-0.0058,CLIMB,5,1,0,14.0,0.000,5.500,1,-1,0,-2.0,-14.0,-1.0,0.0,0.0,0.0,2037,2826,1212,1912,1298,2788,2050,2901,1310,1039,1278,2804,2035,2812,1211,1912,1316,2793,2052,2884,1309,1040,1297,2806
1782219246.3657,9.6124,1,lf,0.0986,0.0986,-0.1000,0,0.3308,0.3318,-0.1022,-0.0005,0.0009,-0.0057,CLIMB,5,1,0,14.0,0.000,5.520,1,-1,0,-2.0,-14.0,-1.0,0.0,0.0,0.0,2037,2826,1212,1912,1298,2788,2050,2901,1310,1039,1278,2804,2035,2812,1211,1912,1316,2793,2052,2884,1309,1040,1297,2806
1782219246.3857,9.6324,1,lf,0.0986,0.0986,-0.1000,0,0.3308,0.3318,-0.1022,-0.0005,0.0008,-0.0057,CLIMB,5,1,0,13.0,0.000,5.540,1,-1,0,-1.0,-13.0,-1.0,0.0,0.0,0.0,2037,2826,1212,1912,1298,2788,2050,2901,1310,1039,1278,2804,2035,2812,1211,1912,1316,2793,2052,2884,1309,1040,1297,2806
1782219246.4057,9.6524,1,lf,0.0986,0.0986,-0.1000,0,0.3308,0.3318,-0.1022,-0.0005,0.0008,-0.0057,CLIMB,5,1,0,14.0,0.000,5.560,1,-1,0,-1.0,-14.0,-1.0,0.0,0.0,0.0,2037,2826,1212,1912,1298,2788,2050,2901,1310,1039,1278,2804,2036,2812,1211,1912,1316,2793,2052,2884,1309,1040,1297,2806
1782219246.4257,9.6725,1,lf,0.0986,0.0986,-0.1000,0,0.3311,0.3315,-0.1022,-0.0005,0.0010,-0.0057,CLIMB,5,1,0,14.0,0.000,5.580,1,-1,0,-1.0,-14.0,-1.0,0.0,0.0,0.0,2037,2826,1212,1912,1298,2788,2050,2901,1310,1039,1278,2804,2036,2812,1211,1912,1316,2793,2052,2884,1309,1040,1297,2806
1782219246.4457,9.6924,1,lf,0.0986,0.0986,-0.1000,0,0.3311,0.3315,-0.1022,-0.0006,0.0010,-0.0057,CLIMB,5,1,0,13.0,0.000,5.600,1,-1,0,-1.0,-13.0,-2.0,0.0,0.0,0.0,2037,2826,1212,1912,1298,2788,2050,2901,1310,1039,1278,2804,2036,2813,1210,1912,1316,2793,2052,2884,1308,1040,1297,2806
1782219246.4657,9.7125,1,lf,0.0986,0.0986,-0.1000,0,0.3311,0.3316,-0.1020,-0.0007,0.0010,-0.0058,CLIMB,5,1,0,14.0,0.000,5.620,1,-1,0,-1.0,-14.0,-1.0,0.0,0.0,0.0,2037,2826,1212,1912,1298,2788,2050,2901,1310,1039,1278,2804,2036,2813,1210,1912,1316,2793,2052,2884,1308,1040,1297,2806
1782219246.4857,9.7324,1,lf,0.0986,0.0986,-0.1000,0,0.3311,0.3316,-0.1020,-0.0007,0.0010,-0.0058,CLIMB,5,1,0,14.0,0.000,5.640,1,-1,0,-1.0,-14.0,-1.0,0.0,0.0,0.0,2037,2826,1212,1912,1298,2788,2050,2901,1310,1039,1278,2804,2036,2813,1210,1912,1316,2793,2052,2884,1308,1040,1297,2806
1782219246.5057,9.7524,1,lf,0.0986,0.0986,-0.1000,0,0.3311,0.3316,-0.1020,-0.0007,0.0010,-0.0059,CLIMB,5,1,0,14.0,0.000,5.660,1,-1,0,-1.0,-14.0,-2.0,0.0,0.0,0.0,2037,2826,1212,1912,1298,2788,2050,2901,1310,1039,1278,2804,2036,2812,1210,1913,1316,2793,2052,2884,1309,1040,1297,2806
1782219246.5257,9.7724,1,lf,0.0986,0.0986,-0.1000,0,0.3310,0.3315,-0.1022,-0.0006,0.0011,-0.0058,CLIMB,5,1,0,14.0,0.000,5.680,1,-1,0,-1.0,-14.0,-2.0,0.0,0.0,0.0,2037,2826,1212,1912,1298,2788,2050,2901,1310,1039,1278,2804,2036,2812,1210,1913,1316,2793,2052,2884,1309,1040,1297,2806
1782219246.5457,9.7924,1,lf,0.0986,0.0986,-0.1000,0,0.3310,0.3315,-0.1022,-0.0006,0.0011,-0.0058,CLIMB,5,1,0,14.0,0.000,5.700,1,-1,0,-1.0,-14.0,-1.0,0.0,0.0,0.0,2037,2826,1212,1912,1298,2788,2050,2901,1310,1039,1278,2804,2036,2812,1211,1912,1316,2793,2052,2884,1308,1040,1297,2806
