DreamSnakecc/climbing_ws/test_logs/dxl_autotune_20260623_205243/leg_endpoint/trial_06_id_1_p_110/single_swing_lf_20260623_205502.csv
wall_time,elapsed_s,cycle,leg,cmd_x,cmd_y,cmd_z,cmd_support,ujc_x,ujc_y,ujc_z,body_x,body_y,body_z,mission_state,servo_phase_id,servo_gate_enabled,servo_ready,servo_max_abs_error_tick,servo_within_tolerance_s,servo_wait_s,servo_timed_out,servo_last_pass_phase_id,servo_last_pass_sequence,servo_error_joint1_tick,servo_error_joint2_tick,servo_error_joint3_tick,servo_last_pass_error_joint1_tick,servo_last_pass_error_joint2_tick,servo_last_pass_error_joint3_tick,ticks_cmd_11,ticks_cmd_1,ticks_cmd_2,ticks_cmd_12,ticks_cmd_3,ticks_cmd_4,ticks_cmd_13,ticks_cmd_5,ticks_cmd_6,ticks_cmd_14,ticks_cmd_7,ticks_cmd_8,ticks_act_11,ticks_act_1,ticks_act_2,ticks_act_12,ticks_act_3,ticks_act_4,ticks_act_13,ticks_act_5,ticks_act_6,ticks_act_14,ticks_act_7,ticks_act_8
1782219304.9139,2.7692,1,lf,0.0986,0.0986,-0.1100,0,0.3318,0.3323,-0.1103,-0.0019,0.0012,0.0023,CLIMB,4,1,0,0.0,0.000,0.000,0,-1,0,0.0,0.0,0.0,0.0,0.0,0.0,2037,2781,1318,1912,1298,2788,2050,2901,1310,1039,1278,2804,2036,2776,1313,1912,1316,2792,2052,2884,1308,1040,1284,2805
1782219304.9215,2.7768,1,lf,0.0986,0.0986,-0.1100,0,0.3318,0.3323,-0.1103,-0.0019,0.0012,0.0023,CLIMB,4,1,0,0.0,0.000,0.000,0,-1,0,0.0,0.0,0.0,0.0,0.0,0.0,2037,2781,1318,1912,1298,2788,2050,2901,1310,1039,1278,2804,2036,2776,1313,1912,1316,2792,2052,2884,1308,1040,1284,2805
1782219304.9416,2.7969,1,lf,0.0986,0.0986,-0.1100,0,0.3318,0.3323,-0.1103,-0.0019,0.0011,0.0022,CLIMB,4,1,0,0.0,0.000,0.000,0,-1,0,0.0,0.0,0.0,0.0,0.0,0.0,2037,2781,1318,1912,1298,2788,2050,2901,1310,1039,1278,2804,2035,2776,1313,1912,1316,2791,2052,2884,1308,1041,1283,2805
1782219304.9616,2.8169,1,lf,0.0986,0.0986,-0.1100,0,0.3316,0.3325,-0.1103,-0.0017,0.0008,0.0022,CLIMB,4,1,0,0.0,0.000,0.000,0,-1,0,0.0,0.0,0.0,0.0,0.0,0.0,2037,2781,1318,1912,1298,2788,2050,2901,1310,1039,1278,2804,2035,2776,1313,1912,1316,2791,2052,2884,1308,1041,1283,2805
1782219304.9816,2.8369,1,lf,0.0986,0.0986,-0.1100,0,0.3316,0.3325,-0.1103,-0.0017,0.0008,0.0022,CLIMB,4,1,0,0.0,0.000,0.000,0,-1,0,0.0,0.0,0.0,0.0,0.0,0.0,2037,2781,1318,1912,1298,2788,2050,2901,1310,1039,1278,2804,2035,2776,1313,1912,1316,2791,2052,2884,1308,1041,1283,2805
1782219305.0016,2.8569,1,lf,0.0986,0.0986,-0.1100,0,0.3316,0.3325,-0.1103,-0.0017,0.0007,0.0022,CLIMB,4,1,0,0.0,0.000,0.000,0,-1,0,0.0,0.0,0.0,0.0,0.0,0.0,2037,2781,1318,1912,1298,2788,2050,2901,1310,1039,1278,2804,2035,2776,1313,1912,1316,2791,2052,2884,1309,1041,1284,2805
1782219305.0216,2.8769,1,lf,0.0986,0.0986,-0.1100,0,0.3316,0.3325,-0.1103,-0.0017,0.0007,0.0022,CLIMB,4,1,0,0.0,0.000,0.000,0,-1,0,0.0,0.0,0.0,0.0,0.0,0.0,2037,2781,1318,1912,1298,2788,2050,2901,1310,1039,1278,2804,2035,2776,1313,1912,1316,2791,2052,2884,1309,1041,1284,2805
1782219305.0417,2.8970,1,lf,0.0986,0.0986,-0.1100,0,0.3316,0.3325,-0.1103,-0.0016,0.0007,0.0022,CLIMB,4,1,0,0.0,0.000,0.000,0,-1,0,0.0,0.0,0.0,0.0,0.0,0.0,2037,2781,1318,1912,1298,2788,2050,2901,1310,1039,1278,2804,2036,2776,1313,1913,1316,2792,2052,2884,1309,1041,1284,2805
1782219305.0616,2.9170,1,lf,0.0986,0.0986,-0.1100,0,0.3318,0.3323,-0.1103,-0.0017,0.0009,0.0022,CLIMB,4,1,0,0.0,0.000,0.000,0,-1,0,0.0,0.0,0.0,0.0,0.0,0.0,2037,2781,1318,1912,1298,2788,2050,2901,1310,1039,1278,2804,2036,2776,1313,1913,1316,2792,2052,2884,1309,1041,1284,2805
1782219305.0815,2.9369,1,lf,0.0986,0.0986,-0.1100,0,0.3318,0.3323,-0.1103,-0.0018,0.0010,0.0022,CLIMB,4,1,0,0.0,0.000,0.000,0,-1,0,0.0,0.0,0.0,0.0,0.0,0.0,2037,2781,1318,1912,1298,2788,2050,2901,1310,1039,1278,2804,2036,2776,1313,1913,1316,2792,2052,2884,1309,1041,1284,2805
1782219305.1017,2.9570,1,lf,0.0986,0.0986,-0.1100,0,0.3318,0.3323,-0.1103,-0.0018,0.0010,0.0022,CLIMB,4,1,0,0.0,0.000,0.000,0,-1,0,0.0,0.0,0.0,0.0,0.0,0.0,2037,2781,1318,1912,1298,2788,2050,2901,1310,1039,1278,2804,2036,2776,1313,1912,1316,2792,2052,2884,1308,1040,1284,2805
1782219305.1216,2.9770,1,lf,0.0986,0.0986,-0.1100,0,0.3318,0.3323,-0.1103,-0.0018,0.0010,0.0022,CLIMB,4,1,0,0.0,0.000,0.000,0,-1,0,0.0,0.0,0.0,0.0,0.0,0.0,2037,2781,1318,1912,1298,2788,2050,2901,1310,1039,1278,2804,2036,2776,1313,1912,1316,2792,2052,2884,1308,1040,1284,2805
1782219305.1416,2.9969,1,lf,0.0986,0.0986,-0.1100,0,0.3318,0.3323,-0.1103,-0.0018,0.0010,0.0022,CLIMB,4,1,0,0.0,0.000,0.000,0,-1,0,0.0,0.0,0.0,0.0,0.0,0.0,2037,2781,1318,1912,1298,2788,2050,2901,1310,1039,1278,2804,2036,2776,1314,1912,1316,2792,2052,2884,1309,1041,1284,2805
1782219305.1617,3.0170,1,lf,0.0986,0.0986,-0.1100,0,0.3319,0.3323,-0.1103,-0.0019,0.0010,0.0022,CLIMB,4,1,0,0.0,0.000,0.000,0,-1,0,0.0,0.0,0.0,0.0,0.0,0.0,2037,2781,1318,1912,1298,2788,2050,2901,1310,1039,1278,2804,2036,2776,1314,1912,1316,2792,2052,2884,1309,1041,1284,2805
1782219305.1815,3.0368,1,lf,0.0986,0.0986,-0.1100,0,0.3319,0.3323,-0.1103,-0.0019,0.0010,0.0022,CLIMB,4,1,0,0.0,0.000,0.000,0,-1,0,0.0,0.0,0.0,0.0,0.0,0.0,2037,2781,1318,1912,1298,2788,2050,2901,1310,1039,1278,2804,2036,2776,1314,1912,1316,2792,2052,2884,1309,1041,1284,2805
1782219305.2016,3.0569,1,lf,0.0986,0.0986,-0.1100,0,0.3316,0.3325,-0.1103,-0.0018,0.0009,0.0023,CLIMB,4,1,0,0.0,0.000,0.000,0,-1,0,0.0,0.0,0.0,0.0,0.0,0.0,2037,2781,1318,1912,1298,2788,2050,2901,1310,1039,1278,2804,2035,2776,1313,1912,1316,2792,2052,2884,1309,1041,1284,2805
1782219305.2216,3.0769,1,lf,0.0986,0.0986,-0.1100,0,0.3316,0.3325,-0.1103,-0.0017,0.0008,0.0023,CLIMB,4,1,0,0.0,0.000,0.000,0,-1,0,0.0,0.0,0.0,0.0,0.0,0.0,2037,2781,1318,1912,1298,2788,2050,2901,1310,1039,1278,2804,2035,2776,1313,1912,1316,2792,2052,2884,1309,1041,1284,2805
1782219305.2416,3.0970,1,lf,0.0986,0.0986,-0.1100,0,0.3316,0.3325,-0.1103,-0.0017,0.0008,0.0023,CLIMB,4,1,0,0.0,0.000,0.000,0,-1,0,0.0,0.0,0.0,0.0,0.0,0.0,2037,2781,1318,1912,1298,2788,2050,2901,1310,1039,1278,2804,2036,2776,1313,1912,1316,2791,2052,2884,1308,1040,1284,2805
1782219305.2616,3.1169,1,lf,0.0986,0.0986,-0.1100,0,0.3318,0.3323,-0.1103,-0.0018,0.0009,0.0023,CLIMB,4,1,0,0.0,0.000,0.000,0,-1,0,0.0,0.0,0.0,0.0,0.0,0.0,2037,2781,1318,1912,1298,2788,2050,2901,1310,1039,1278,2804,2036,2776,1313,1912,1316,2791,2052,2884,1308,1040,1284,2805
1782219305.2816,3.1369,1,lf,0.0986,0.0986,-0.1100,0,0.3318,0.3323,-0.1103,-0.0018,0.0010,0.0023,CLIMB,4,1,0,0.0,0.000,0.000,0,-1,0,0.0,0.0,0.0,0.0,0.0,0.0,2037,2781,1318,1912,1298,2788,2050,2901,1310,1039,1278,2804,2036,2776,1313,1912,1316,2791,2052,2884,1308,1040,1284,2805
1782219305.3016,3.1570,1,lf,0.0986,0.0986,-0.1100,0,0.3318,0.3323,-0.1103,-0.0018,0.0010,0.0023,CLIMB,4,1,0,0.0,0.000,0.000,0,-1,0,0.0,0.0,0.0,0.0,0.0,0.0,2037,2781,1318,1912,1298,2788,2050,2901,1310,1039,1278,2804,2036,2776,1313,1912,1316,2792,2052,2884,1308,1040,1284,2805
1782219305.3216,3.1769,1,lf,0.0986,0.0986,-0.1100,0,0.3318,0.3323,-0.1103,-0.0018,0.0010,0.0023,CLIMB,4,1,0,0.0,0.000,0.000,0,-1,0,0.0,0.0,0.0,0.0,0.0,0.0,2037,2781,1318,1912,1298,2788,2050,2901,1310,1039,1278,2804,2036,2776,1313,1912,1316,2792,2052,2884,1308,1040,1284,2805
1782219305.3415,3.1969,1,lf,0.0986,0.0986,-0.1100,0,0.3318,0.3323,-0.1103,-0.0018,0.0010,0.0023,CLIMB,4,1,0,0.0,0.000,0.000,0,-1,0,0.0,0.0,0.0,0.0,0.0,0.0,2037,2781,1318,1912,1298,2788,2050,2901,1310,1039,1278,2804,2036,2776,1313,1912,1316,2791,2052,2884,1308,1041,1284,2805
1782219305.3616,3.2169,1,lf,0.0986,0.0986,-0.1100,0,0.3318,0.3323,-0.1103,-0.0018,0.0010,0.0023,CLIMB,4,1,0,0.0,0.000,0.000,0,-1,0,0.0,0.0,0.0,0.0,0.0,0.0,2037,2781,1318,1912,1298,2788,2050,2901,1310,1039,1278,2804,2036,2776,1313,1912,1316,2791,2052,2884,1308,1041,1284,2805
1782219305.3816,3.2370,1,lf,0.0986,0.0986,-0.1100,0,0.3318,0.3323,-0.1103,-0.0018,0.0010,0.0023,CLIMB,4,1,0,0.0,0.000,0.000,0,-1,0,0.0,0.0,0.0,0.0,0.0,0.0,2037,2781,1318,1912,1298,2788,2050,2901,1310,1039,1278,2804,2036,2776,1313,1912,1316,2791,2052,2884,1308,1041,1284,2805
1782219305.4015,3.2569,1,lf,0.0986,0.0986,-0.1100,0,0.3318,0.3323,-0.1103,-0.0018,0.0010,0.0023,CLIMB,4,1,0,0.0,0.000,0.000,0,-1,0,0.0,0.0,0.0,0.0,0.0,0.0,2037,2781,1318,1912,1298,2788,2050,2901,1310,1039,1278,2804,2036,2776,1313,1912,1316,2792,2052,2884,1308,1041,1284,2805
1782219305.4216,3.2769,1,lf,0.0986,0.0986,-0.1100,0,0.3318,0.3323,-0.1103,-0.0018,0.0010,0.0023,CLIMB,4,1,0,0.0,0.000,0.000,0,-1,0,0.0,0.0,0.0,0.0,0.0,0.0,2037,2781,1318,1912,1298,2788,2050,2901,1310,1039,1278,2804,2036,2776,1313,1912,1316,2792,2052,2884,1308,1041,1284,2805
1782219305.4416,3.2970,1,lf,0.0986,0.0986,-0.1100,0,0.3318,0.3323,-0.1103,-0.0018,0.0011,0.0023,CLIMB,4,1,0,0.0,0.000,0.000,0,-1,0,0.0,0.0,0.0,0.0,0.0,0.0,2037,2781,1318,1912,1298,2788,2050,2901,1310,1039,1278,2804,2035,2776,1313,1912,1316,2791,2052,2884,1308,1041,1284,2805
1782219305.4616,3.3169,1,lf,0.0986,0.0986,-0.1100,0,0.3316,0.3325,-0.1103,-0.0017,0.0009,0.0023,CLIMB,4,1,0,0.0,0.000,0.000,0,-1,0,0.0,0.0,0.0,0.0,0.0,0.0,2037,2781,1318,1912,1298,2788,2050,2901,1310,1039,1278,2804,2035,2776,1313,1912,1316,2791,2052,2884,1308,1041,1284,2805
1782219305.4816,3.3369,1,lf,0.0986,0.0986,-0.1100,0,0.3316,0.3325,-0.1103,-0.0017,0.0008,0.0023,CLIMB,4,1,0,0.0,0.000,0.000,0,-1,0,0.0,0.0,0.0,0.0,0.0,0.0,2037,2781,1318,1912,1298,2788,2050,2901,1310,1039,1278,2804,2035,2776,1313,1912,1316,2791,2052,2884,1308,1041,1284,2805
1782219305.5016,3.3569,1,lf,0.0986,0.0986,-0.1100,0,0.3316,0.3326,-0.1103,-0.0017,0.0008,0.0023,CLIMB,4,1,0,0.0,0.000,0.000,0,-1,0,0.0,0.0,0.0,0.0,0.0,0.0,2037,2781,1318,1912,1298,2788,2050,2901,1310,1039,1278,2804,2035,2776,1314,1912,1316,2792,2052,2884,1309,1041,1284,2805
1782219305.5216,3.3769,1,lf,0.0986,0.0986,-0.1100,0,0.3316,0.3326,-0.1103,-0.0017,0.0007,0.0023,CLIMB,4,1,0,0.0,0.000,0.000,0,-1,0,0.0,0.0,0.0,0.0,0.0,0.0,2037,2781,1318,1912,1298,2788,2050,2901,1310,1039,1278,2804,2035,2776,1314,1912,1316,2792,2052,2884,1309,1041,1284,2805
1782219305.5416,3.3969,1,lf,0.0986,0.0986,-0.1100,0,0.3316,0.3326,-0.1103,-0.0017,0.0007,0.0023,CLIMB,4,1,0,0.0,0.000,0.000,0,-1,0,0.0,0.0,0.0,0.0,0.0,0.0,2037,2781,1318,1912,1298,2788,2050,2901,1310,1039,1278,2804,2035,2776,1313,1912,1316,2792,2052,2884,1308,1041,1284,2805
1782219305.5616,3.4169,1,lf,0.0986,0.0986,-0.1100,0,0.3316,0.3325,-0.1103,-0.0017,0.0007,0.0023,CLIMB,4,1,0,0.0,0.000,0.000,0,-1,0,0.0,0.0,0.0,0.0,0.0,0.0,2037,2781,1318,1912,1298,2788,2050,2901,1310,1039,1278,2804,2035,2776,1313,1912,1316,2792,2052,2884,1308,1041,1284,2805
1782219305.5816,3.4369,1,lf,0.0986,0.0986,-0.1100,0,0.3316,0.3325,-0.1103,-0.0016,0.0007,0.0023,CLIMB,4,1,0,0.0,0.000,0.000,0,-1,0,0.0,0.0,0.0,0.0,0.0,0.0,2037,2781,1318,1912,1298,2788,2050,2901,1310,1039,1278,2804,2035,2776,1313,1912,1316,2792,2052,2884,1308,1041,1284,2805
1782219305.6016,3.4569,1,lf,0.0986,0.0986,-0.1100,0,0.3318,0.3323,-0.1103,-0.0017,0.0009,0.0023,CLIMB,4,1,0,0.0,0.000,0.000,0,-1,0,0.0,0.0,0.0,0.0,0.0,0.0,2037,2781,1318,1912,1298,2788,2050,2901,1310,1039,1278,2804,2036,2776,1313,1912,1316,2792,2052,2884,1308,1040,1284,2806
1782219305.6216,3.4769,1,lf,0.0986,0.0986,-0.1100,0,0.3318,0.3323,-0.1103,-0.0018,0.0009,0.0023,CLIMB,4,1,0,0.0,0.000,0.000,0,-1,0,0.0,0.0,0.0,0.0,0.0,0.0,2037,2781,1318,1912,1298,2788,2050,2901,1310,1039,1278,2804,2036,2776,1313,1912,1316,2792,2052,2884,1308,1040,1284,2806
1782219305.6416,3.4969,1,lf,0.0986,0.0986,-0.1100,0,0.3318,0.3323,-0.1103,-0.0018,0.0010,0.0023,CLIMB,4,1,0,0.0,0.000,0.000,0,-1,0,0.0,0.0,0.0,0.0,0.0,0.0,2037,2781,1318,1912,1298,2788,2050,2901,1310,1039,1278,2804,2035,2776,1313,1912,1316,2792,2052,2884,1309,1040,1284,2806
1782219305.6616,3.5169,1,lf,0.0986,0.0986,-0.1100,0,0.3316,0.3325,-0.1103,-0.0017,0.0008,0.0023,CLIMB,4,1,0,0.0,0.000,0.000,0,-1,0,0.0,0.0,0.0,0.0,0.0,0.0,2037,2781,1318,1912,1298,2788,2050,2901,1310,1039,1278,2804,2035,2776,1313,1912,1316,2792,2052,2884,1309,1040,1284,2806
1782219305.6816,3.5369,1,lf,0.0986,0.0986,-0.1100,0,0.3316,0.3325,-0.1103,-0.0017,0.0008,0.0023,CLIMB,4,1,0,0.0,0.000,0.000,0,-1,0,0.0,0.0,0.0,0.0,0.0,0.0,2037,2781,1318,1912,1298,2788,2050,2901,1310,1039,1278,2804,2035,2776,1313,1912,1316,2792,2052,2884,1309,1040,1284,2806
1782219305.7016,3.5569,1,lf,0.0986,0.0986,-0.1100,0,0.3316,0.3325,-0.1103,-0.0016,0.0008,0.0023,CLIMB,4,1,0,0.0,0.000,0.000,0,-1,0,0.0,0.0,0.0,0.0,0.0,0.0,2037,2781,1318,1912,1298,2788,2050,2901,1310,1039,1278,2804,2035,2776,1313,1912,1316,2792,2052,2884,1308,1041,1284,2805
1782219305.7216,3.5769,1,lf,0.0986,0.0986,-0.1100,0,0.3316,0.3325,-0.1103,-0.0016,0.0007,0.0023,CLIMB,4,1,0,0.0,0.000,0.000,0,-1,0,0.0,0.0,0.0,0.0,0.0,0.0,2037,2781,1318,1912,1298,2788,2050,2901,1310,1039,1278,2804,2035,2776,1313,1912,1316,2792,2052,2884,1308,1041,1284,2805
1782219305.7416,3.5969,1,lf,0.0986,0.0986,-0.1100,0,0.3316,0.3325,-0.1103,-0.0016,0.0007,0.0023,CLIMB,4,1,0,0.0,0.000,0.000,0,-1,0,0.0,0.0,0.0,0.0,0.0,0.0,2037,2781,1318,1912,1298,2788,2050,2901,1310,1039,1278,2804,2035,2776,1313,1912,1316,2791,2052,2884,1308,1040,1283,2805
1782219305.7616,3.6169,1,lf,0.0986,0.0986,-0.1100,0,0.3316,0.3325,-0.1103,-0.0016,0.0007,0.0023,CLIMB,4,1,0,0.0,0.000,0.000,0,-1,0,0.0,0.0,0.0,0.0,0.0,0.0,2037,2781,1318,1912,1298,2788,2050,2901,1310,1039,1278,2804,2035,2776,1313,1912,1316,2791,2052,2884,1308,1040,1283,2805
1782219305.7816,3.6369,1,lf,0.0986,0.0986,-0.1100,0,0.3316,0.3325,-0.1103,-0.0016,0.0007,0.0023,CLIMB,4,1,0,0.0,0.000,0.000,0,-1,0,0.0,0.0,0.0,0.0,0.0,0.0,2037,2781,1318,1912,1298,2788,2050,2901,1310,1039,1278,2804,2035,2776,1313,1912,1316,2791,2052,2884,1308,1040,1283,2805
1782219305.8016,3.6569,1,lf,0.0986,0.0986,-0.1100,0,0.3318,0.3323,-0.1103,-0.0017,0.0009,0.0022,CLIMB,4,1,0,0.0,0.000,0.000,0,-1,0,0.0,0.0,0.0,0.0,0.0,0.0,2037,2781,1318,1912,1298,2788,2050,2901,1310,1039,1278,2804,2036,2776,1313,1912,1316,2792,2052,2884,1308,1040,1284,2805
1782219305.8216,3.6769,1,lf,0.0986,0.0986,-0.1100,0,0.3318,0.3323,-0.1103,-0.0018,0.0010,0.0022,CLIMB,4,1,0,0.0,0.000,0.000,0,-1,0,0.0,0.0,0.0,0.0,0.0,0.0,2037,2781,1318,1912,1298,2788,2050,2901,1310,1039,1278,2804,2036,2776,1313,1912,1316,2792,2052,2884,1308,1040,1284,2805
1782219305.8416,3.6969,1,lf,0.0986,0.0986,-0.1100,0,0.3318,0.3323,-0.1103,-0.0018,0.0010,0.0022,CLIMB,4,1,0,0.0,0.000,0.000,0,-1,0,0.0,0.0,0.0,0.0,0.0,0.0,2037,2781,1318,1912,1298,2788,2050,2901,1310,1039,1278,2804,2035,2776,1313,1912,1316,2792,2052,2884,1309,1041,1284,2805
1782219305.8616,3.7169,1,lf,0.0986,0.0986,-0.1100,0,0.3316,0.3325,-0.1103,-0.0017,0.0008,0.0022,CLIMB,4,1,0,0.0,0.000,0.000,0,-1,0,0.0,0.0,0.0,0.0,0.0,0.0,2037,2781,1318,1912,1298,2788,2050,2901,1310,1039,1278,2804,2035,2776,1313,1912,1316,2792,2052,2884,1309,1041,1284,2805
1782219305.8815,3.7368,1,lf,0.0986,0.0986,-0.1100,0,0.3316,0.3325,-0.1103,-0.0017,0.0008,0.0022,CLIMB,4,1,0,0.0,0.000,0.000,0,-1,0,0.0,0.0,0.0,0.0,0.0,0.0,2037,2781,1318,1912,1298,2788,2050,2901,1310,1039,1278,2804,2035,2776,1313,1912,1316,2792,2052,2884,1309,1041,1284,2805
1782219305.9016,3.7569,1,lf,0.0986,0.0986,-0.1100,0,0.3318,0.3323,-0.1103,-0.0017,0.0009,0.0022,CLIMB,4,1,0,0.0,0.000,0.000,0,-1,0,0.0,0.0,0.0,0.0,0.0,0.0,2037,2781,1318,1912,1298,2788,2050,2901,1310,1039,1278,2804,2036,2776,1313,1912,1316,2792,2052,2884,1309,1041,1284,2805
1782219305.9216,3.7769,1,lf,0.0986,0.0986,-0.1100,0,0.3318,0.3323,-0.1103,-0.0018,0.0010,0.0022,CLIMB,4,1,0,0.0,0.000,0.000,0,-1,0,0.0,0.0,0.0,0.0,0.0,0.0,2037,2781,1318,1912,1298,2788,2050,2901,1310,1039,1278,2804,2036,2776,1313,1912,1316,2792,2052,2884,1309,1041,1284,2805
1782219305.9415,3.7969,1,lf,0.0986,0.0986,-0.1100,0,0.3318,0.3323,-0.1103,-0.0018,0.0010,0.0022,CLIMB,5,1,0,0.0,0.000,0.000,0,-1,0,0.0,0.0,0.0,0.0,0.0,0.0,2037,2781,1318,1912,1298,2788,2050,2901,1310,1039,1278,2804,2036,2776,1313,1912,1316,2792,2052,2884,1308,1041,1284,2805
1782219305.9615,3.8169,1,lf,0.0986,0.0986,-0.1100,0,0.3318,0.3323,-0.1103,-0.0018,0.0010,0.0022,CLIMB,5,1,0,0.0,0.000,0.000,0,-1,0,0.0,0.0,0.0,0.0,0.0,0.0,2037,2781,1318,1912,1298,2788,2050,2901,1310,1039,1278,2804,2036,2776,1313,1912,1316,2792,2052,2884,1308,1041,1284,2805
1782219305.9815,3.8369,1,lf,0.0986,0.0986,-0.1097,0,0.3318,0.3323,-0.1103,-0.0018,0.0010,0.0022,CLIMB,5,1,0,0.0,0.000,0.000,0,-1,0,0.0,0.0,0.0,0.0,0.0,0.0,2037,2781,1318,1912,1298,2788,2050,2901,1310,1039,1278,2804,2036,2776,1313,1912,1316,2792,2052,2884,1308,1041,1284,2805
1782219306.0016,3.8570,1,lf,0.0986,0.0986,-0.1091,0,0.3318,0.3323,-0.1103,-0.0018,0.0010,0.0022,CLIMB,5,1,0,0.0,0.000,0.000,0,-1,0,0.0,0.0,0.0,0.0,0.0,0.0,2037,2782,1315,1912,1298,2788,2050,2901,1310,1039,1278,2804,2036,2776,1313,1912,1316,2792,2052,2884,1308,1041,1284,2805
1782219306.0216,3.8769,1,lf,0.0986,0.0986,-0.1081,0,0.3318,0.3323,-0.1103,-0.0018,0.0010,0.0022,CLIMB,5,1,0,0.0,0.000,0.000,0,-1,0,0.0,0.0,0.0,0.0,0.0,0.0,2037,2785,1308,1912,1298,2788,2050,2901,1310,1039,1278,2804,2036,2776,1313,1912,1316,2792,2052,2884,1308,1041,1284,2805
1782219306.0416,3.8969,1,lf,0.0986,0.0986,-0.1068,0,0.3318,0.3323,-0.1103,-0.0018,0.0010,0.0022,CLIMB,5,1,0,0.0,0.000,0.000,0,-1,0,0.0,0.0,0.0,0.0,0.0,0.0,2037,2789,1297,1912,1298,2788,2050,2901,1310,1039,1278,2804,2035,2776,1313,1912,1316,2792,2052,2884,1308,1041,1284,2805
1782219306.0616,3.9169,1,lf,0.0986,0.0986,-0.1054,0,0.3316,0.3325,-0.1103,-0.0017,0.0009,0.0022,CLIMB,5,1,0,0.0,0.000,0.000,0,-1,0,0.0,0.0,0.0,0.0,0.0,0.0,2037,2795,1283,1912,1298,2788,2050,2901,1310,1039,1278,2804,2035,2776,1313,1912,1316,2792,2052,2884,1308,1041,1284,2805
1782219306.0815,3.9368,1,lf,0.0986,0.0986,-0.1039,0,0.3316,0.3325,-0.1103,-0.0017,0.0008,0.0022,CLIMB,5,1,0,0.0,0.000,0.000,0,-1,0,0.0,0.0,0.0,0.0,0.0,0.0,2037,2802,1267,1912,1298,2788,2050,2901,1310,1039,1278,2804,2035,2776,1313,1912,1316,2792,2052,2884,1308,1041,1284,2805
1782219306.1016,3.9569,1,lf,0.0986,0.0986,-0.1025,0,0.3318,0.3323,-0.1103,-0.0017,0.0009,0.0022,CLIMB,5,1,0,0.0,0.000,0.000,0,-1,0,0.0,0.0,0.0,0.0,0.0,0.0,2037,2809,1251,1912,1298,2788,2050,2901,1310,1039,1278,2804,2036,2776,1313,1912,1316,2791,2052,2884,1308,1041,1284,2805
1782219306.1215,3.9769,1,lf,0.0986,0.0986,-0.1014,0,0.3318,0.3323,-0.1103,-0.0018,0.0010,0.0022,CLIMB,5,1,0,0.0,0.000,0.000,0,-1,0,0.0,0.0,0.0,0.0,0.0,0.0,2037,2815,1237,1912,1298,2788,2050,2901,1310,1039,1278,2804,2036,2776,1313,1912,1316,2791,2052,2884,1308,1041,1284,2805
1782219306.1416,3.9969,1,lf,0.0986,0.0986,-0.1006,0,0.3318,0.3323,-0.1103,-0.0018,0.0010,0.0022,CLIMB,5,1,0,0.0,0.000,0.000,0,-1,0,0.0,0.0,0.0,0.0,0.0,0.0,2037,2820,1225,1912,1298,2788,2050,2901,1310,1039,1278,2804,2036,2776,1313,1912,1316,2792,2052,2884,1308,1040,1284,2805
1782219306.1616,4.0170,1,lf,0.0986,0.0986,-0.1001,0,0.3318,0.3323,-0.1103,-0.0018,0.0010,0.0022,CLIMB,5,1,0,0.0,0.000,0.000,0,-1,0,0.0,0.0,0.0,0.0,0.0,0.0,2037,2823,1217,1912,1298,2788,2050,2901,1310,1039,1278,2804,2036,2776,1313,1912,1316,2792,2052,2884,1308,1040,1284,2805
1782219306.1816,4.0369,1,lf,0.0986,0.0986,-0.1000,0,0.3318,0.3323,-0.1103,-0.0018,0.0010,0.0022,CLIMB,5,1,0,0.0,0.000,0.000,0,-1,0,0.0,0.0,0.0,0.0,0.0,0.0,2037,2825,1213,1912,1298,2788,2050,2901,1310,1039,1278,2804,2036,2776,1313,1912,1316,2792,2052,2884,1308,1040,1284,2805
1782219306.2016,4.0569,1,lf,0.0986,0.0986,-0.1000,0,0.3315,0.3325,-0.1103,-0.0017,0.0009,0.0021,CLIMB,5,1,0,97.0,0.000,0.000,0,-1,0,-2.0,-50.0,97.0,0.0,0.0,0.0,2037,2826,1212,1912,1298,2788,2050,2901,1310,1039,1278,2804,2035,2776,1312,1912,1316,2791,2052,2884,1309,1041,1284,2805
1782219306.2216,4.0769,1,lf,0.0986,0.0986,-0.1000,0,0.3315,0.3325,-0.1103,-0.0017,0.0008,0.0021,CLIMB,5,1,0,97.0,0.000,0.020,0,-1,0,-2.0,-50.0,97.0,0.0,0.0,0.0,2037,2826,1212,1912,1298,2788,2050,2901,1310,1039,1278,2804,2035,2776,1312,1912,1316,2791,2052,2884,1309,1041,1284,2805
1782219306.2416,4.0969,1,lf,0.0986,0.0986,-0.1000,0,0.3315,0.3325,-0.1103,-0.0016,0.0008,0.0021,CLIMB,5,1,0,89.0,0.000,0.040,0,-1,0,-1.0,-50.0,89.0,0.0,0.0,0.0,2037,2826,1212,1912,1298,2788,2050,2901,1310,1039,1278,2804,2036,2776,1301,1912,1316,2791,2052,2884,1308,1040,1284,2805
1782219306.2616,4.1169,1,lf,0.0986,0.0986,-0.1000,0,0.3312,0.3317,-0.1103,-0.0014,0.0011,0.0021,CLIMB,5,1,0,77.0,0.000,0.060,0,-1,0,-2.0,-48.0,77.0,0.0,0.0,0.0,2037,2826,1212,1912,1298,2788,2050,2901,1310,1039,1278,2804,2036,2776,1301,1912,1316,2791,2052,2884,1308,1040,1284,2805
1782219306.2816,4.1369,1,lf,0.0986,0.0986,-0.1000,0,0.3312,0.3317,-0.1103,-0.0012,0.0013,0.0021,CLIMB,5,1,0,77.0,0.000,0.080,0,-1,0,-2.0,-48.0,77.0,0.0,0.0,0.0,2037,2826,1212,1912,1298,2788,2050,2901,1310,1039,1278,2804,2036,2776,1301,1912,1316,2791,2052,2884,1308,1040,1284,2805
1782219306.3015,4.1569,1,lf,0.0986,0.0986,-0.1000,0,0.3306,0.3311,-0.1091,-0.0008,0.0016,0.0015,CLIMB,5,1,0,64.0,0.000,0.100,0,-1,0,-1.0,-45.0,64.0,0.0,0.0,0.0,2037,2826,1212,1912,1298,2788,2050,2901,1310,1039,1278,2804,2036,2781,1276,1912,1316,2792,2052,2884,1309,1041,1284,2805
1782219306.3216,4.1769,1,lf,0.0986,0.0986,-0.1000,0,0.3306,0.3311,-0.1091,-0.0006,0.0018,0.0012,CLIMB,5,1,0,49.0,0.000,0.120,0,-1,0,-2.0,-42.0,49.0,0.0,0.0,0.0,2037,2826,1212,1912,1298,2788,2050,2901,1310,1039,1278,2804,2036,2781,1276,1912,1316,2792,2052,2884,1309,1041,1284,2805
1782219306.3416,4.1969,1,lf,0.0986,0.0986,-0.1000,0,0.3306,0.3311,-0.1091,-0.0004,0.0019,0.0010,CLIMB,5,1,0,49.0,0.000,0.140,0,-1,0,-2.0,-42.0,49.0,0.0,0.0,0.0,2037,2826,1212,1912,1298,2788,2050,2901,1310,1039,1278,2804,2035,2784,1261,1912,1316,2792,2052,2884,1308,1041,1284,2805
1782219306.3616,4.2169,1,lf,0.0986,0.0986,-0.1000,0,0.3300,0.3310,-0.1084,-0.0001,0.0019,0.0005,CLIMB,5,1,0,37.0,0.000,0.160,0,-1,0,-2.0,-37.0,36.0,0.0,0.0,0.0,2037,2826,1212,1912,1298,2788,2050,2901,1310,1039,1278,2804,2035,2784,1261,1912,1316,2792,2052,2884,1308,1041,1284,2805
1782219306.3816,4.2369,1,lf,0.0986,0.0986,-0.1000,0,0.3300,0.3310,-0.1084,0.0001,0.0019,0.0003,CLIMB,5,1,0,37.0,0.000,0.180,0,-1,0,-2.0,-37.0,36.0,0.0,0.0,0.0,2037,2826,1212,1912,1298,2788,2050,2901,1310,1039,1278,2804,2035,2784,1261,1912,1316,2792,2052,2884,1308,1041,1284,2805
1782219306.4016,4.2569,1,lf,0.0986,0.0986,-0.1000,0,0.3303,0.3308,-0.1060,0.0001,0.0020,-0.0011,CLIMB,5,1,0,31.0,0.000,0.200,0,-1,0,-1.0,-31.0,24.0,0.0,0.0,0.0,2037,2826,1212,1912,1298,2788,2050,2901,1310,1039,1278,2804,2036,2795,1236,1912,1315,2791,2052,2884,1309,1041,1284,2805
1782219306.4216,4.2769,1,lf,0.0986,0.0986,-0.1000,0,0.3303,0.3308,-0.1060,0.0001,0.0021,-0.0018,CLIMB,5,1,0,27.0,0.000,0.220,0,-1,0,-1.0,-27.0,15.0,0.0,0.0,0.0,2037,2826,1212,1912,1298,2788,2050,2901,1310,1039,1278,2804,2036,2795,1236,1912,1315,2791,2052,2884,1309,1041,1284,2805
1782219306.4417,4.2970,1,lf,0.0986,0.0986,-0.1000,0,0.3303,0.3308,-0.1060,0.0000,0.0021,-0.0021,CLIMB,5,1,0,27.0,0.000,0.240,0,-1,0,-1.0,-27.0,15.0,0.0,0.0,0.0,2037,2826,1212,1912,1298,2788,2050,2901,1310,1039,1278,2804,2036,2799,1227,1912,1316,2792,2052,2884,1309,1041,1284,2805
1782219306.4616,4.3169,1,lf,0.0986,0.0986,-0.1000,0,0.3304,0.3308,-0.1051,0.0000,0.0021,-0.0028,CLIMB,5,1,0,23.0,0.000,0.260,0,-1,0,-2.0,-23.0,9.0,0.0,0.0,0.0,2037,2826,1212,1912,1298,2788,2050,2901,1310,1039,1278,2804,2036,2799,1227,1912,1316,2792,2052,2884,1309,1041,1284,2805
1782219306.4816,4.3369,1,lf,0.0986,0.0986,-0.1000,0,0.3304,0.3308,-0.1051,-0.0000,0.0021,-0.0031,CLIMB,5,1,0,20.0,0.000,0.280,0,-1,0,-1.0,-20.0,3.0,0.0,0.0,0.0,2037,2826,1212,1912,1298,2788,2050,2901,1310,1039,1278,2804,2036,2799,1227,1912,1316,2792,2052,2884,1309,1041,1284,2805
1782219306.5016,4.3570,1,lf,0.0986,0.0986,-0.1000,0,0.3306,0.3311,-0.1035,-0.0002,0.0020,-0.0041,CLIMB,5,1,0,20.0,0.000,0.300,0,-1,0,-1.0,-20.0,3.0,0.0,0.0,0.0,2037,2826,1212,1912,1298,2788,2050,2901,1310,1039,1278,2804,2036,2806,1215,1912,1316,2791,2052,2884,1308,1040,1284,2805
1782219306.5216,4.3769,1,lf,0.0986,0.0986,-0.1000,0,0.3306,0.3311,-0.1035,-0.0003,0.0019,-0.0045,CLIMB,5,1,0,17.0,0.000,0.320,0,-1,0,-2.0,-17.0,1.0,0.0,0.0,0.0,2037,2826,1212,1912,1298,2788,2050,2901,1310,1039,1278,2804,2036,2806,1215,1912,1316,2791,2052,2884,1308,1040,1284,2805
1782219306.5416,4.3969,1,lf,0.0986,0.0986,-0.1000,0,0.3306,0.3311,-0.1035,-0.0003,0.0019,-0.0048,CLIMB,5,1,0,17.0,0.000,0.340,0,-1,0,-2.0,-17.0,1.0,0.0,0.0,0.0,2037,2826,1212,1912,1298,2788,2050,2901,1310,1039,1278,2804,2035,2809,1213,1912,1316,2792,2052,2884,1309,1040,1283,2805
1782219306.5616,4.4170,1,lf,0.0986,0.0986,-0.1000,0,0.3306,0.3315,-0.1029,-0.0004,0.0017,-0.0052,CLIMB,5,1,0,15.0,0.000,0.360,0,-1,0,-2.0,-15.0,-1.0,0.0,0.0,0.0,2037,2826,1212,1912,1298,2788,2050,2901,1310,1039,1278,2804,2035,2809,1213,1912,1316,2792,2052,2884,1309,1040,1283,2805
1782219306.5816,4.4369,1,lf,0.0986,0.0986,-0.1000,0,0.3306,0.3315,-0.1029,-0.0004,0.0015,-0.0054,CLIMB,5,1,0,14.0,0.000,0.380,0,-1,0,-2.0,-14.0,-1.0,0.0,0.0,0.0,2037,2826,1212,1912,1298,2788,2050,2901,1310,1039,1278,2804,2035,2809,1213,1912,1316,2792,2052,2884,1309,1040,1283,2805
1782219306.6016,4.4570,1,lf,0.0986,0.0986,-0.1000,0,0.3308,0.3318,-0.1022,-0.0006,0.0014,-0.0059,CLIMB,5,1,0,14.0,0.000,0.400,0,-1,0,-2.0,-14.0,-1.0,0.0,0.0,0.0,2037,2826,1212,1912,1298,2788,2050,2901,1310,1039,1278,2804,2035,2812,1211,1912,1316,2792,2052,2884,1308,1041,1284,2805
1782219306.6216,4.4769,1,lf,0.0986,0.0986,-0.1000,0,0.3308,0.3318,-0.1022,-0.0007,0.0013,-0.0061,CLIMB,5,1,0,14.0,0.000,0.420,0,-1,0,-1.0,-14.0,-1.0,0.0,0.0,0.0,2037,2826,1212,1912,1298,2788,2050,2901,1310,1039,1278,2804,2035,2812,1211,1912,1316,2792,2052,2884,1308,1041,1284,2805
1782219306.6415,4.4968,1,lf,0.0986,0.0986,-0.1000,0,0.3308,0.3318,-0.1022,-0.0007,0.0012,-0.0061,CLIMB,5,1,0,14.0,0.000,0.440,0,-1,0,-1.0,-14.0,-1.0,0.0,0.0,0.0,2037,2826,1212,1912,1298,2788,2050,2901,1310,1039,1278,2804,2036,2812,1211,1912,1315,2792,2053,2884,1309,1041,1283,2805
1782219306.6616,4.5170,1,lf,0.0986,0.0986,-0.1000,0,0.3311,0.3315,-0.1022,-0.0008,0.0013,-0.0062,CLIMB,5,1,0,14.0,0.000,0.460,0,-1,0,-1.0,-14.0,-1.0,0.0,0.0,0.0,2037,2826,1212,1912,1298,2788,2050,2901,1310,1039,1278,2804,2036,2812,1211,1912,1315,2792,2053,2884,1309,1041,1283,2805
1782219306.6816,4.5369,1,lf,0.0986,0.0986,-0.1000,0,0.3311,0.3315,-0.1022,-0.0009,0.0014,-0.0062,CLIMB,5,1,0,14.0,0.000,0.480,0,-1,0,-2.0,-14.0,-1.0,0.0,0.0,0.0,2037,2826,1212,1912,1298,2788,2050,2901,1310,1039,1278,2804,2036,2812,1211,1912,1315,2792,2053,2884,1309,1041,1283,2805
1782219306.7016,4.5570,1,lf,0.0986,0.0986,-0.1000,0,0.3308,0.3318,-0.1022,-0.0008,0.0013,-0.0061,CLIMB,5,1,0,14.0,0.000,0.500,0,-1,0,-2.0,-14.0,-1.0,0.0,0.0,0.0,2037,2826,1212,1912,1298,2788,2050,2901,1310,1039,1278,2804,2035,2812,1211,1912,1316,2792,2052,2884,1308,1040,1284,2805
1782219306.7216,4.5769,1,lf,0.0986,0.0986,-0.1000,0,0.3308,0.3318,-0.1022,-0.0008,0.0012,-0.0061,CLIMB,5,1,0,13.0,0.000,0.520,0,-1,0,-1.0,-13.0,-1.0,0.0,0.0,0.0,2037,2826,1212,1912,1298,2788,2050,2901,1310,1039,1278,2804,2035,2812,1211,1912,1316,2792,2052,2884,1308,1040,1284,2805
1782219306.7416,4.5969,1,lf,0.0986,0.0986,-0.1000,0,0.3308,0.3318,-0.1022,-0.0008,0.0012,-0.0061,CLIMB,5,1,0,14.0,0.000,0.540,0,-1,0,-1.0,-14.0,-1.0,0.0,0.0,0.0,2037,2826,1212,1912,1298,2788,2050,2901,1310,1039,1278,2804,2036,2812,1211,1912,1316,2791,2052,2884,1308,1041,1284,2805
1782219306.7616,4.6169,1,lf,0.0986,0.0986,-0.1000,0,0.3311,0.3315,-0.1022,-0.0009,0.0014,-0.0061,CLIMB,5,1,0,14.0,0.000,0.560,0,-1,0,-1.0,-14.0,-1.0,0.0,0.0,0.0,2037,2826,1212,1912,1298,2788,2050,2901,1310,1039,1278,2804,2036,2812,1211,1912,1316,2791,2052,2884,1308,1041,1284,2805
1782219306.7816,4.6369,1,lf,0.0986,0.0986,-0.1000,0,0.3311,0.3315,-0.1022,-0.0009,0.0014,-0.0061,CLIMB,5,1,0,14.0,0.000,0.580,0,-1,0,-2.0,-14.0,-1.0,0.0,0.0,0.0,2037,2826,1212,1912,1298,2788,2050,2901,1310,1039,1278,2804,2036,2812,1211,1912,1316,2791,2052,2884,1308,1041,1284,2805
1782219306.8016,4.6569,1,lf,0.0986,0.0986,-0.1000,0,0.3308,0.3318,-0.1022,-0.0009,0.0013,-0.0060,CLIMB,5,1,0,13.0,0.000,0.600,0,-1,0,-2.0,-13.0,-1.0,0.0,0.0,0.0,2037,2826,1212,1912,1298,2788,2050,2901,1310,1039,1278,2804,2035,2812,1211,1912,1316,2791,2052,2884,1309,1040,1283,2805
1782219306.8216,4.6769,1,lf,0.0986,0.0986,-0.1000,0,0.3308,0.3318,-0.1022,-0.0008,0.0013,-0.0060,CLIMB,5,1,0,13.0,0.000,0.620,0,-1,0,-2.0,-13.0,-1.0,0.0,0.0,0.0,2037,2826,1212,1912,1298,2788,2050,2901,1310,1039,1278,2804,2035,2812,1211,1912,1316,2791,2052,2884,1309,1040,1283,2805
1782219306.8416,4.6969,1,lf,0.0986,0.0986,-0.1000,0,0.3308,0.3318,-0.1022,-0.0008,0.0012,-0.0060,CLIMB,5,1,0,13.0,0.000,0.640,0,-1,0,-1.0,-13.0,-1.0,0.0,0.0,0.0,2037,2826,1212,1912,1298,2788,2050,2901,1310,1039,1278,2804,2036,2813,1211,1912,1316,2792,2052,2884,1308,1041,1284,2805
1782219306.8616,4.7169,1,lf,0.0986,0.0986,-0.1000,0,0.3312,0.3316,-0.1020,-0.0010,0.0013,-0.0061,CLIMB,5,1,0,13.0,0.000,0.660,0,-1,0,-1.0,-13.0,-1.0,0.0,0.0,0.0,2037,2826,1212,1912,1298,2788,2050,2901,1310,1039,1278,2804,2036,2813,1211,1912,1316,2792,2052,2884,1308,1041,1284,2805
1782219306.8816,4.7369,1,lf,0.0986,0.0986,-0.1000,0,0.3312,0.3316,-0.1020,-0.0010,0.0014,-0.0061,CLIMB,5,1,0,13.0,0.000,0.680,0,-1,0,-1.0,-13.0,-1.0,0.0,0.0,0.0,2037,2826,1212,1912,1298,2788,2050,2901,1310,1039,1278,2804,2036,2813,1211,1912,1316,2792,2052,2884,1308,1041,1284,2805
1782219306.9017,4.7570,1,lf,0.0986,0.0986,-0.1000,0,0.3312,0.3316,-0.1020,-0.0011,0.0014,-0.0061,CLIMB,5,1,0,13.0,0.000,0.700,0,-1,0,-2.0,-13.0,-1.0,0.0,0.0,0.0,2037,2826,1212,1912,1298,2788,2050,2901,1310,1039,1278,2804,2036,2813,1211,1912,1316,2792,2052,2884,1308,1040,1283,2805
1782219306.9216,4.7770,1,lf,0.0986,0.0986,-0.1000,0,0.3312,0.3316,-0.1020,-0.0011,0.0014,-0.0061,CLIMB,5,1,0,13.0,0.000,0.720,0,-1,0,-2.0,-13.0,-1.0,0.0,0.0,0.0,2037,2826,1212,1912,1298,2788,2050,2901,1310,1039,1278,2804,2036,2813,1211,1912,1316,2792,2052,2884,1308,1040,1283,2805
1782219306.9416,4.7969,1,lf,0.0986,0.0986,-0.1000,0,0.3312,0.3316,-0.1020,-0.0011,0.0014,-0.0061,CLIMB,5,1,0,14.0,0.000,0.740,0,-1,0,-2.0,-14.0,-1.0,0.0,0.0,0.0,2037,2826,1212,1912,1298,2788,2050,2901,1310,1039,1278,2804,2035,2812,1211,1912,1316,2792,2052,2884,1308,1040,1284,2805
1782219306.9615,4.8169,1,lf,0.0986,0.0986,-0.1000,0,0.3308,0.3318,-0.1022,-0.0009,0.0013,-0.0060,CLIMB,5,1,0,13.0,0.000,0.760,0,-1,0,-2.0,-13.0,-1.0,0.0,0.0,0.0,2037,2826,1212,1912,1298,2788,2050,2901,1310,1039,1278,2804,2035,2812,1211,1912,1316,2792,2052,2884,1308,1040,1284,2805
1782219306.9819,4.8372,1,lf,0.0986,0.0986,-0.1000,0,0.3308,0.3318,-0.1022,-0.0009,0.0013,-0.0060,CLIMB,5,1,0,13.0,0.000,0.780,0,-1,0,-2.0,-13.0,-1.0,0.0,0.0,0.0,2037,2826,1212,1912,1298,2788,2050,2901,1310,1039,1278,2804,2035,2812,1211,1912,1316,2792,2052,2884,1308,1040,1284,2805
1782219307.0016,4.8569,1,lf,0.0986,0.0986,-0.1000,0,0.3309,0.3319,-0.1020,-0.0009,0.0012,-0.0060,CLIMB,5,1,0,14.0,0.000,0.800,0,-1,0,-1.0,-14.0,-1.0,0.0,0.0,0.0,2037,2826,1212,1912,1298,2788,2050,2901,1310,1039,1278,2804,2035,2813,1211,1912,1316,2792,2052,2884,1308,1041,1284,2805
1782219307.0216,4.8769,1,lf,0.0986,0.0986,-0.1000,0,0.3309,0.3319,-0.1020,-0.0009,0.0012,-0.0061,CLIMB,5,1,0,14.0,0.000,0.820,0,-1,0,-1.0,-14.0,-1.0,0.0,0.0,0.0,2037,2826,1212,1912,1298,2788,2050,2901,1310,1039,1278,2804,2035,2813,1211,1912,1316,2792,2052,2884,1308,1041,1284,2805
1782219307.0416,4.8969,1,lf,0.0986,0.0986,-0.1000,0,0.3309,0.3319,-0.1020,-0.0009,0.0011,-0.0061,CLIMB,5,1,0,13.0,0.000,0.840,0,-1,0,-2.0,-13.0,-1.0,0.0,0.0,0.0,2037,2826,1212,1912,1298,2788,2050,2901,1310,1039,1278,2804,2035,2813,1211,1912,1315,2791,2052,2884,1309,1041,1284,2805
1782219307.0616,4.9169,1,lf,0.0986,0.0986,-0.1000,0,0.3309,0.3319,-0.1020,-0.0009,0.0011,-0.0061,CLIMB,5,1,0,13.0,0.000,0.860,0,-1,0,-1.0,-13.0,-1.0,0.0,0.0,0.0,2037,2826,1212,1912,1298,2788,2050,2901,1310,1039,1278,2804,2035,2813,1211,1912,1315,2791,2052,2884,1309,1041,1284,2805
1782219307.0816,4.9369,1,lf,0.0986,0.0986,-0.1000,0,0.3309,0.3319,-0.1020,-0.0009,0.0011,-0.0061,CLIMB,5,1,0,13.0,0.000,0.880,0,-1,0,-1.0,-13.0,-1.0,0.0,0.0,0.0,2037,2826,1212,1912,1298,2788,2050,2901,1310,1039,1278,2804,2035,2813,1211,1912,1315,2791,2052,2884,1309,1041,1284,2805
1782219307.1016,4.9569,1,lf,0.0986,0.0986,-0.1000,0,0.3311,0.3316,-0.1020,-0.0010,0.0013,-0.0061,CLIMB,5,1,0,13.0,0.000,0.900,0,-1,0,-1.0,-13.0,-2.0,0.0,0.0,0.0,2037,2826,1212,1912,1298,2788,2050,2901,1310,1039,1278,2804,2036,2813,1210,1912,1316,2792,2052,2884,1309,1040,1284,2805
1782219307.1216,4.9770,1,lf,0.0986,0.0986,-0.1000,0,0.3311,0.3316,-0.1020,-0.0010,0.0014,-0.0060,CLIMB,5,1,0,14.0,0.000,0.920,0,-1,0,-2.0,-14.0,-1.0,0.0,0.0,0.0,2037,2826,1212,1912,1298,2788,2050,2901,1310,1039,1278,2804,2036,2813,1210,1912,1316,2792,2052,2884,1309,1040,1284,2805
1782219307.1416,4.9969,1,lf,0.0986,0.0986,-0.1000,0,0.3311,0.3316,-0.1020,-0.0010,0.0014,-0.0060,CLIMB,5,1,0,14.0,0.000,0.940,0,-1,0,-2.0,-14.0,-1.0,0.0,0.0,0.0,2037,2826,1212,1912,1298,2788,2050,2901,1310,1039,1278,2804,2035,2812,1211,1912,1316,2792,2052,2884,1309,1041,1284,2805
1782219307.1616,5.0169,1,lf,0.0986,0.0986,-0.1000,0,0.3308,0.3318,-0.1022,-0.0009,0.0013,-0.0059,CLIMB,5,1,0,13.0,0.000,0.960,0,-1,0,-1.0,-13.0,-1.0,0.0,0.0,0.0,2037,2826,1212,1912,1298,2788,2050,2901,1310,1039,1278,2804,2035,2812,1211,1912,1316,2792,2052,2884,1309,1041,1284,2805
1782219307.1815,5.0369,1,lf,0.0986,0.0986,-0.1000,0,0.3308,0.3318,-0.1022,-0.0008,0.0013,-0.0059,CLIMB,5,1,0,13.0,0.000,0.980,0,-1,0,-1.0,-13.0,-1.0,0.0,0.0,0.0,2037,2826,1212,1912,1298,2788,2050,2901,1310,1039,1278,2804,2035,2812,1211,1912,1316,2792,2052,2884,1309,1041,1284,2805
1782219307.2016,5.0569,1,lf,0.0986,0.0986,-0.1000,0,0.3309,0.3319,-0.1020,-0.0009,0.0012,-0.0059,CLIMB,5,1,0,13.0,0.000,1.000,0,-1,0,-2.0,-13.0,-1.0,0.0,0.0,0.0,2037,2826,1212,1912,1298,2788,2050,2901,1310,1039,1278,2804,2035,2813,1211,1912,1316,2792,2052,2884,1308,1041,1284,2805
1782219307.2216,5.0769,1,lf,0.0986,0.0986,-0.1000,0,0.3309,0.3319,-0.1020,-0.0009,0.0012,-0.0060,CLIMB,5,1,0,14.0,0.000,1.020,0,-1,0,-2.0,-14.0,-1.0,0.0,0.0,0.0,2037,2826,1212,1912,1298,2788,2050,2901,1310,1039,1278,2804,2035,2813,1211,1912,1316,2792,2052,2884,1308,1041,1284,2805
1782219307.2416,5.0969,1,lf,0.0986,0.0986,-0.1000,0,0.3309,0.3319,-0.1020,-0.0009,0.0012,-0.0060,CLIMB,5,1,0,14.0,0.000,1.040,0,-1,0,-2.0,-14.0,-1.0,0.0,0.0,0.0,2037,2826,1212,1912,1298,2788,2050,2901,1310,1039,1278,2804,2035,2812,1211,1912,1316,2792,2052,2884,1309,1041,1284,2805
1782219307.2616,5.1169,1,lf,0.0986,0.0986,-0.1000,0,0.3308,0.3318,-0.1022,-0.0008,0.0012,-0.0059,CLIMB,5,1,0,14.0,0.000,1.060,0,-1,0,-2.0,-14.0,-1.0,0.0,0.0,0.0,2037,2826,1212,1912,1298,2788,2050,2901,1310,1039,1278,2804,2035,2812,1211,1912,1316,2792,2052,2884,1309,1041,1284,2805
1782219307.2816,5.1369,1,lf,0.0986,0.0986,-0.1000,0,0.3308,0.3318,-0.1022,-0.0008,0.0012,-0.0058,CLIMB,5,1,0,13.0,0.000,1.080,0,-1,0,-2.0,-13.0,-1.0,0.0,0.0,0.0,2037,2826,1212,1912,1298,2788,2050,2901,1310,1039,1278,2804,2035,2812,1211,1912,1316,2792,2052,2884,1309,1041,1284,2805
1782219307.3016,5.1570,1,lf,0.0986,0.0986,-0.1000,0,0.3309,0.3319,-0.1020,-0.0009,0.0012,-0.0059,CLIMB,5,1,0,13.0,0.000,1.100,0,-1,0,-2.0,-13.0,-1.0,0.0,0.0,0.0,2037,2826,1212,1912,1298,2788,2050,2901,1310,1039,1278,2804,2035,2813,1211,1912,1316,2792,2052,2884,1308,1040,1283,2805
1782219307.3216,5.1769,1,lf,0.0986,0.0986,-0.1000,0,0.3309,0.3319,-0.1020,-0.0009,0.0011,-0.0059,CLIMB,5,1,0,14.0,0.000,1.120,0,-1,0,-1.0,-14.0,-1.0,0.0,0.0,0.0,2037,2826,1212,1912,1298,2788,2050,2901,1310,1039,1278,2804,2035,2813,1211,1912,1316,2792,2052,2884,1308,1040,1283,2805
1782219307.3416,5.1969,1,lf,0.0986,0.0986,-0.1000,0,0.3309,0.3319,-0.1020,-0.0009,0.0011,-0.0059,CLIMB,5,1,0,14.0,0.000,1.140,0,-1,0,-1.0,-14.0,-1.0,0.0,0.0,0.0,2037,2826,1212,1912,1298,2788,2050,2901,1310,1039,1278,2804,2036,2812,1211,1912,1316,2792,2052,2884,1309,1041,1284,2805
1782219307.3615,5.2168,1,lf,0.0986,0.0986,-0.1000,0,0.3311,0.3315,-0.1022,-0.0009,0.0013,-0.0058,CLIMB,5,1,0,13.0,0.000,1.160,0,-1,0,-1.0,-13.0,-1.0,0.0,0.0,0.0,2037,2826,1212,1912,1298,2788,2050,2901,1310,1039,1278,2804,2036,2812,1211,1912,1316,2792,2052,2884,1309,1041,1284,2805
1782219307.3815,5.2368,1,lf,0.0986,0.0986,-0.1000,0,0.3311,0.3315,-0.1022,-0.0009,0.0014,-0.0058,CLIMB,5,1,0,13.0,0.000,1.180,0,-1,0,-2.0,-13.0,-2.0,0.0,0.0,0.0,2037,2826,1212,1912,1298,2788,2050,2901,1310,1039,1278,2804,2036,2812,1211,1912,1316,2792,2052,2884,1309,1041,1284,2805
1782219307.4016,5.2569,1,lf,0.0986,0.0986,-0.1000,0,0.3309,0.3318,-0.1020,-0.0009,0.0013,-0.0059,CLIMB,5,1,0,13.0,0.000,1.200,0,-1,0,-2.0,-13.0,-2.0,0.0,0.0,0.0,2037,2826,1212,1912,1298,2788,2050,2901,1310,1039,1278,2804,2035,2813,1210,1912,1316,2792,2052,2884,1309,1041,1284,2805
1782219307.4216,5.2769,1,lf,0.0986,0.0986,-0.1000,0,0.3309,0.3318,-0.1020,-0.0009,0.0013,-0.0059,CLIMB,5,1,0,13.0,0.000,1.220,0,-1,0,-2.0,-13.0,-1.0,0.0,0.0,0.0,2037,2826,1212,1912,1298,2788,2050,2901,1310,1039,1278,2804,2035,2813,1210,1912,1316,2792,2052,2884,1309,1041,1284,2805
1782219307.4416,5.2969,1,lf,0.0986,0.0986,-0.1000,0,0.3309,0.3318,-0.1020,-0.0009,0.0012,-0.0059,CLIMB,5,1,0,13.0,0.000,1.240,0,-1,0,-1.0,-13.0,-2.0,0.0,0.0,0.0,2037,2826,1212,1912,1298,2788,2050,2901,1310,1039,1278,2804,2036,2813,1210,1912,1316,2792,2052,2884,1308,1041,1284,2805
1782219307.4616,5.3169,1,lf,0.0986,0.0986,-0.1000,0,0.3311,0.3316,-0.1020,-0.0010,0.0014,-0.0059,CLIMB,5,1,0,13.0,0.000,1.260,0,-1,0,-1.0,-13.0,-2.0,0.0,0.0,0.0,2037,2826,1212,1912,1298,2788,2050,2901,1310,1039,1278,2804,2036,2813,1210,1912,1316,2792,2052,2884,1308,1041,1284,2805
1782219307.4816,5.3369,1,lf,0.0986,0.0986,-0.1000,0,0.3311,0.3316,-0.1020,-0.0010,0.0014,-0.0059,CLIMB,5,1,0,14.0,0.000,1.280,0,-1,0,-1.0,-14.0,-1.0,0.0,0.0,0.0,2037,2826,1212,1912,1298,2788,2050,2901,1310,1039,1278,2804,2036,2813,1210,1912,1316,2792,2052,2884,1308,1041,1284,2805
1782219307.5019,5.3572,1,lf,0.0986,0.0986,-0.1000,0,0.3311,0.3315,-0.1022,-0.0010,0.0015,-0.0058,CLIMB,5,1,0,14.0,0.000,1.300,0,-1,0,-1.0,-14.0,-1.0,0.0,0.0,0.0,2037,2826,1212,1912,1298,2788,2050,2901,1310,1039,1278,2804,2036,2812,1211,1912,1316,2791,2052,2884,1308,1040,1284,2805
1782219307.5216,5.3769,1,lf,0.0986,0.0986,-0.1000,0,0.3311,0.3315,-0.1022,-0.0010,0.0015,-0.0058,CLIMB,5,1,0,13.0,0.000,1.320,0,-1,0,-2.0,-13.0,-1.0,0.0,0.0,0.0,2037,2826,1212,1912,1298,2788,2050,2901,1310,1039,1278,2804,2036,2812,1211,1912,1316,2791,2052,2884,1308,1040,1284,2805
1782219307.5416,5.3969,1,lf,0.0986,0.0986,-0.1000,0,0.3311,0.3315,-0.1022,-0.0010,0.0015,-0.0057,CLIMB,5,1,0,14.0,0.000,1.340,0,-1,0,-2.0,-14.0,-1.0,0.0,0.0,0.0,2037,2826,1212,1912,1298,2788,2050,2901,1310,1039,1278,2804,2035,2812,1211,1912,1316,2792,2052,2884,1308,1041,1284,2805
1782219307.5616,5.4170,1,lf,0.0986,0.0986,-0.1000,0,0.3308,0.3318,-0.1022,-0.0009,0.0014,-0.0057,CLIMB,5,1,0,14.0,0.000,1.360,0,-1,0,-2.0,-14.0,-1.0,0.0,0.0,0.0,2037,2826,1212,1912,1298,2788,2050,2901,1310,1039,1278,2804,2035,2812,1211,1912,1316,2792,2052,2884,1308,1041,1284,2805
1782219307.5816,5.4370,1,lf,0.0986,0.0986,-0.1000,0,0.3308,0.3318,-0.1022,-0.0008,0.0013,-0.0057,CLIMB,5,1,0,14.0,0.000,1.380,0,-1,0,-1.0,-14.0,-1.0,0.0,0.0,0.0,2037,2826,1212,1912,1298,2788,2050,2901,1310,1039,1278,2804,2035,2812,1211,1912,1316,2792,2052,2884,1308,1041,1284,2805
1782219307.6016,5.4570,1,lf,0.0986,0.0986,-0.1000,0,0.3311,0.3315,-0.1022,-0.0009,0.0014,-0.0057,CLIMB,5,1,0,13.0,0.000,1.400,0,-1,0,-2.0,-13.0,-1.0,0.0,0.0,0.0,2037,2826,1212,1912,1298,2788,2050,2901,1310,1039,1278,2804,2036,2812,1211,1912,1316,2791,2052,2884,1308,1040,1284,2805
1782219307.6216,5.4769,1,lf,0.0986,0.0986,-0.1000,0,0.3311,0.3315,-0.1022,-0.0009,0.0015,-0.0057,CLIMB,5,1,0,13.0,0.000,1.420,0,-1,0,-2.0,-13.0,-1.0,0.0,0.0,0.0,2037,2826,1212,1912,1298,2788,2050,2901,1310,1039,1278,2804,2036,2812,1211,1912,1316,2791,2052,2884,1308,1040,1284,2805
1782219307.6416,5.4969,1,lf,0.0986,0.0986,-0.1000,0,0.3311,0.3315,-0.1022,-0.0009,0.0015,-0.0057,CLIMB,5,1,0,14.0,0.000,1.440,0,-1,0,-2.0,-14.0,-1.0,0.0,0.0,0.0,2037,2826,1212,1912,1298,2788,2050,2901,1310,1039,1278,2804,2035,2812,1211,1913,1316,2792,2052,2884,1309,1040,1284,2805
1782219307.6616,5.5169,1,lf,0.0986,0.0986,-0.1000,0,0.3308,0.3318,-0.1022,-0.0008,0.0014,-0.0057,CLIMB,5,1,0,14.0,0.000,1.460,0,-1,0,-2.0,-14.0,-1.0,0.0,0.0,0.0,2037,2826,1212,1912,1298,2788,2050,2901,1310,1039,1278,2804,2035,2812,1211,1913,1316,2792,2052,2884,1309,1040,1284,2805
1782219307.6815,5.5369,1,lf,0.0986,0.0986,-0.1000,0,0.3308,0.3318,-0.1022,-0.0008,0.0013,-0.0057,CLIMB,5,1,0,13.0,0.000,1.480,0,-1,0,-2.0,-13.0,-1.0,0.0,0.0,0.0,2037,2826,1212,1912,1298,2788,2050,2901,1310,1039,1278,2804,2035,2812,1211,1913,1316,2792,2052,2884,1309,1040,1284,2805
1782219307.7016,5.5569,1,lf,0.0986,0.0986,-0.1000,0,0.3309,0.3319,-0.1020,-0.0009,0.0012,-0.0058,CLIMB,5,1,0,13.0,0.000,1.500,0,-1,0,-2.0,-13.0,-1.0,0.0,0.0,0.0,2037,2826,1212,1912,1298,2788,2050,2901,1310,1039,1278,2804,2035,2813,1211,1912,1316,2791,2052,2884,1309,1040,1284,2805
1782219307.7216,5.5769,1,lf,0.0986,0.0986,-0.1000,0,0.3309,0.3319,-0.1020,-0.0009,0.0012,-0.0058,CLIMB,5,1,0,13.0,0.000,1.520,0,-1,0,-2.0,-13.0,-1.0,0.0,0.0,0.0,2037,2826,1212,1912,1298,2788,2050,2901,1310,1039,1278,2804,2035,2813,1211,1912,1316,2791,2052,2884,1309,1040,1284,2805
1782219307.7416,5.5969,1,lf,0.0986,0.0986,-0.1000,0,0.3309,0.3319,-0.1020,-0.0009,0.0012,-0.0059,CLIMB,5,1,0,13.0,0.000,1.540,0,-1,0,-2.0,-13.0,-1.0,0.0,0.0,0.0,2037,2826,1212,1912,1298,2788,2050,2901,1310,1039,1278,2804,2035,2813,1211,1912,1316,2791,2052,2884,1309,1041,1284,2805
1782219307.7616,5.6169,1,lf,0.0986,0.0986,-0.1000,0,0.3309,0.3319,-0.1020,-0.0009,0.0012,-0.0059,CLIMB,5,1,0,14.0,0.000,1.560,0,-1,0,-2.0,-14.0,-1.0,0.0,0.0,0.0,2037,2826,1212,1912,1298,2788,2050,2901,1310,1039,1278,2804,2035,2813,1211,1912,1316,2791,2052,2884,1309,1041,1284,2805
1782219307.7816,5.6369,1,lf,0.0986,0.0986,-0.1000,0,0.3309,0.3319,-0.1020,-0.0009,0.0011,-0.0059,CLIMB,5,1,0,14.0,0.000,1.580,0,-1,0,-2.0,-14.0,-1.0,0.0,0.0,0.0,2037,2826,1212,1912,1298,2788,2050,2901,1310,1039,1278,2804,2035,2813,1211,1912,1316,2791,2052,2884,1309,1041,1284,2805
1782219307.8016,5.6569,1,lf,0.0986,0.0986,-0.1000,0,0.3312,0.3316,-0.1020,-0.0010,0.0013,-0.0059,CLIMB,5,1,0,13.0,0.000,1.600,0,-1,0,-1.0,-13.0,-1.0,0.0,0.0,0.0,2037,2826,1212,1912,1298,2788,2050,2901,1310,1039,1278,2804,2036,2813,1211,1912,1316,2792,2052,2884,1309,1041,1283,2805
1782219307.8216,5.6769,1,lf,0.0986,0.0986,-0.1000,0,0.3312,0.3316,-0.1020,-0.0011,0.0014,-0.0059,CLIMB,5,1,0,13.0,0.000,1.620,0,-1,0,-1.0,-13.0,-1.0,0.0,0.0,0.0,2037,2826,1212,1912,1298,2788,2050,2901,1310,1039,1278,2804,2036,2813,1211,1912,1316,2792,2052,2884,1309,1041,1283,2805
1782219307.8416,5.6969,1,lf,0.0986,0.0986,-0.1000,0,0.3312,0.3316,-0.1020,-0.0011,0.0014,-0.0059,CLIMB,5,1,0,13.0,0.000,1.640,0,-1,0,-2.0,-13.0,-1.0,0.0,0.0,0.0,2037,2826,1212,1912,1298,2788,2050,2901,1310,1039,1278,2804,2035,2813,1211,1912,1315,2792,2052,2884,1308,1040,1284,2805
1782219307.8616,5.7169,1,lf,0.0986,0.0986,-0.1000,0,0.3309,0.3319,-0.1020,-0.0010,0.0013,-0.0059,CLIMB,5,1,0,13.0,0.000,1.660,0,-1,0,-2.0,-13.0,-1.0,0.0,0.0,0.0,2037,2826,1212,1912,1298,2788,2050,2901,1310,1039,1278,2804,2035,2813,1211,1912,1315,2792,2052,2884,1308,1040,1284,2805
1782219307.8816,5.7369,1,lf,0.0986,0.0986,-0.1000,0,0.3309,0.3319,-0.1020,-0.0009,0.0012,-0.0059,CLIMB,5,1,0,13.0,0.000,1.680,0,-1,0,-2.0,-13.0,-1.0,0.0,0.0,0.0,2037,2826,1212,1912,1298,2788,2050,2901,1310,1039,1278,2804,2035,2813,1211,1912,1315,2792,2052,2884,1308,1040,1284,2805
1782219307.9016,5.7569,1,lf,0.0986,0.0986,-0.1000,0,0.3312,0.3316,-0.1020,-0.0010,0.0013,-0.0059,CLIMB,5,1,0,13.0,0.000,1.700,0,-1,0,-1.0,-13.0,-1.0,0.0,0.0,0.0,2037,2826,1212,1912,1298,2788,2050,2901,1310,1039,1278,2804,2036,2813,1211,1912,1316,2792,2052,2884,1308,1040,1284,2806
1782219307.9216,5.7769,1,lf,0.0986,0.0986,-0.1000,0,0.3312,0.3316,-0.1020,-0.0010,0.0014,-0.0058,CLIMB,5,1,0,14.0,0.000,1.720,0,-1,0,-1.0,-14.0,-1.0,0.0,0.0,0.0,2037,2826,1212,1912,1298,2788,2050,2901,1310,1039,1278,2804,2036,2813,1211,1912,1316,2792,2052,2884,1308,1040,1284,2806
1782219307.9416,5.7969,1,lf,0.0986,0.0986,-0.1000,0,0.3312,0.3316,-0.1020,-0.0011,0.0014,-0.0058,CLIMB,5,1,0,14.0,0.000,1.740,0,-1,0,-1.0,-14.0,-1.0,0.0,0.0,0.0,2037,2826,1212,1912,1298,2788,2050,2901,1310,1039,1278,2804,2036,2812,1211,1912,1316,2791,2052,2884,1308,1040,1284,2805
1782219307.9615,5.8168,1,lf,0.0986,0.0986,-0.1000,0,0.3311,0.3315,-0.1022,-0.0010,0.0015,-0.0057,CLIMB,5,1,0,14.0,0.000,1.760,0,-1,0,-2.0,-14.0,-1.0,0.0,0.0,0.0,2037,2826,1212,1912,1298,2788,2050,2901,1310,1039,1278,2804,2036,2812,1211,1912,1316,2791,2052,2884,1308,1040,1284,2805
1782219307.9815,5.8369,1,lf,0.0986,0.0986,-0.1000,0,0.3311,0.3315,-0.1022,-0.0010,0.0015,-0.0057,CLIMB,5,1,0,14.0,0.000,1.780,0,-1,0,-2.0,-14.0,-1.0,0.0,0.0,0.0,2037,2826,1212,1912,1298,2788,2050,2901,1310,1039,1278,2804,2036,2812,1211,1912,1316,2791,2052,2884,1308,1040,1284,2805
1782219308.0016,5.8569,1,lf,0.0986,0.0986,-0.1000,0,0.3311,0.3315,-0.1022,-0.0010,0.0015,-0.0056,CLIMB,5,1,0,14.0,0.000,1.800,0,-1,0,-1.0,-14.0,-1.0,0.0,0.0,0.0,2037,2826,1212,1912,1298,2788,2050,2901,1310,1039,1278,2804,2036,2812,1211,1912,1316,2792,2052,2884,1309,1040,1283,2805
1782219308.0216,5.8769,1,lf,0.0986,0.0986,-0.1000,0,0.3311,0.3315,-0.1022,-0.0009,0.0016,-0.0056,CLIMB,5,1,0,14.0,0.000,1.820,0,-1,0,-2.0,-14.0,-1.0,0.0,0.0,0.0,2037,2826,1212,1912,1298,2788,2050,2901,1310,1039,1278,2804,2036,2812,1211,1912,1316,2792,2052,2884,1309,1040,1283,2805
1782219308.0416,5.8969,1,lf,0.0986,0.0986,-0.1000,0,0.3311,0.3315,-0.1022,-0.0009,0.0016,-0.0056,CLIMB,5,1,0,14.0,0.000,1.840,0,-1,0,-2.0,-14.0,-1.0,0.0,0.0,0.0,2037,2826,1212,1912,1298,2788,2050,2901,1310,1039,1278,2804,2035,2812,1211,1912,1316,2791,2052,2884,1308,1041,1284,2805
1782219308.0616,5.9169,1,lf,0.0986,0.0986,-0.1000,0,0.3308,0.3318,-0.1022,-0.0008,0.0014,-0.0056,CLIMB,5,1,0,13.0,0.000,1.860,0,-1,0,-1.0,-13.0,-1.0,0.0,0.0,0.0,2037,2826,1212,1912,1298,2788,2050,2901,1310,1039,1278,2804,2035,2812,1211,1912,1316,2791,2052,2884,1308,1041,1284,2805
1782219308.0816,5.9369,1,lf,0.0986,0.0986,-0.1000,0,0.3308,0.3318,-0.1022,-0.0008,0.0013,-0.0056,CLIMB,5,1,0,13.0,0.000,1.880,0,-1,0,-1.0,-13.0,-1.0,0.0,0.0,0.0,2037,2826,1212,1912,1298,2788,2050,2901,1310,1039,1278,2804,2035,2812,1211,1912,1316,2791,2052,2884,1308,1041,1284,2805
1782219308.1016,5.9569,1,lf,0.0986,0.0986,-0.1000,0,0.3312,0.3316,-0.1020,-0.0009,0.0014,-0.0057,CLIMB,5,1,0,13.0,0.000,1.900,0,-1,0,-1.0,-13.0,-1.0,0.0,0.0,0.0,2037,2826,1212,1912,1298,2788,2050,2901,1310,1039,1278,2804,2036,2813,1211,1912,1316,2792,2052,2884,1309,1041,1284,2805
1782219308.1216,5.9769,1,lf,0.0986,0.0986,-0.1000,0,0.3312,0.3316,-0.1020,-0.0010,0.0014,-0.0057,CLIMB,5,1,0,14.0,0.000,1.920,0,-1,0,-2.0,-14.0,-1.0,0.0,0.0,0.0,2037,2826,1212,1912,1298,2788,2050,2901,1310,1039,1278,2804,2036,2813,1211,1912,1316,2792,2052,2884,1309,1041,1284,2805
1782219308.1416,5.9970,1,lf,0.0986,0.0986,-0.1000,0,0.3312,0.3316,-0.1020,-0.0010,0.0015,-0.0058,CLIMB,5,1,0,14.0,0.000,1.940,0,-1,0,-2.0,-14.0,-1.0,0.0,0.0,0.0,2037,2826,1212,1912,1298,2788,2050,2901,1310,1039,1278,2804,2035,2812,1211,1912,1316,2791,2052,2884,1308,1040,1284,2805
1782219308.1616,6.0169,1,lf,0.0986,0.0986,-0.1000,0,0.3308,0.3318,-0.1022,-0.0009,0.0013,-0.0057,CLIMB,5,1,0,13.0,0.000,1.960,0,-1,0,-2.0,-13.0,-1.0,0.0,0.0,0.0,2037,2826,1212,1912,1298,2788,2050,2901,1310,1039,1278,2804,2035,2812,1211,1912,1316,2791,2052,2884,1308,1040,1284,2805
1782219308.1815,6.0369,1,lf,0.0986,0.0986,-0.1000,0,0.3308,0.3318,-0.1022,-0.0008,0.0013,-0.0056,CLIMB,5,1,0,13.0,0.000,1.980,0,-1,0,-2.0,-13.0,-1.0,0.0,0.0,0.0,2037,2826,1212,1912,1298,2788,2050,2901,1310,1039,1278,2804,2035,2812,1211,1912,1316,2791,2052,2884,1308,1040,1284,2805
1782219308.2015,6.0569,1,lf,0.0986,0.0986,-0.1000,0,0.3309,0.3319,-0.1020,-0.0008,0.0012,-0.0057,CLIMB,5,1,0,13.0,0.000,2.000,0,-1,0,-2.0,-13.0,-1.0,0.0,0.0,0.0,2037,2826,1212,1912,1298,2788,2050,2901,1310,1039,1278,2804,2035,2813,1211,1912,1316,2792,2052,2884,1309,1040,1284,2805
1782219308.2214,6.0767,1,lf,0.0986,0.0986,-0.1000,0,0.3309,0.3319,-0.1020,-0.0009,0.0012,-0.0058,CLIMB,5,1,0,13.0,0.000,2.020,0,-1,0,-2.0,-13.0,-1.0,0.0,0.0,0.0,2037,2826,1212,1912,1298,2788,2050,2901,1310,1039,1278,2804,2035,2813,1211,1912,1316,2792,2052,2884,1309,1040,1284,2805
1782219308.2416,6.0969,1,lf,0.0986,0.0986,-0.1000,0,0.3309,0.3319,-0.1020,-0.0009,0.0012,-0.0058,CLIMB,5,1,0,14.0,0.000,2.040,0,-1,0,-1.0,-14.0,-1.0,0.0,0.0,0.0,2037,2826,1212,1912,1298,2788,2050,2901,1310,1039,1278,2804,2036,2812,1211,1912,1316,2791,2052,2884,1309,1040,1284,2805
1782219308.2615,6.1169,1,lf,0.0986,0.0986,-0.1000,0,0.3311,0.3315,-0.1022,-0.0009,0.0014,-0.0057,CLIMB,5,1,0,14.0,0.000,2.060,0,-1,0,-1.0,-14.0,-1.0,0.0,0.0,0.0,2037,2826,1212,1912,1298,2788,2050,2901,1310,1039,1278,2804,2036,2812,1211,1912,1316,2791,2052,2884,1309,1040,1284,2805
1782219308.2816,6.1369,1,lf,0.0986,0.0986,-0.1000,0,0.3311,0.3315,-0.1022,-0.0009,0.0014,-0.0056,CLIMB,5,1,0,13.0,0.000,2.080,0,-1,0,-1.0,-13.0,-1.0,0.0,0.0,0.0,2037,2826,1212,1912,1298,2788,2050,2901,1310,1039,1278,2804,2036,2812,1211,1912,1316,2791,2052,2884,1309,1040,1284,2805
1782219308.3015,6.1569,1,lf,0.0986,0.0986,-0.1000,0,0.3312,0.3316,-0.1020,-0.0010,0.0015,-0.0057,CLIMB,5,1,0,13.0,0.000,2.100,0,-1,0,-1.0,-13.0,-1.0,0.0,0.0,0.0,2037,2826,1212,1912,1298,2788,2050,2901,1310,1039,1278,2804,2036,2813,1211,1912,1316,2792,2052,2884,1309,1040,1284,2805
1782219308.3216,6.1769,1,lf,0.0986,0.0986,-0.1000,0,0.3312,0.3316,-0.1020,-0.0010,0.0015,-0.0058,CLIMB,5,1,0,14.0,0.000,2.120,0,-1,0,-1.0,-14.0,-1.0,0.0,0.0,0.0,2037,2826,1212,1912,1298,2788,2050,2901,1310,1039,1278,2804,2036,2813,1211,1912,1316,2792,2052,2884,1309,1040,1284,2805
1782219308.3416,6.1969,1,lf,0.0986,0.0986,-0.1000,0,0.3312,0.3316,-0.1020,-0.0011,0.0015,-0.0058,CLIMB,5,1,0,14.0,0.000,2.140,0,-1,0,-2.0,-14.0,-1.0,0.0,0.0,0.0,2037,2826,1212,1912,1298,2788,2050,2901,1310,1039,1278,2804,2035,2812,1211,1912,1316,2792,2052,2884,1308,1040,1284,2805
1782219308.3616,6.2169,1,lf,0.0986,0.0986,-0.1000,0,0.3308,0.3318,-0.1022,-0.0009,0.0014,-0.0057,CLIMB,5,1,0,14.0,0.000,2.160,0,-1,0,-2.0,-14.0,-1.0,0.0,0.0,0.0,2037,2826,1212,1912,1298,2788,2050,2901,1310,1039,1278,2804,2035,2812,1211,1912,1316,2792,2052,2884,1308,1040,1284,2805
1782219308.3816,6.2369,1,lf,0.0986,0.0986,-0.1000,0,0.3308,0.3318,-0.1022,-0.0008,0.0013,-0.0056,CLIMB,5,1,0,13.0,0.000,2.180,0,-1,0,-2.0,-13.0,-1.0,0.0,0.0,0.0,2037,2826,1212,1912,1298,2788,2050,2901,1310,1039,1278,2804,2035,2812,1211,1912,1316,2792,2052,2884,1308,1040,1284,2805
1782219308.4015,6.2569,1,lf,0.0986,0.0986,-0.1000,0,0.3309,0.3319,-0.1020,-0.0008,0.0012,-0.0057,CLIMB,5,1,0,13.0,0.000,2.200,0,-1,0,-2.0,-13.0,-1.0,0.0,0.0,0.0,2037,2826,1212,1912,1298,2788,2050,2901,1310,1039,1278,2804,2035,2813,1211,1912,1316,2792,2052,2884,1309,1040,1284,2805
1782219308.4217,6.2770,1,lf,0.0986,0.0986,-0.1000,0,0.3309,0.3319,-0.1020,-0.0009,0.0012,-0.0057,CLIMB,5,1,0,13.0,0.000,2.220,0,-1,0,-2.0,-13.0,-1.0,0.0,0.0,0.0,2037,2826,1212,1912,1298,2788,2050,2901,1310,1039,1278,2804,2035,2813,1211,1912,1316,2792,2052,2884,1309,1040,1284,2805
1782219308.4416,6.2969,1,lf,0.0986,0.0986,-0.1000,0,0.3309,0.3319,-0.1020,-0.0009,0.0012,-0.0058,CLIMB,5,1,0,13.0,0.000,2.240,0,-1,0,-1.0,-13.0,-1.0,0.0,0.0,0.0,2037,2826,1212,1912,1298,2788,2050,2901,1310,1039,1278,2804,2036,2813,1211,1912,1316,2792,2052,2884,1309,1041,1284,2805
1782219308.4616,6.3169,1,lf,0.0986,0.0986,-0.1000,0,0.3312,0.3316,-0.1020,-0.0010,0.0013,-0.0058,CLIMB,5,1,0,13.0,0.000,2.260,0,-1,0,-1.0,-13.0,-1.0,0.0,0.0,0.0,2037,2826,1212,1912,1298,2788,2050,2901,1310,1039,1278,2804,2036,2813,1211,1912,1316,2792,2052,2884,1309,1041,1284,2805
1782219308.4815,6.3369,1,lf,0.0986,0.0986,-0.1000,0,0.3312,0.3316,-0.1020,-0.0010,0.0014,-0.0058,CLIMB,5,1,0,13.0,0.000,2.280,0,-1,0,-2.0,-13.0,-1.0,0.0,0.0,0.0,2037,2826,1212,1912,1298,2788,2050,2901,1310,1039,1278,2804,2036,2813,1211,1912,1316,2792,2052,2884,1309,1041,1284,2805
1782219308.5016,6.3569,1,lf,0.0986,0.0986,-0.1000,0,0.3309,0.3319,-0.1020,-0.0009,0.0013,-0.0058,CLIMB,5,1,0,14.0,0.000,2.300,0,-1,0,-2.0,-14.0,-1.0,0.0,0.0,0.0,2037,2826,1212,1912,1298,2788,2050,2901,1310,1039,1278,2804,2035,2813,1211,1912,1316,2791,2052,2884,1309,1041,1284,2805
1782219308.5216,6.3769,1,lf,0.0986,0.0986,-0.1000,0,0.3309,0.3319,-0.1020,-0.0009,0.0012,-0.0058,CLIMB,5,1,0,14.0,0.000,2.320,0,-1,0,-2.0,-14.0,-1.0,0.0,0.0,0.0,2037,2826,1212,1912,1298,2788,2050,2901,1310,1039,1278,2804,2035,2813,1211,1912,1316,2791,2052,2884,1309,1041,1284,2805
1782219308.5416,6.3969,1,lf,0.0986,0.0986,-0.1000,0,0.3309,0.3319,-0.1020,-0.0009,0.0012,-0.0058,CLIMB,5,1,0,13.0,0.000,2.340,0,-1,0,-1.0,-13.0,-1.0,0.0,0.0,0.0,2037,2826,1212,1912,1298,2788,2050,2901,1310,1039,1278,2804,2036,2813,1211,1912,1316,2792,2052,2884,1308,1041,1284,2805
1782219308.5616,6.4169,1,lf,0.0986,0.0986,-0.1000,0,0.3312,0.3316,-0.1020,-0.0010,0.0013,-0.0058,CLIMB,5,1,0,14.0,0.000,2.360,0,-1,0,-2.0,-14.0,-1.0,0.0,0.0,0.0,2037,2826,1212,1912,1298,2788,2050,2901,1310,1039,1278,2804,2036,2813,1211,1912,1316,2792,2052,2884,1308,1041,1284,2805
1782219308.5816,6.4369,1,lf,0.0986,0.0986,-0.1000,0,0.3312,0.3316,-0.1020,-0.0010,0.0014,-0.0058,CLIMB,5,1,0,14.0,0.000,2.380,0,-1,0,-2.0,-14.0,-1.0,0.0,0.0,0.0,2037,2826,1212,1912,1298,2788,2050,2901,1310,1039,1278,2804,2036,2813,1211,1912,1316,2792,2052,2884,1308,1041,1284,2805
1782219308.6016,6.4570,1,lf,0.0986,0.0986,-0.1000,0,0.3308,0.3318,-0.1022,-0.0009,0.0013,-0.0056,CLIMB,5,1,0,13.0,0.000,2.400,0,-1,0,-2.0,-13.0,-1.0,0.0,0.0,0.0,2037,2826,1212,1912,1298,2788,2050,2901,1310,1039,1278,2804,2035,2812,1211,1912,1316,2792,2052,2884,1309,1041,1284,2805
1782219308.6216,6.4769,1,lf,0.0986,0.0986,-0.1000,0,0.3308,0.3318,-0.1022,-0.0008,0.0013,-0.0056,CLIMB,5,1,0,13.0,0.000,2.420,0,-1,0,-2.0,-13.0,-1.0,0.0,0.0,0.0,2037,2826,1212,1912,1298,2788,2050,2901,1310,1039,1278,2804,2035,2812,1211,1912,1316,2792,2052,2884,1309,1041,1284,2805
1782219308.6416,6.4969,1,lf,0.0986,0.0986,-0.1000,0,0.3308,0.3318,-0.1022,-0.0008,0.0013,-0.0056,CLIMB,5,1,0,14.0,0.000,2.440,0,-1,0,-1.0,-14.0,-1.0,0.0,0.0,0.0,2037,2826,1212,1912,1298,2788,2050,2901,1310,1039,1278,2804,2036,2812,1211,1912,1315,2792,2052,2884,1309,1041,1284,2805
1782219308.6616,6.5169,1,lf,0.0986,0.0986,-0.1000,0,0.3311,0.3315,-0.1022,-0.0008,0.0014,-0.0055,CLIMB,5,1,0,13.0,0.000,2.460,0,-1,0,-1.0,-13.0,-1.0,0.0,0.0,0.0,2037,2826,1212,1912,1298,2788,2050,2901,1310,1039,1278,2804,2036,2812,1211,1912,1315,2792,2052,2884,1309,1041,1284,2805
1782219308.6816,6.5369,1,lf,0.0986,0.0986,-0.1000,0,0.3311,0.3315,-0.1022,-0.0009,0.0015,-0.0055,CLIMB,5,1,0,13.0,0.000,2.480,0,-1,0,-1.0,-13.0,-1.0,0.0,0.0,0.0,2037,2826,1212,1912,1298,2788,2050,2901,1310,1039,1278,2804,2036,2812,1211,1912,1315,2792,2052,2884,1309,1041,1284,2805
1782219308.7016,6.5569,1,lf,0.0986,0.0986,-0.1000,0,0.3312,0.3316,-0.1020,-0.0010,0.0015,-0.0057,CLIMB,5,1,0,13.0,0.000,2.500,0,-1,0,-1.0,-13.0,-1.0,0.0,0.0,0.0,2037,2826,1212,1912,1298,2788,2050,2901,1310,1039,1278,2804,2036,2813,1211,1912,1316,2792,2052,2884,1309,1040,1284,2805
1782219308.7215,6.5769,1,lf,0.0986,0.0986,-0.1000,0,0.3312,0.3316,-0.1020,-0.0010,0.0015,-0.0057,CLIMB,5,1,0,14.0,0.000,2.520,0,-1,0,-1.0,-14.0,-1.0,0.0,0.0,0.0,2037,2826,1212,1912,1298,2788,2050,2901,1310,1039,1278,2804,2036,2813,1211,1912,1316,2792,2052,2884,1309,1040,1284,2805
1782219308.7416,6.5969,1,lf,0.0986,0.0986,-0.1000,0,0.3312,0.3316,-0.1020,-0.0010,0.0015,-0.0057,CLIMB,5,1,0,14.0,0.000,2.540,0,-1,0,-1.0,-14.0,-1.0,0.0,0.0,0.0,2037,2826,1212,1912,1298,2788,2050,2901,1310,1039,1278,2804,2036,2812,1211,1912,1316,2792,2052,2884,1309,1041,1284,2805
1782219308.7616,6.6169,1,lf,0.0986,0.0986,-0.1000,0,0.3311,0.3315,-0.1022,-0.0010,0.0015,-0.0056,CLIMB,5,1,0,13.0,0.000,2.560,0,-1,0,-2.0,-13.0,-1.0,0.0,0.0,0.0,2037,2826,1212,1912,1298,2788,2050,2901,1310,1039,1278,2804,2036,2812,1211,1912,1316,2792,2052,2884,1309,1041,1284,2805
1782219308.7815,6.6368,1,lf,0.0986,0.0986,-0.1000,0,0.3311,0.3315,-0.1022,-0.0009,0.0015,-0.0056,CLIMB,5,1,0,13.0,0.000,2.580,0,-1,0,-2.0,-13.0,-1.0,0.0,0.0,0.0,2037,2826,1212,1912,1298,2788,2050,2901,1310,1039,1278,2804,2036,2812,1211,1912,1316,2792,2052,2884,1309,1041,1284,2805
1782219308.8016,6.6569,1,lf,0.0986,0.0986,-0.1000,0,0.3311,0.3315,-0.1022,-0.0009,0.0015,-0.0056,CLIMB,5,1,0,14.0,0.000,2.600,0,-1,0,-1.0,-14.0,-1.0,0.0,0.0,0.0,2037,2826,1212,1912,1298,2788,2050,2901,1310,1039,1278,2804,2036,2812,1211,1912,1316,2792,2052,2884,1309,1040,1284,2805
1782219308.8216,6.6769,1,lf,0.0986,0.0986,-0.1000,0,0.3311,0.3315,-0.1022,-0.0009,0.0015,-0.0055,CLIMB,5,1,0,13.0,0.000,2.620,0,-1,0,-1.0,-13.0,-1.0,0.0,0.0,0.0,2037,2826,1212,1912,1298,2788,2050,2901,1310,1039,1278,2804,2036,2812,1211,1912,1316,2792,2052,2884,1309,1040,1284,2805
1782219308.8415,6.6969,1,lf,0.0986,0.0986,-0.1000,0,0.3311,0.3315,-0.1022,-0.0009,0.0015,-0.0055,CLIMB,5,1,0,13.0,0.000,2.640,0,-1,0,-1.0,-13.0,-1.0,0.0,0.0,0.0,2037,2826,1212,1912,1298,2788,2050,2901,1310,1039,1278,2804,2036,2813,1211,1912,1316,2792,2052,2884,1308,1040,1284,2805
1782219308.8615,6.7169,1,lf,0.0986,0.0986,-0.1000,0,0.3312,0.3316,-0.1020,-0.0010,0.0015,-0.0057,CLIMB,5,1,0,14.0,0.000,2.660,0,-1,0,-1.0,-14.0,-1.0,0.0,0.0,0.0,2037,2826,1212,1912,1298,2788,2050,2901,1310,1039,1278,2804,2036,2813,1211,1912,1316,2792,2052,2884,1308,1040,1284,2805
1782219308.8816,6.7369,1,lf,0.0986,0.0986,-0.1000,0,0.3312,0.3316,-0.1020,-0.0010,0.0015,-0.0057,CLIMB,5,1,0,14.0,0.000,2.680,0,-1,0,-2.0,-14.0,-1.0,0.0,0.0,0.0,2037,2826,1212,1912,1298,2788,2050,2901,1310,1039,1278,2804,2036,2813,1211,1912,1316,2792,2052,2884,1308,1040,1284,2805
1782219308.9017,6.7570,1,lf,0.0986,0.0986,-0.1000,0,0.3308,0.3318,-0.1022,-0.0009,0.0013,-0.0056,CLIMB,5,1,0,14.0,0.000,2.700,0,-1,0,-2.0,-14.0,-1.0,0.0,0.0,0.0,2037,2826,1212,1912,1298,2788,2050,2901,1310,1039,1278,2804,2035,2812,1211,1912,1316,2792,2052,2884,1308,1040,1284,2805
1782219308.9216,6.7769,1,lf,0.0986,0.0986,-0.1000,0,0.3308,0.3318,-0.1022,-0.0008,0.0013,-0.0056,CLIMB,5,1,0,13.0,0.000,2.720,0,-1,0,-2.0,-13.0,-1.0,0.0,0.0,0.0,2037,2826,1212,1912,1298,2788,2050,2901,1310,1039,1278,2804,2035,2812,1211,1912,1316,2792,2052,2884,1308,1040,1284,2805
1782219308.9415,6.7969,1,lf,0.0986,0.0986,-0.1000,0,0.3308,0.3318,-0.1022,-0.0008,0.0013,-0.0055,CLIMB,5,1,0,13.0,0.000,2.740,0,-1,0,-2.0,-13.0,-1.0,0.0,0.0,0.0,2037,2826,1212,1912,1298,2788,2050,2901,1310,1039,1278,2804,2035,2813,1211,1912,1316,2792,2052,2884,1309,1041,1284,2806
1782219308.9616,6.8169,1,lf,0.0986,0.0986,-0.1000,0,0.3309,0.3319,-0.1020,-0.0008,0.0012,-0.0056,CLIMB,5,1,0,13.0,0.000,2.760,0,-1,0,-2.0,-13.0,-1.0,0.0,0.0,0.0,2037,2826,1212,1912,1298,2788,2050,2901,1310,1039,1278,2804,2035,2813,1211,1912,1316,2792,2052,2884,1309,1041,1284,2806
1782219308.9815,6.8369,1,lf,0.0986,0.0986,-0.1000,0,0.3309,0.3319,-0.1020,-0.0008,0.0012,-0.0057,CLIMB,5,1,0,13.0,0.000,2.780,0,-1,0,-1.0,-13.0,-1.0,0.0,0.0,0.0,2037,2826,1212,1912,1298,2788,2050,2901,1310,1039,1278,2804,2035,2813,1211,1912,1316,2792,2052,2884,1309,1041,1284,2806
1782219309.0016,6.8569,1,lf,0.0986,0.0986,-0.1000,0,0.3312,0.3316,-0.1020,-0.0009,0.0013,-0.0057,CLIMB,5,1,0,13.0,0.000,2.800,0,-1,0,-1.0,-13.0,-1.0,0.0,0.0,0.0,2037,2826,1212,1912,1298,2788,2050,2901,1310,1039,1278,2804,2036,2813,1211,1912,1316,2792,2052,2884,1309,1041,1284,2805
1782219309.0215,6.8769,1,lf,0.0986,0.0986,-0.1000,0,0.3312,0.3316,-0.1020,-0.0010,0.0014,-0.0057,CLIMB,5,1,0,13.0,0.000,2.820,0,-1,0,-2.0,-13.0,-1.0,0.0,0.0,0.0,2037,2826,1212,1912,1298,2788,2050,2901,1310,1039,1278,2804,2036,2813,1211,1912,1316,2792,2052,2884,1309,1041,1284,2805
1782219309.0415,6.8969,1,lf,0.0986,0.0986,-0.1000,0,0.3312,0.3316,-0.1020,-0.0010,0.0014,-0.0057,CLIMB,5,1,0,13.0,0.000,2.840,0,-1,0,-2.0,-13.0,-1.0,0.0,0.0,0.0,2037,2826,1212,1912,1298,2788,2050,2901,1310,1039,1278,2804,2035,2813,1211,1912,1316,2791,2052,2884,1308,1041,1284,2806
1782219309.0616,6.9169,1,lf,0.0986,0.0986,-0.1000,0,0.3309,0.3319,-0.1020,-0.0009,0.0013,-0.0057,CLIMB,5,1,0,13.0,0.000,2.860,0,-1,0,-2.0,-13.0,-1.0,0.0,0.0,0.0,2037,2826,1212,1912,1298,2788,2050,2901,1310,1039,1278,2804,2035,2813,1211,1912,1316,2791,2052,2884,1308,1041,1284,2806
1782219309.0816,6.9369,1,lf,0.0986,0.0986,-0.1000,0,0.3309,0.3319,-0.1020,-0.0009,0.0012,-0.0058,CLIMB,5,1,0,13.0,0.000,2.880,0,-1,0,-1.0,-13.0,-2.0,0.0,0.0,0.0,2037,2826,1212,1912,1298,2788,2050,2901,1310,1039,1278,2804,2035,2813,1211,1912,1316,2791,2052,2884,1308,1041,1284,2806
1782219309.1015,6.9568,1,lf,0.0986,0.0986,-0.1000,0,0.3311,0.3316,-0.1020,-0.0009,0.0013,-0.0058,CLIMB,5,1,0,13.0,0.000,2.900,0,-1,0,-1.0,-13.0,-2.0,0.0,0.0,0.0,2037,2826,1212,1912,1298,2788,2050,2901,1310,1039,1278,2804,2036,2813,1210,1912,1316,2791,2052,2884,1309,1041,1283,2805
1782219309.1216,6.9769,1,lf,0.0986,0.0986,-0.1000,0,0.3311,0.3316,-0.1020,-0.0010,0.0014,-0.0058,CLIMB,5,1,0,13.0,0.000,2.920,0,-1,0,-1.0,-13.0,-1.0,0.0,0.0,0.0,2037,2826,1212,1912,1298,2788,2050,2901,1310,1039,1278,2804,2036,2813,1210,1912,1316,2791,2052,2884,1309,1041,1283,2805
1782219309.1416,6.9969,1,lf,0.0986,0.0986,-0.1000,0,0.3311,0.3316,-0.1020,-0.0010,0.0014,-0.0058,CLIMB,5,1,0,13.0,0.000,2.940,0,-1,0,-1.0,-13.0,-1.0,0.0,0.0,0.0,2037,2826,1212,1912,1298,2788,2050,2901,1310,1039,1278,2804,2036,2813,1211,1912,1316,2792,2052,2884,1309,1041,1283,2806
1782219309.1616,7.0169,1,lf,0.0986,0.0986,-0.1000,0,0.3312,0.3316,-0.1020,-0.0010,0.0014,-0.0058,CLIMB,5,1,0,13.0,0.000,2.960,0,-1,0,-1.0,-13.0,-1.0,0.0,0.0,0.0,2037,2826,1212,1912,1298,2788,2050,2901,1310,1039,1278,2804,2036,2813,1211,1912,1316,2792,2052,2884,1309,1041,1283,2806
1782219309.1815,7.0368,1,lf,0.0986,0.0986,-0.1000,0,0.3312,0.3316,-0.1020,-0.0010,0.0014,-0.0058,CLIMB,5,1,0,14.0,0.000,2.980,0,-1,0,-2.0,-14.0,-1.0,0.0,0.0,0.0,2037,2826,1212,1912,1298,2788,2050,2901,1310,1039,1278,2804,2036,2813,1211,1912,1316,2792,2052,2884,1309,1041,1283,2806
1782219309.2015,7.0568,1,lf,0.0986,0.0986,-0.1000,0,0.3308,0.3318,-0.1022,-0.0009,0.0013,-0.0057,CLIMB,5,1,0,13.0,0.000,3.000,0,-1,0,-1.0,-13.0,-1.0,0.0,0.0,0.0,2037,2826,1212,1912,1298,2788,2050,2901,1310,1039,1278,2804,2035,2812,1211,1912,1316,2791,2052,2884,1309,1041,1284,2805
1782219309.2216,7.0769,1,lf,0.0986,0.0986,-0.1000,0,0.3308,0.3318,-0.1022,-0.0008,0.0013,-0.0056,CLIMB,5,1,0,13.0,0.000,3.000,0,-1,0,-1.0,-13.0,-1.0,0.0,0.0,0.0,2037,2826,1212,1912,1298,2788,2050,2901,1310,1039,1278,2804,2035,2812,1211,1912,1316,2791,2052,2884,1309,1041,1284,2805
1782219309.2415,7.0969,1,lf,0.0986,0.0986,-0.1000,0,0.3308,0.3318,-0.1022,-0.0008,0.0012,-0.0056,CLIMB,5,1,0,13.0,0.000,3.040,1,-1,0,-1.0,-13.0,-1.0,0.0,0.0,0.0,2037,2826,1212,1912,1298,2788,2050,2901,1310,1039,1278,2804,2036,2813,1211,1912,1316,2792,2052,2884,1308,1040,1284,2805
1782219309.2615,7.1169,1,lf,0.0986,0.0986,-0.1000,0,0.3312,0.3316,-0.1020,-0.0009,0.0013,-0.0057,CLIMB,5,1,0,13.0,0.000,3.060,1,-1,0,-1.0,-13.0,-1.0,0.0,0.0,0.0,2037,2826,1212,1912,1298,2788,2050,2901,1310,1039,1278,2804,2036,2813,1211,1912,1316,2792,2052,2884,1308,1040,1284,2805
1782219309.2816,7.1369,1,lf,0.0986,0.0986,-0.1000,0,0.3312,0.3316,-0.1020,-0.0010,0.0014,-0.0058,CLIMB,5,1,0,13.0,0.000,3.080,1,-1,0,-1.0,-13.0,-1.0,0.0,0.0,0.0,2037,2826,1212,1912,1298,2788,2050,2901,1310,1039,1278,2804,2036,2813,1211,1912,1316,2792,2052,2884,1308,1040,1284,2805
1782219309.3016,7.1569,1,lf,0.0986,0.0986,-0.1000,0,0.3312,0.3316,-0.1020,-0.0010,0.0014,-0.0058,CLIMB,5,1,0,14.0,0.000,3.100,1,-1,0,-1.0,-14.0,-1.0,0.0,0.0,0.0,2037,2826,1212,1912,1298,2788,2050,2901,1310,1039,1278,2804,2036,2813,1211,1912,1316,2792,2052,2884,1309,1041,1283,2805
1782219309.3216,7.1769,1,lf,0.0986,0.0986,-0.1000,0,0.3312,0.3316,-0.1020,-0.0010,0.0014,-0.0058,CLIMB,5,1,0,14.0,0.000,3.120,1,-1,0,-1.0,-14.0,-1.0,0.0,0.0,0.0,2037,2826,1212,1912,1298,2788,2050,2901,1310,1039,1278,2804,2036,2813,1211,1912,1316,2792,2052,2884,1309,1041,1283,2805
1782219309.3416,7.1969,1,lf,0.0986,0.0986,-0.1000,0,0.3312,0.3316,-0.1020,-0.0010,0.0014,-0.0058,CLIMB,5,1,0,13.0,0.000,3.140,1,-1,0,-1.0,-13.0,-1.0,0.0,0.0,0.0,2037,2826,1212,1912,1298,2788,2050,2901,1310,1039,1278,2804,2036,2813,1211,1912,1316,2792,2052,2884,1308,1041,1284,2806
1782219309.3616,7.2169,1,lf,0.0986,0.0986,-0.1000,0,0.3312,0.3316,-0.1020,-0.0010,0.0014,-0.0058,CLIMB,5,1,0,14.0,0.000,3.160,1,-1,0,-1.0,-14.0,-1.0,0.0,0.0,0.0,2037,2826,1212,1912,1298,2788,2050,2901,1310,1039,1278,2804,2036,2813,1211,1912,1316,2792,2052,2884,1308,1041,1284,2806
1782219309.3815,7.2369,1,lf,0.0986,0.0986,-0.1000,0,0.3312,0.3316,-0.1020,-0.0010,0.0014,-0.0058,CLIMB,5,1,0,14.0,0.000,3.180,1,-1,0,-1.0,-14.0,-1.0,0.0,0.0,0.0,2037,2826,1212,1912,1298,2788,2050,2901,1310,1039,1278,2804,2036,2813,1211,1912,1316,2792,2052,2884,1308,1041,1284,2806
1782219309.4016,7.2569,1,lf,0.0986,0.0986,-0.1000,0,0.3311,0.3315,-0.1022,-0.0010,0.0014,-0.0057,CLIMB,5,1,0,14.0,0.000,3.200,1,-1,0,-2.0,-14.0,-1.0,0.0,0.0,0.0,2037,2826,1212,1912,1298,2788,2050,2901,1310,1039,1278,2804,2036,2812,1211,1912,1316,2792,2052,2884,1308,1041,1284,2805
1782219309.4216,7.2769,1,lf,0.0986,0.0986,-0.1000,0,0.3311,0.3315,-0.1022,-0.0009,0.0015,-0.0056,CLIMB,5,1,0,14.0,0.000,3.220,1,-1,0,-2.0,-14.0,-1.0,0.0,0.0,0.0,2037,2826,1212,1912,1298,2788,2050,2901,1310,1039,1278,2804,2036,2812,1211,1912,1316,2792,2052,2884,1308,1041,1284,2805
1782219309.4416,7.2969,1,lf,0.0986,0.0986,-0.1000,0,0.3311,0.3315,-0.1022,-0.0009,0.0015,-0.0056,CLIMB,5,1,0,14.0,0.000,3.240,1,-1,0,-1.0,-14.0,-1.0,0.0,0.0,0.0,2037,2826,1212,1912,1298,2788,2050,2901,1310,1039,1278,2804,2036,2812,1211,1912,1316,2791,2052,2884,1309,1041,1284,2805
1782219309.4616,7.3169,1,lf,0.0986,0.0986,-0.1000,0,0.3311,0.3315,-0.1022,-0.0009,0.0015,-0.0056,CLIMB,5,1,0,13.0,0.000,3.260,1,-1,0,-1.0,-13.0,-1.0,0.0,0.0,0.0,2037,2826,1212,1912,1298,2788,2050,2901,1310,1039,1278,2804,2036,2812,1211,1912,1316,2791,2052,2884,1309,1041,1284,2805
1782219309.4815,7.3368,1,lf,0.0986,0.0986,-0.1000,0,0.3311,0.3315,-0.1022,-0.0009,0.0015,-0.0056,CLIMB,5,1,0,13.0,0.000,3.280,1,-1,0,-1.0,-13.0,-1.0,0.0,0.0,0.0,2037,2826,1212,1912,1298,2788,2050,2901,1310,1039,1278,2804,2036,2812,1211,1912,1316,2791,2052,2884,1309,1041,1284,2805
1782219309.5015,7.3569,1,lf,0.0986,0.0986,-0.1000,0,0.3309,0.3319,-0.1020,-0.0009,0.0013,-0.0057,CLIMB,5,1,0,13.0,0.000,3.300,1,-1,0,-2.0,-13.0,-1.0,0.0,0.0,0.0,2037,2826,1212,1912,1298,2788,2050,2901,1310,1039,1278,2804,2035,2813,1211,1912,1316,2791,2052,2884,1308,1041,1284,2805
1782219309.5216,7.3769,1,lf,0.0986,0.0986,-0.1000,0,0.3309,0.3319,-0.1020,-0.0009,0.0012,-0.0057,CLIMB,5,1,0,13.0,0.000,3.320,1,-1,0,-2.0,-13.0,-1.0,0.0,0.0,0.0,2037,2826,1212,1912,1298,2788,2050,2901,1310,1039,1278,2804,2035,2813,1211,1912,1316,2791,2052,2884,1308,1041,1284,2805
1782219309.5416,7.3970,1,lf,0.0986,0.0986,-0.1000,0,0.3309,0.3319,-0.1020,-0.0008,0.0011,-0.0057,CLIMB,5,1,0,13.0,0.000,3.340,1,-1,0,-2.0,-13.0,-1.0,0.0,0.0,0.0,2037,2826,1212,1912,1298,2788,2050,2901,1310,1039,1278,2804,2035,2813,1211,1912,1316,2792,2052,2884,1308,1041,1284,2805
1782219309.5615,7.4168,1,lf,0.0986,0.0986,-0.1000,0,0.3309,0.3319,-0.1020,-0.0008,0.0011,-0.0058,CLIMB,5,1,0,13.0,0.000,3.360,1,-1,0,-1.0,-13.0,-1.0,0.0,0.0,0.0,2037,2826,1212,1912,1298,2788,2050,2901,1310,1039,1278,2804,2035,2813,1211,1912,1316,2792,2052,2884,1308,1041,1284,2805
1782219309.5815,7.4369,1,lf,0.0986,0.0986,-0.1000,0,0.3309,0.3319,-0.1020,-0.0008,0.0011,-0.0058,CLIMB,5,1,0,13.0,0.000,3.380,1,-1,0,-1.0,-13.0,-1.0,0.0,0.0,0.0,2037,2826,1212,1912,1298,2788,2050,2901,1310,1039,1278,2804,2035,2813,1211,1912,1316,2792,2052,2884,1308,1041,1284,2805
1782219309.6015,7.4568,1,lf,0.0986,0.0986,-0.1000,0,0.3308,0.3318,-0.1022,-0.0008,0.0011,-0.0056,CLIMB,5,1,0,14.0,0.000,3.400,1,-1,0,-2.0,-14.0,-1.0,0.0,0.0,0.0,2037,2826,1212,1912,1298,2788,2050,2901,1310,1039,1278,2804,2035,2812,1211,1912,1316,2791,2052,2884,1309,1041,1283,2805
1782219309.6216,7.4769,1,lf,0.0986,0.0986,-0.1000,0,0.3308,0.3318,-0.1022,-0.0007,0.0012,-0.0056,CLIMB,5,1,0,13.0,0.000,3.420,1,-1,0,-2.0,-13.0,-1.0,0.0,0.0,0.0,2037,2826,1212,1912,1298,2788,2050,2901,1310,1039,1278,2804,2035,2812,1211,1912,1316,2791,2052,2884,1309,1041,1283,2805
1782219309.6416,7.4969,1,lf,0.0986,0.0986,-0.1000,0,0.3308,0.3318,-0.1022,-0.0007,0.0012,-0.0056,CLIMB,5,1,0,13.0,0.000,3.440,1,-1,0,-2.0,-13.0,-1.0,0.0,0.0,0.0,2037,2826,1212,1912,1298,2788,2050,2901,1310,1039,1278,2804,2035,2813,1211,1912,1316,2792,2052,2884,1309,1041,1284,2805
1782219309.6615,7.5168,1,lf,0.0986,0.0986,-0.1000,0,0.3309,0.3319,-0.1020,-0.0008,0.0011,-0.0057,CLIMB,5,1,0,13.0,0.000,3.460,1,-1,0,-1.0,-13.0,-1.0,0.0,0.0,0.0,2037,2826,1212,1912,1298,2788,2050,2901,1310,1039,1278,2804,2035,2813,1211,1912,1316,2792,2052,2884,1309,1041,1284,2805
1782219309.6815,7.5368,1,lf,0.0986,0.0986,-0.1000,0,0.3309,0.3319,-0.1020,-0.0008,0.0011,-0.0057,CLIMB,5,1,0,13.0,0.000,3.480,1,-1,0,-1.0,-13.0,-1.0,0.0,0.0,0.0,2037,2826,1212,1912,1298,2788,2050,2901,1310,1039,1278,2804,2035,2813,1211,1912,1316,2792,2052,2884,1309,1041,1284,2805
1782219309.7016,7.5570,1,lf,0.0986,0.0986,-0.1000,0,0.3312,0.3316,-0.1020,-0.0009,0.0013,-0.0057,CLIMB,5,1,0,13.0,0.000,3.500,1,-1,0,-1.0,-13.0,-1.0,0.0,0.0,0.0,2037,2826,1212,1912,1298,2788,2050,2901,1310,1039,1278,2804,2036,2813,1211,1912,1316,2792,2052,2884,1309,1041,1284,2805
1782219309.7215,7.5768,1,lf,0.0986,0.0986,-0.1000,0,0.3312,0.3316,-0.1020,-0.0010,0.0013,-0.0057,CLIMB,5,1,0,14.0,0.000,3.520,1,-1,0,-1.0,-14.0,-1.0,0.0,0.0,0.0,2037,2826,1212,1912,1298,2788,2050,2901,1310,1039,1278,2804,2036,2813,1211,1912,1316,2792,2052,2884,1309,1041,1284,2805
1782219309.7416,7.5969,1,lf,0.0986,0.0986,-0.1000,0,0.3312,0.3316,-0.1020,-0.0010,0.0014,-0.0058,CLIMB,5,1,0,14.0,0.000,3.540,1,-1,0,-1.0,-14.0,-1.0,0.0,0.0,0.0,2037,2826,1212,1912,1298,2788,2050,2901,1310,1039,1278,2804,2036,2812,1211,1912,1316,2792,2052,2884,1308,1041,1284,2805
1782219309.7615,7.6168,1,lf,0.0986,0.0986,-0.1000,0,0.3311,0.3315,-0.1022,-0.0010,0.0015,-0.0057,CLIMB,5,1,0,13.0,0.000,3.560,1,-1,0,-1.0,-13.0,-1.0,0.0,0.0,0.0,2037,2826,1212,1912,1298,2788,2050,2901,1310,1039,1278,2804,2036,2812,1211,1912,1316,2792,2052,2884,1308,1041,1284,2805
1782219309.7815,7.6368,1,lf,0.0986,0.0986,-0.1000,0,0.3311,0.3315,-0.1022,-0.0009,0.0015,-0.0056,CLIMB,5,1,0,13.0,0.000,3.580,1,-1,0,-2.0,-13.0,-1.0,0.0,0.0,0.0,2037,2826,1212,1912,1298,2788,2050,2901,1310,1039,1278,2804,2036,2812,1211,1912,1316,2792,2052,2884,1308,1041,1284,2805
1782219309.8016,7.6569,1,lf,0.0986,0.0986,-0.1000,0,0.3309,0.3319,-0.1020,-0.0009,0.0013,-0.0057,CLIMB,5,1,0,13.0,0.000,3.600,1,-1,0,-2.0,-13.0,-1.0,0.0,0.0,0.0,2037,2826,1212,1912,1298,2788,2050,2901,1310,1039,1278,2804,2035,2813,1211,1912,1316,2792,2052,2884,1308,1041,1284,2805
1782219309.8216,7.6769,1,lf,0.0986,0.0986,-0.1000,0,0.3309,0.3319,-0.1020,-0.0009,0.0012,-0.0057,CLIMB,5,1,0,13.0,0.000,3.620,1,-1,0,-1.0,-13.0,-1.0,0.0,0.0,0.0,2037,2826,1212,1912,1298,2788,2050,2901,1310,1039,1278,2804,2035,2813,1211,1912,1316,2792,2052,2884,1308,1041,1284,2805
1782219309.8416,7.6969,1,lf,0.0986,0.0986,-0.1000,0,0.3309,0.3319,-0.1020,-0.0009,0.0012,-0.0057,CLIMB,5,1,0,14.0,0.000,3.640,1,-1,0,-1.0,-14.0,-1.0,0.0,0.0,0.0,2037,2826,1212,1912,1298,2788,2050,2901,1310,1039,1278,2804,2036,2812,1211,1912,1316,2791,2052,2884,1309,1041,1284,2805
1782219309.8616,7.7169,1,lf,0.0986,0.0986,-0.1000,0,0.3311,0.3315,-0.1022,-0.0009,0.0013,-0.0056,CLIMB,5,1,0,14.0,0.000,3.660,1,-1,0,-1.0,-14.0,-1.0,0.0,0.0,0.0,2037,2826,1212,1912,1298,2788,2050,2901,1310,1039,1278,2804,2036,2812,1211,1912,1316,2791,2052,2884,1309,1041,1284,2805
1782219309.8815,7.7368,1,lf,0.0986,0.0986,-0.1000,0,0.3311,0.3315,-0.1022,-0.0009,0.0014,-0.0056,CLIMB,5,1,0,14.0,0.000,3.680,1,-1,0,-2.0,-14.0,-1.0,0.0,0.0,0.0,2037,2826,1212,1912,1298,2788,2050,2901,1310,1039,1278,2804,2036,2812,1211,1912,1316,2791,2052,2884,1309,1041,1284,2805
1782219309.9016,7.7569,1,lf,0.0986,0.0986,-0.1000,0,0.3308,0.3318,-0.1022,-0.0008,0.0013,-0.0056,CLIMB,5,1,0,14.0,0.000,3.700,1,-1,0,-2.0,-14.0,-1.0,0.0,0.0,0.0,2037,2826,1212,1912,1298,2788,2050,2901,1310,1039,1278,2804,2035,2812,1211,1912,1316,2792,2052,2884,1308,1040,1284,2805
1782219309.9216,7.7769,1,lf,0.0986,0.0986,-0.1000,0,0.3308,0.3318,-0.1022,-0.0007,0.0013,-0.0056,CLIMB,5,1,0,13.0,0.000,3.720,1,-1,0,-1.0,-13.0,-1.0,0.0,0.0,0.0,2037,2826,1212,1912,1298,2788,2050,2901,1310,1039,1278,2804,2035,2812,1211,1912,1316,2792,2052,2884,1308,1040,1284,2805
1782219309.9416,7.7969,1,lf,0.0986,0.0986,-0.1000,0,0.3308,0.3318,-0.1022,-0.0007,0.0012,-0.0056,CLIMB,5,1,0,13.0,0.000,3.740,1,-1,0,-1.0,-13.0,-1.0,0.0,0.0,0.0,2037,2826,1212,1912,1298,2788,2050,2901,1310,1039,1278,2804,2036,2813,1211,1912,1316,2792,2052,2884,1308,1040,1284,2805
1782219309.9616,7.8169,1,lf,0.0986,0.0986,-0.1000,0,0.3312,0.3316,-0.1020,-0.0009,0.0013,-0.0057,CLIMB,5,1,0,13.0,0.000,3.760,1,-1,0,-1.0,-13.0,-1.0,0.0,0.0,0.0,2037,2826,1212,1912,1298,2788,2050,2901,1310,1039,1278,2804,2036,2813,1211,1912,1316,2792,2052,2884,1308,1040,1284,2805
1782219309.9815,7.8368,1,lf,0.0986,0.0986,-0.1000,0,0.3312,0.3316,-0.1020,-0.0010,0.0014,-0.0057,CLIMB,5,1,0,14.0,0.000,3.780,1,-1,0,-1.0,-14.0,-1.0,0.0,0.0,0.0,2037,2826,1212,1912,1298,2788,2050,2901,1310,1039,1278,2804,2036,2813,1211,1912,1316,2792,2052,2884,1308,1040,1284,2805
1782219310.0015,7.8569,1,lf,0.0986,0.0986,-0.1000,0,0.3311,0.3315,-0.1022,-0.0009,0.0014,-0.0056,CLIMB,5,1,0,13.0,0.000,3.800,1,-1,0,-2.0,-13.0,-1.0,0.0,0.0,0.0,2037,2826,1212,1912,1298,2788,2050,2901,1310,1039,1278,2804,2036,2812,1211,1912,1316,2792,2052,2884,1308,1041,1284,2805
1782219310.0216,7.8770,1,lf,0.0986,0.0986,-0.1000,0,0.3311,0.3315,-0.1022,-0.0009,0.0015,-0.0056,CLIMB,5,1,0,13.0,0.000,3.820,1,-1,0,-2.0,-13.0,-1.0,0.0,0.0,0.0,2037,2826,1212,1912,1298,2788,2050,2901,1310,1039,1278,2804,2036,2812,1211,1912,1316,2792,2052,2884,1308,1041,1284,2805
1782219310.0416,7.8969,1,lf,0.0986,0.0986,-0.1000,0,0.3311,0.3315,-0.1022,-0.0009,0.0015,-0.0056,CLIMB,5,1,0,13.0,0.000,3.840,1,-1,0,-2.0,-13.0,-1.0,0.0,0.0,0.0,2037,2826,1212,1912,1298,2788,2050,2901,1310,1039,1278,2804,2035,2813,1211,1912,1315,2792,2052,2884,1309,1040,1284,2805
1782219310.0616,7.9169,1,lf,0.0986,0.0986,-0.1000,0,0.3309,0.3319,-0.1020,-0.0009,0.0013,-0.0057,CLIMB,5,1,0,13.0,0.000,3.860,1,-1,0,-2.0,-13.0,-1.0,0.0,0.0,0.0,2037,2826,1212,1912,1298,2788,2050,2901,1310,1039,1278,2804,2035,2813,1211,1912,1315,2792,2052,2884,1309,1040,1284,2805
1782219310.0815,7.9369,1,lf,0.0986,0.0986,-0.1000,0,0.3309,0.3319,-0.1020,-0.0009,0.0012,-0.0057,CLIMB,5,1,0,14.0,0.000,3.880,1,-1,0,-2.0,-14.0,-1.0,0.0,0.0,0.0,2037,2826,1212,1912,1298,2788,2050,2901,1310,1039,1278,2804,2035,2813,1211,1912,1315,2792,2052,2884,1309,1040,1284,2805
1782219310.1016,7.9570,1,lf,0.0986,0.0986,-0.1000,0,0.3308,0.3318,-0.1022,-0.0008,0.0012,-0.0056,CLIMB,5,1,0,14.0,0.000,3.900,1,-1,0,-1.0,-14.0,-1.0,0.0,0.0,0.0,2037,2826,1212,1912,1298,2788,2050,2901,1310,1039,1278,2804,2035,2812,1211,1912,1316,2791,2052,2884,1309,1040,1284,2805
1782219310.1216,7.9769,1,lf,0.0986,0.0986,-0.1000,0,0.3308,0.3318,-0.1022,-0.0008,0.0012,-0.0056,CLIMB,5,1,0,14.0,0.000,3.920,1,-1,0,-1.0,-14.0,-1.0,0.0,0.0,0.0,2037,2826,1212,1912,1298,2788,2050,2901,1310,1039,1278,2804,2035,2812,1211,1912,1316,2791,2052,2884,1309,1040,1284,2805
1782219310.1416,7.9969,1,lf,0.0986,0.0986,-0.1000,0,0.3308,0.3318,-0.1022,-0.0007,0.0012,-0.0056,CLIMB,5,1,0,13.0,0.000,3.940,1,-1,0,-2.0,-13.0,-1.0,0.0,0.0,0.0,2037,2826,1212,1912,1298,2788,2050,2901,1310,1039,1278,2804,2035,2813,1211,1912,1316,2792,2052,2884,1308,1040,1284,2805
1782219310.1616,8.0169,1,lf,0.0986,0.0986,-0.1000,0,0.3309,0.3319,-0.1020,-0.0008,0.0012,-0.0057,CLIMB,5,1,0,14.0,0.000,3.960,1,-1,0,-2.0,-14.0,-1.0,0.0,0.0,0.0,2037,2826,1212,1912,1298,2788,2050,2901,1310,1039,1278,2804,2035,2813,1211,1912,1316,2792,2052,2884,1308,1040,1284,2805
1782219310.1815,8.0368,1,lf,0.0986,0.0986,-0.1000,0,0.3309,0.3319,-0.1020,-0.0008,0.0012,-0.0057,CLIMB,5,1,0,14.0,0.000,3.980,1,-1,0,-2.0,-14.0,-1.0,0.0,0.0,0.0,2037,2826,1212,1912,1298,2788,2050,2901,1310,1039,1278,2804,2035,2813,1211,1912,1316,2792,2052,2884,1308,1040,1284,2805
1782219310.2016,8.0569,1,lf,0.0986,0.0986,-0.1000,0,0.3308,0.3318,-0.1022,-0.0008,0.0012,-0.0056,CLIMB,5,1,0,13.0,0.000,4.000,1,-1,0,-1.0,-13.0,-1.0,0.0,0.0,0.0,2037,2826,1212,1912,1298,2788,2050,2901,1310,1039,1278,2804,2035,2812,1211,1912,1316,2792,2052,2884,1308,1040,1283,2805
1782219310.2215,8.0769,1,lf,0.0986,0.0986,-0.1000,0,0.3308,0.3318,-0.1022,-0.0007,0.0012,-0.0056,CLIMB,5,1,0,13.0,0.000,4.020,1,-1,0,-1.0,-13.0,-1.0,0.0,0.0,0.0,2037,2826,1212,1912,1298,2788,2050,2901,1310,1039,1278,2804,2035,2812,1211,1912,1316,2792,2052,2884,1308,1040,1283,2805
1782219310.2415,8.0968,1,lf,0.0986,0.0986,-0.1000,0,0.3308,0.3318,-0.1022,-0.0007,0.0012,-0.0056,CLIMB,5,1,0,13.0,0.000,4.040,1,-1,0,-2.0,-13.0,-2.0,0.0,0.0,0.0,2037,2826,1212,1912,1298,2788,2050,2901,1310,1039,1278,2804,2035,2813,1210,1912,1316,2792,2052,2884,1309,1041,1284,2805
1782219310.2616,8.1169,1,lf,0.0986,0.0986,-0.1000,0,0.3309,0.3318,-0.1020,-0.0008,0.0012,-0.0057,CLIMB,5,1,0,13.0,0.000,4.060,1,-1,0,-1.0,-13.0,-1.0,0.0,0.0,0.0,2037,2826,1212,1912,1298,2788,2050,2901,1310,1039,1278,2804,2035,2813,1210,1912,1316,2792,2052,2884,1309,1041,1284,2805
1782219310.2816,8.1369,1,lf,0.0986,0.0986,-0.1000,0,0.3309,0.3318,-0.1020,-0.0008,0.0012,-0.0057,CLIMB,5,1,0,13.0,0.000,4.080,1,-1,0,-1.0,-13.0,-1.0,0.0,0.0,0.0,2037,2826,1212,1912,1298,2788,2050,2901,1310,1039,1278,2804,2035,2813,1210,1912,1316,2792,2052,2884,1309,1041,1284,2805
1782219310.3015,8.1569,1,lf,0.0986,0.0986,-0.1000,0,0.3309,0.3319,-0.1020,-0.0008,0.0012,-0.0057,CLIMB,5,1,0,13.0,0.000,4.100,1,-1,0,-2.0,-13.0,-1.0,0.0,0.0,0.0,2037,2826,1212,1912,1298,2788,2050,2901,1310,1039,1278,2804,2035,2813,1211,1912,1316,2792,2052,2884,1308,1040,1284,2805
1782219310.3216,8.1769,1,lf,0.0986,0.0986,-0.1000,0,0.3309,0.3319,-0.1020,-0.0008,0.0011,-0.0057,CLIMB,5,1,0,13.0,0.000,4.120,1,-1,0,-1.0,-13.0,-1.0,0.0,0.0,0.0,2037,2826,1212,1912,1298,2788,2050,2901,1310,1039,1278,2804,2035,2813,1211,1912,1316,2792,2052,2884,1308,1040,1284,2805
1782219310.3416,8.1969,1,lf,0.0986,0.0986,-0.1000,0,0.3309,0.3319,-0.1020,-0.0008,0.0011,-0.0057,CLIMB,5,1,0,13.0,0.000,4.140,1,-1,0,-1.0,-13.0,-1.0,0.0,0.0,0.0,2037,2826,1212,1912,1298,2788,2050,2901,1310,1039,1278,2804,2036,2813,1211,1912,1316,2791,2052,2884,1308,1041,1284,2805
1782219310.3616,8.2169,1,lf,0.0986,0.0986,-0.1000,0,0.3312,0.3316,-0.1020,-0.0009,0.0013,-0.0057,CLIMB,5,1,0,13.0,0.000,4.160,1,-1,0,-1.0,-13.0,-1.0,0.0,0.0,0.0,2037,2826,1212,1912,1298,2788,2050,2901,1310,1039,1278,2804,2036,2813,1211,1912,1316,2791,2052,2884,1308,1041,1284,2805
1782219310.3815,8.2369,1,lf,0.0986,0.0986,-0.1000,0,0.3312,0.3316,-0.1020,-0.0010,0.0014,-0.0057,CLIMB,5,1,0,13.0,0.000,4.180,1,-1,0,-1.0,-13.0,-1.0,0.0,0.0,0.0,2037,2826,1212,1912,1298,2788,2050,2901,1310,1039,1278,2804,2036,2813,1211,1912,1316,2791,2052,2884,1308,1041,1284,2805
1782219310.4016,8.2569,1,lf,0.0986,0.0986,-0.1000,0,0.3312,0.3316,-0.1020,-0.0010,0.0014,-0.0057,CLIMB,5,1,0,13.0,0.000,4.200,1,-1,0,-1.0,-13.0,-1.0,0.0,0.0,0.0,2037,2826,1212,1912,1298,2788,2050,2901,1310,1039,1278,2804,2036,2813,1211,1912,1316,2792,2052,2884,1308,1040,1284,2805
1782219310.4215,8.2769,1,lf,0.0986,0.0986,-0.1000,0,0.3312,0.3316,-0.1020,-0.0010,0.0014,-0.0057,CLIMB,5,1,0,13.0,0.000,4.220,1,-1,0,-1.0,-13.0,-1.0,0.0,0.0,0.0,2037,2826,1212,1912,1298,2788,2050,2901,1310,1039,1278,2804,2036,2813,1211,1912,1316,2792,2052,2884,1308,1040,1284,2805
1782219310.4415,8.2968,1,lf,0.0986,0.0986,-0.1000,0,0.3312,0.3316,-0.1020,-0.0010,0.0014,-0.0057,CLIMB,5,1,0,13.0,0.000,4.240,1,-1,0,-1.0,-13.0,-1.0,0.0,0.0,0.0,2037,2826,1212,1912,1298,2788,2050,2901,1310,1039,1278,2804,2036,2813,1211,1912,1316,2791,2052,2884,1309,1041,1284,2805
1782219310.4616,8.3169,1,lf,0.0986,0.0986,-0.1000,0,0.3312,0.3316,-0.1020,-0.0010,0.0014,-0.0057,CLIMB,5,1,0,14.0,0.000,4.260,1,-1,0,-1.0,-14.0,-1.0,0.0,0.0,0.0,2037,2826,1212,1912,1298,2788,2050,2901,1310,1039,1278,2804,2036,2813,1211,1912,1316,2791,2052,2884,1309,1041,1284,2805
1782219310.4816,8.3369,1,lf,0.0986,0.0986,-0.1000,0,0.3312,0.3316,-0.1020,-0.0010,0.0014,-0.0057,CLIMB,5,1,0,13.0,0.000,4.280,1,-1,0,-2.0,-13.0,-1.0,0.0,0.0,0.0,2037,2826,1212,1912,1298,2788,2050,2901,1310,1039,1278,2804,2036,2813,1211,1912,1316,2791,2052,2884,1309,1041,1284,2805
1782219310.5017,8.3570,1,lf,0.0986,0.0986,-0.1000,0,0.3309,0.3319,-0.1020,-0.0009,0.0013,-0.0057,CLIMB,5,1,0,13.0,0.000,4.300,1,-1,0,-2.0,-13.0,-1.0,0.0,0.0,0.0,2037,2826,1212,1912,1298,2788,2050,2901,1310,1039,1278,2804,2035,2813,1211,1912,1316,2792,2052,2884,1308,1041,1284,2805
1782219310.5216,8.3769,1,lf,0.0986,0.0986,-0.1000,0,0.3309,0.3319,-0.1020,-0.0009,0.0012,-0.0057,CLIMB,5,1,0,14.0,0.000,4.320,1,-1,0,-1.0,-14.0,-1.0,0.0,0.0,0.0,2037,2826,1212,1912,1298,2788,2050,2901,1310,1039,1278,2804,2035,2813,1211,1912,1316,2792,2052,2884,1308,1041,1284,2805
1782219310.5416,8.3969,1,lf,0.0986,0.0986,-0.1000,0,0.3309,0.3319,-0.1020,-0.0009,0.0012,-0.0057,CLIMB,5,1,0,14.0,0.000,4.340,1,-1,0,-1.0,-14.0,-1.0,0.0,0.0,0.0,2037,2826,1212,1912,1298,2788,2050,2901,1310,1039,1278,2804,2036,2812,1211,1912,1316,2792,2052,2884,1309,1040,1283,2805
1782219310.5616,8.4169,1,lf,0.0986,0.0986,-0.1000,0,0.3311,0.3315,-0.1022,-0.0009,0.0013,-0.0056,CLIMB,5,1,0,14.0,0.000,4.360,1,-1,0,-1.0,-14.0,-1.0,0.0,0.0,0.0,2037,2826,1212,1912,1298,2788,2050,2901,1310,1039,1278,2804,2036,2812,1211,1912,1316,2792,2052,2884,1309,1040,1283,2805
1782219310.5815,8.4368,1,lf,0.0986,0.0986,-0.1000,0,0.3311,0.3315,-0.1022,-0.0009,0.0014,-0.0056,CLIMB,5,1,0,13.0,0.000,4.380,1,-1,0,-2.0,-13.0,-1.0,0.0,0.0,0.0,2037,2826,1212,1912,1298,2788,2050,2901,1310,1039,1278,2804,2036,2812,1211,1912,1316,2792,2052,2884,1309,1040,1283,2805
1782219310.6015,8.4569,1,lf,0.0986,0.0986,-0.1000,0,0.3309,0.3319,-0.1020,-0.0009,0.0013,-0.0057,CLIMB,5,1,0,13.0,0.000,4.400,1,-1,0,-2.0,-13.0,-1.0,0.0,0.0,0.0,2037,2826,1212,1912,1298,2788,2050,2901,1310,1039,1278,2804,2035,2813,1211,1912,1316,2792,2052,2884,1308,1040,1284,2805
1782219310.6216,8.4769,1,lf,0.0986,0.0986,-0.1000,0,0.3309,0.3319,-0.1020,-0.0009,0.0012,-0.0057,CLIMB,5,1,0,14.0,0.000,4.420,1,-1,0,-1.0,-14.0,-1.0,0.0,0.0,0.0,2037,2826,1212,1912,1298,2788,2050,2901,1310,1039,1278,2804,2035,2813,1211,1912,1316,2792,2052,2884,1308,1040,1284,2805
1782219310.6415,8.4968,1,lf,0.0986,0.0986,-0.1000,0,0.3309,0.3319,-0.1020,-0.0009,0.0012,-0.0057,CLIMB,5,1,0,13.0,0.000,4.440,1,-1,0,-2.0,-13.0,-1.0,0.0,0.0,0.0,2037,2826,1212,1912,1298,2788,2050,2901,1310,1039,1278,2804,2035,2813,1211,1912,1316,2791,2052,2884,1308,1041,1284,2805
1782219310.6616,8.5170,1,lf,0.0986,0.0986,-0.1000,0,0.3309,0.3319,-0.1020,-0.0009,0.0012,-0.0057,CLIMB,5,1,0,13.0,0.000,4.460,1,-1,0,-2.0,-13.0,-1.0,0.0,0.0,0.0,2037,2826,1212,1912,1298,2788,2050,2901,1310,1039,1278,2804,2035,2813,1211,1912,1316,2791,2052,2884,1308,1041,1284,2805
1782219310.6816,8.5369,1,lf,0.0986,0.0986,-0.1000,0,0.3309,0.3319,-0.1020,-0.0009,0.0012,-0.0057,CLIMB,5,1,0,14.0,0.000,4.480,1,-1,0,-1.0,-14.0,-1.0,0.0,0.0,0.0,2037,2826,1212,1912,1298,2788,2050,2901,1310,1039,1278,2804,2035,2813,1211,1912,1316,2791,2052,2884,1308,1041,1284,2805
1782219310.7015,8.5569,1,lf,0.0986,0.0986,-0.1000,0,0.3311,0.3315,-0.1022,-0.0009,0.0014,-0.0056,CLIMB,5,1,0,14.0,0.000,4.500,1,-1,0,-1.0,-14.0,-1.0,0.0,0.0,0.0,2037,2826,1212,1912,1298,2788,2050,2901,1310,1039,1278,2804,2036,2812,1211,1912,1316,2792,2052,2884,1309,1040,1284,2805
1782219310.7216,8.5769,1,lf,0.0986,0.0986,-0.1000,0,0.3311,0.3315,-0.1022,-0.0009,0.0014,-0.0056,CLIMB,5,1,0,13.0,0.000,4.520,1,-1,0,-1.0,-13.0,-1.0,0.0,0.0,0.0,2037,2826,1212,1912,1298,2788,2050,2901,1310,1039,1278,2804,2036,2812,1211,1912,1316,2792,2052,2884,1309,1040,1284,2805
1782219310.7416,8.5969,1,lf,0.0986,0.0986,-0.1000,0,0.3311,0.3315,-0.1022,-0.0009,0.0015,-0.0056,CLIMB,5,1,0,14.0,0.000,4.540,1,-1,0,-1.0,-14.0,-1.0,0.0,0.0,0.0,2037,2826,1212,1912,1298,2788,2050,2901,1310,1039,1278,2804,2036,2812,1211,1912,1316,2792,2052,2884,1308,1041,1284,2805
1782219310.7616,8.6169,1,lf,0.0986,0.0986,-0.1000,0,0.3311,0.3315,-0.1022,-0.0009,0.0015,-0.0055,CLIMB,5,1,0,14.0,0.000,4.560,1,-1,0,-1.0,-14.0,-1.0,0.0,0.0,0.0,2037,2826,1212,1912,1298,2788,2050,2901,1310,1039,1278,2804,2036,2812,1211,1912,1316,2792,2052,2884,1308,1041,1284,2805
1782219310.7816,8.6369,1,lf,0.0986,0.0986,-0.1000,0,0.3311,0.3315,-0.1022,-0.0009,0.0015,-0.0055,CLIMB,5,1,0,13.0,0.000,4.580,1,-1,0,-1.0,-13.0,-1.0,0.0,0.0,0.0,2037,2826,1212,1912,1298,2788,2050,2901,1310,1039,1278,2804,2036,2812,1211,1912,1316,2792,2052,2884,1308,1041,1284,2805
1782219310.8016,8.6569,1,lf,0.0986,0.0986,-0.1000,0,0.3312,0.3316,-0.1020,-0.0010,0.0015,-0.0057,CLIMB,5,1,0,13.0,0.000,4.600,1,-1,0,-2.0,-13.0,-1.0,0.0,0.0,0.0,2037,2826,1212,1912,1298,2788,2050,2901,1310,1039,1278,2804,2036,2813,1211,1912,1316,2792,2052,2884,1308,1041,1284,2805
1782219310.8215,8.6769,1,lf,0.0986,0.0986,-0.1000,0,0.3312,0.3316,-0.1020,-0.0010,0.0015,-0.0057,CLIMB,5,1,0,13.0,0.000,4.620,1,-1,0,-2.0,-13.0,-1.0,0.0,0.0,0.0,2037,2826,1212,1912,1298,2788,2050,2901,1310,1039,1278,2804,2036,2813,1211,1912,1316,2792,2052,2884,1308,1041,1284,2805
1782219310.8416,8.6969,1,lf,0.0986,0.0986,-0.1000,0,0.3312,0.3316,-0.1020,-0.0010,0.0015,-0.0057,CLIMB,5,1,0,13.0,0.000,4.640,1,-1,0,-2.0,-13.0,-1.0,0.0,0.0,0.0,2037,2826,1212,1912,1298,2788,2050,2901,1310,1039,1278,2804,2035,2813,1211,1912,1316,2792,2052,2884,1309,1040,1283,2805
1782219310.8616,8.7169,1,lf,0.0986,0.0986,-0.1000,0,0.3309,0.3319,-0.1020,-0.0009,0.0013,-0.0057,CLIMB,5,1,0,13.0,0.000,4.660,1,-1,0,-2.0,-13.0,-1.0,0.0,0.0,0.0,2037,2826,1212,1912,1298,2788,2050,2901,1310,1039,1278,2804,2035,2813,1211,1912,1316,2792,2052,2884,1309,1040,1283,2805
1782219310.8816,8.7369,1,lf,0.0986,0.0986,-0.1000,0,0.3309,0.3319,-0.1020,-0.0009,0.0012,-0.0057,CLIMB,5,1,0,13.0,0.000,4.680,1,-1,0,-1.0,-13.0,-1.0,0.0,0.0,0.0,2037,2826,1212,1912,1298,2788,2050,2901,1310,1039,1278,2804,2035,2813,1211,1912,1316,2792,2052,2884,1309,1040,1283,2805
1782219310.9015,8.7569,1,lf,0.0986,0.0986,-0.1000,0,0.3312,0.3316,-0.1020,-0.0010,0.0013,-0.0057,CLIMB,5,1,0,14.0,0.000,4.700,1,-1,0,-2.0,-14.0,-1.0,0.0,0.0,0.0,2037,2826,1212,1912,1298,2788,2050,2901,1310,1039,1278,2804,2036,2813,1211,1912,1316,2792,2052,2884,1308,1040,1284,2805
1782219310.9216,8.7769,1,lf,0.0986,0.0986,-0.1000,0,0.3312,0.3316,-0.1020,-0.0010,0.0014,-0.0057,CLIMB,5,1,0,14.0,0.000,4.720,1,-1,0,-2.0,-14.0,-1.0,0.0,0.0,0.0,2037,2826,1212,1912,1298,2788,2050,2901,1310,1039,1278,2804,2036,2813,1211,1912,1316,2792,2052,2884,1308,1040,1284,2805
1782219310.9416,8.7969,1,lf,0.0986,0.0986,-0.1000,0,0.3312,0.3316,-0.1020,-0.0010,0.0014,-0.0057,CLIMB,5,1,0,14.0,0.000,4.740,1,-1,0,-2.0,-14.0,-1.0,0.0,0.0,0.0,2037,2826,1212,1912,1298,2788,2050,2901,1310,1039,1278,2804,2035,2812,1211,1912,1316,2792,2052,2884,1309,1040,1284,2805
1782219310.9615,8.8169,1,lf,0.0986,0.0986,-0.1000,0,0.3308,0.3318,-0.1022,-0.0009,0.0013,-0.0056,CLIMB,5,1,0,13.0,0.000,4.760,1,-1,0,-1.0,-13.0,-1.0,0.0,0.0,0.0,2037,2826,1212,1912,1298,2788,2050,2901,1310,1039,1278,2804,2035,2812,1211,1912,1316,2792,2052,2884,1309,1040,1284,2805
1782219310.9816,8.8369,1,lf,0.0986,0.0986,-0.1000,0,0.3308,0.3318,-0.1022,-0.0008,0.0013,-0.0055,CLIMB,5,1,0,13.0,0.000,4.780,1,-1,0,-1.0,-13.0,-1.0,0.0,0.0,0.0,2037,2826,1212,1912,1298,2788,2050,2901,1310,1039,1278,2804,2035,2812,1211,1912,1316,2792,2052,2884,1309,1040,1284,2805
1782219311.0016,8.8569,1,lf,0.0986,0.0986,-0.1000,0,0.3312,0.3316,-0.1020,-0.0009,0.0014,-0.0056,CLIMB,5,1,0,13.0,0.000,4.800,1,-1,0,-1.0,-13.0,-1.0,0.0,0.0,0.0,2037,2826,1212,1912,1298,2788,2050,2901,1310,1039,1278,2804,2036,2813,1211,1912,1315,2792,2052,2884,1309,1041,1284,2805
1782219311.0216,8.8769,1,lf,0.0986,0.0986,-0.1000,0,0.3312,0.3316,-0.1020,-0.0010,0.0014,-0.0057,CLIMB,5,1,0,13.0,0.000,4.820,1,-1,0,-1.0,-13.0,-1.0,0.0,0.0,0.0,2037,2826,1212,1912,1298,2788,2050,2901,1310,1039,1278,2804,2036,2813,1211,1912,1315,2792,2052,2884,1309,1041,1284,2805
1782219311.0416,8.8969,1,lf,0.0986,0.0986,-0.1000,0,0.3312,0.3316,-0.1020,-0.0010,0.0014,-0.0057,CLIMB,5,1,0,13.0,0.000,4.840,1,-1,0,-2.0,-13.0,-1.0,0.0,0.0,0.0,2037,2826,1212,1912,1298,2788,2050,2901,1310,1039,1278,2804,2035,2813,1211,1912,1316,2792,2052,2884,1308,1040,1284,2805
1782219311.0616,8.9170,1,lf,0.0986,0.0986,-0.1000,0,0.3309,0.3319,-0.1020,-0.0009,0.0013,-0.0057,CLIMB,5,1,0,14.0,0.000,4.860,1,-1,0,-2.0,-14.0,-1.0,0.0,0.0,0.0,2037,2826,1212,1912,1298,2788,2050,2901,1310,1039,1278,2804,2035,2813,1211,1912,1316,2792,2052,2884,1308,1040,1284,2805
1782219311.0816,8.9369,1,lf,0.0986,0.0986,-0.1000,0,0.3309,0.3319,-0.1020,-0.0009,0.0012,-0.0057,CLIMB,5,1,0,14.0,0.000,4.880,1,-1,0,-2.0,-14.0,-1.0,0.0,0.0,0.0,2037,2826,1212,1912,1298,2788,2050,2901,1310,1039,1278,2804,2035,2813,1211,1912,1316,2792,2052,2884,1308,1040,1284,2805
1782219311.1019,8.9572,1,lf,0.0986,0.0986,-0.1000,0,0.3309,0.3319,-0.1020,-0.0009,0.0012,-0.0057,CLIMB,5,1,0,13.0,0.000,4.900,1,-1,0,-2.0,-13.0,-1.0,0.0,0.0,0.0,2037,2826,1212,1912,1298,2788,2050,2901,1310,1039,1278,2804,2035,2813,1211,1912,1316,2791,2052,2884,1308,1040,1284,2805
1782219311.1218,8.9771,1,lf,0.0986,0.0986,-0.1000,0,0.3309,0.3319,-0.1020,-0.0009,0.0012,-0.0057,CLIMB,5,1,0,13.0,0.000,4.920,1,-1,0,-2.0,-13.0,-1.0,0.0,0.0,0.0,2037,2826,1212,1912,1298,2788,2050,2901,1310,1039,1278,2804,2035,2813,1211,1912,1316,2791,2052,2884,1308,1040,1284,2805
1782219311.1417,8.9970,1,lf,0.0986,0.0986,-0.1000,0,0.3309,0.3319,-0.1020,-0.0009,0.0012,-0.0057,CLIMB,5,1,0,13.0,0.000,4.940,1,-1,0,-2.0,-13.0,-1.0,0.0,0.0,0.0,2037,2826,1212,1912,1298,2788,2050,2901,1310,1039,1278,2804,2035,2813,1211,1912,1316,2792,2052,2884,1309,1040,1283,2805
1782219311.1615,9.0169,1,lf,0.0986,0.0986,-0.1000,0,0.3309,0.3319,-0.1020,-0.0008,0.0011,-0.0057,CLIMB,5,1,0,13.0,0.000,4.960,1,-1,0,-2.0,-13.0,-1.0,0.0,0.0,0.0,2037,2826,1212,1912,1298,2788,2050,2901,1310,1039,1278,2804,2035,2813,1211,1912,1316,2792,2052,2884,1309,1040,1283,2805
1782219311.1816,9.0369,1,lf,0.0986,0.0986,-0.1000,0,0.3309,0.3319,-0.1020,-0.0008,0.0011,-0.0057,CLIMB,5,1,0,13.0,0.000,4.980,1,-1,0,-2.0,-13.0,-1.0,0.0,0.0,0.0,2037,2826,1212,1912,1298,2788,2050,2901,1310,1039,1278,2804,2035,2813,1211,1912,1316,2792,2052,2884,1309,1040,1283,2805
1782219311.2015,9.0568,1,lf,0.0986,0.0986,-0.1000,0,0.3309,0.3319,-0.1020,-0.0008,0.0011,-0.0057,CLIMB,5,1,0,13.0,0.000,5.000,1,-1,0,-2.0,-13.0,-1.0,0.0,0.0,0.0,2037,2826,1212,1912,1298,2788,2050,2901,1310,1039,1278,2804,2035,2813,1211,1912,1316,2792,2052,2884,1308,1041,1284,2805
1782219311.2216,9.0769,1,lf,0.0986,0.0986,-0.1000,0,0.3309,0.3319,-0.1020,-0.0008,0.0011,-0.0057,CLIMB,5,1,0,14.0,0.000,5.020,1,-1,0,-1.0,-14.0,-1.0,0.0,0.0,0.0,2037,2826,1212,1912,1298,2788,2050,2901,1310,1039,1278,2804,2035,2813,1211,1912,1316,2792,2052,2884,1308,1041,1284,2805
1782219311.2416,9.0970,1,lf,0.0986,0.0986,-0.1000,0,0.3309,0.3319,-0.1020,-0.0008,0.0011,-0.0057,CLIMB,5,1,0,14.0,0.000,5.040,1,-1,0,-1.0,-14.0,-1.0,0.0,0.0,0.0,2037,2826,1212,1912,1298,2788,2050,2901,1310,1039,1278,2804,2036,2812,1211,1912,1316,2792,2052,2884,1309,1041,1284,2805
1782219311.2615,9.1169,1,lf,0.0986,0.0986,-0.1000,0,0.3311,0.3315,-0.1022,-0.0009,0.0013,-0.0056,CLIMB,5,1,0,13.0,0.000,5.060,1,-1,0,-1.0,-13.0,-1.0,0.0,0.0,0.0,2037,2826,1212,1912,1298,2788,2050,2901,1310,1039,1278,2804,2036,2812,1211,1912,1316,2792,2052,2884,1309,1041,1284,2805
1782219311.2816,9.1369,1,lf,0.0986,0.0986,-0.1000,0,0.3311,0.3315,-0.1022,-0.0009,0.0014,-0.0056,CLIMB,5,1,0,14.0,0.000,5.080,1,-1,0,-2.0,-14.0,-1.0,0.0,0.0,0.0,2037,2826,1212,1912,1298,2788,2050,2901,1310,1039,1278,2804,2036,2812,1211,1912,1316,2792,2052,2884,1309,1041,1284,2805
1782219311.3015,9.1569,1,lf,0.0986,0.0986,-0.1000,0,0.3308,0.3318,-0.1022,-0.0008,0.0013,-0.0055,CLIMB,5,1,0,14.0,0.000,5.100,1,-1,0,-2.0,-14.0,-1.0,0.0,0.0,0.0,2037,2826,1212,1912,1298,2788,2050,2901,1310,1039,1278,2804,2035,2812,1211,1912,1316,2792,2052,2884,1308,1040,1284,2805
1782219311.3216,9.1769,1,lf,0.0986,0.0986,-0.1000,0,0.3308,0.3318,-0.1022,-0.0007,0.0013,-0.0055,CLIMB,5,1,0,13.0,0.000,5.120,1,-1,0,-1.0,-13.0,-2.0,0.0,0.0,0.0,2037,2826,1212,1912,1298,2788,2050,2901,1310,1039,1278,2804,2035,2812,1211,1912,1316,2792,2052,2884,1308,1040,1284,2805
1782219311.3416,9.1969,1,lf,0.0986,0.0986,-0.1000,0,0.3308,0.3318,-0.1022,-0.0007,0.0013,-0.0055,CLIMB,5,1,0,13.0,0.000,5.140,1,-1,0,-1.0,-13.0,-2.0,0.0,0.0,0.0,2037,2826,1212,1912,1298,2788,2050,2901,1310,1039,1278,2804,2036,2813,1210,1912,1316,2792,2052,2884,1308,1041,1284,2805
1782219311.3616,9.2169,1,lf,0.0986,0.0986,-0.1000,0,0.3311,0.3316,-0.1020,-0.0008,0.0014,-0.0056,CLIMB,5,1,0,13.0,0.000,5.160,1,-1,0,-2.0,-13.0,-1.0,0.0,0.0,0.0,2037,2826,1212,1912,1298,2788,2050,2901,1310,1039,1278,2804,2036,2813,1210,1912,1316,2792,2052,2884,1308,1041,1284,2805
1782219311.3815,9.2368,1,lf,0.0986,0.0986,-0.1000,0,0.3311,0.3316,-0.1020,-0.0009,0.0014,-0.0056,CLIMB,5,1,0,14.0,0.000,5.180,1,-1,0,-2.0,-14.0,-1.0,0.0,0.0,0.0,2037,2826,1212,1912,1298,2788,2050,2901,1310,1039,1278,2804,2036,2813,1210,1912,1316,2792,2052,2884,1308,1041,1284,2805
1782219311.4015,9.2569,1,lf,0.0986,0.0986,-0.1000,0,0.3308,0.3318,-0.1022,-0.0008,0.0013,-0.0056,CLIMB,5,1,0,14.0,0.000,5.200,1,-1,0,-2.0,-14.0,-1.0,0.0,0.0,0.0,2037,2826,1212,1912,1298,2788,2050,2901,1310,1039,1278,2804,2035,2812,1211,1912,1316,2792,2052,2884,1308,1041,1284,2805
1782219311.4216,9.2769,1,lf,0.0986,0.0986,-0.1000,0,0.3308,0.3318,-0.1022,-0.0007,0.0013,-0.0055,CLIMB,5,1,0,13.0,0.000,5.220,1,-1,0,-1.0,-13.0,-1.0,0.0,0.0,0.0,2037,2826,1212,1912,1298,2788,2050,2901,1310,1039,1278,2804,2035,2812,1211,1912,1316,2792,2052,2884,1308,1041,1284,2805
1782219311.4416,9.2970,1,lf,0.0986,0.0986,-0.1000,0,0.3308,0.3318,-0.1022,-0.0007,0.0013,-0.0055,CLIMB,5,1,0,14.0,0.000,5.240,1,-1,0,-2.0,-14.0,-1.0,0.0,0.0,0.0,2037,2826,1212,1912,1298,2788,2050,2901,1310,1039,1278,2804,2035,2812,1211,1912,1316,2792,2052,2884,1308,1040,1284,2805
1782219311.4617,9.3171,1,lf,0.0986,0.0986,-0.1000,0,0.3308,0.3318,-0.1022,-0.0007,0.0012,-0.0055,CLIMB,5,1,0,14.0,0.000,5.260,1,-1,0,-2.0,-14.0,-1.0,0.0,0.0,0.0,2037,2826,1212,1912,1298,2788,2050,2901,1310,1039,1278,2804,2035,2812,1211,1912,1316,2792,2052,2884,1308,1040,1284,2805
1782219311.4816,9.3369,1,lf,0.0986,0.0986,-0.1000,0,0.3308,0.3318,-0.1022,-0.0007,0.0012,-0.0055,CLIMB,5,1,0,13.0,0.000,5.280,1,-1,0,-2.0,-13.0,-1.0,0.0,0.0,0.0,2037,2826,1212,1912,1298,2788,2050,2901,1310,1039,1278,2804,2035,2812,1211,1912,1316,2792,2052,2884,1308,1040,1284,2805
1782219311.5016,9.3569,1,lf,0.0986,0.0986,-0.1000,0,0.3309,0.3319,-0.1020,-0.0008,0.0012,-0.0056,CLIMB,5,1,0,13.0,0.000,5.300,1,-1,0,-2.0,-13.0,-1.0,0.0,0.0,0.0,2037,2826,1212,1912,1298,2788,2050,2901,1310,1039,1278,2804,2035,2813,1211,1912,1316,2792,2052,2884,1308,1041,1283,2805
1782219311.5216,9.3769,1,lf,0.0986,0.0986,-0.1000,0,0.3309,0.3319,-0.1020,-0.0008,0.0012,-0.0056,CLIMB,5,1,0,13.0,0.000,5.320,1,-1,0,-1.0,-13.0,-1.0,0.0,0.0,0.0,2037,2826,1212,1912,1298,2788,2050,2901,1310,1039,1278,2804,2035,2813,1211,1912,1316,2792,2052,2884,1308,1041,1283,2805
1782219311.5416,9.3969,1,lf,0.0986,0.0986,-0.1000,0,0.3309,0.3319,-0.1020,-0.0008,0.0012,-0.0057,CLIMB,5,1,0,13.0,0.000,5.340,1,-1,0,-2.0,-13.0,-1.0,0.0,0.0,0.0,2037,2826,1212,1912,1298,2788,2050,2901,1310,1039,1278,2804,2035,2813,1211,1912,1316,2791,2052,2884,1308,1041,1283,2805
1782219311.5616,9.4170,1,lf,0.0986,0.0986,-0.1000,0,0.3309,0.3319,-0.1020,-0.0008,0.0011,-0.0057,CLIMB,5,1,0,13.0,0.000,5.360,1,-1,0,-2.0,-13.0,-1.0,0.0,0.0,0.0,2037,2826,1212,1912,1298,2788,2050,2901,1310,1039,1278,2804,2035,2813,1211,1912,1316,2791,2052,2884,1308,1041,1283,2805
1782219311.5815,9.4369,1,lf,0.0986,0.0986,-0.1000,0,0.3309,0.3319,-0.1020,-0.0008,0.0011,-0.0057,CLIMB,5,1,0,13.0,0.000,5.380,1,-1,0,-2.0,-13.0,-2.0,0.0,0.0,0.0,2037,2826,1212,1912,1298,2788,2050,2901,1310,1039,1278,2804,2035,2813,1211,1912,1316,2791,2052,2884,1308,1041,1283,2805
1782219311.6015,9.4568,1,lf,0.0986,0.0986,-0.1000,0,0.3309,0.3318,-0.1020,-0.0008,0.0012,-0.0057,CLIMB,5,1,0,13.0,0.000,5.400,1,-1,0,-1.0,-13.0,-1.0,0.0,0.0,0.0,2037,2826,1212,1912,1298,2788,2050,2901,1310,1039,1278,2804,2035,2813,1210,1912,1316,2792,2052,2884,1309,1041,1284,2805
1782219311.6216,9.4769,1,lf,0.0986,0.0986,-0.1000,0,0.3309,0.3318,-0.1020,-0.0008,0.0012,-0.0057,CLIMB,5,1,0,13.0,0.000,5.420,1,-1,0,-1.0,-13.0,-1.0,0.0,0.0,0.0,2037,2826,1212,1912,1298,2788,2050,2901,1310,1039,1278,2804,2035,2813,1210,1912,1316,2792,2052,2884,1309,1041,1284,2805
1782219311.6415,9.4969,1,lf,0.0986,0.0986,-0.1000,0,0.3309,0.3318,-0.1020,-0.0008,0.0012,-0.0057,CLIMB,5,1,0,14.0,0.000,5.440,1,-1,0,-2.0,-14.0,-1.0,0.0,0.0,0.0,2037,2826,1212,1912,1298,2788,2050,2901,1310,1039,1278,2804,2035,2812,1211,1912,1316,2791,2052,2884,1309,1040,1284,2806
1782219311.6616,9.5170,1,lf,0.0986,0.0986,-0.1000,0,0.3308,0.3318,-0.1022,-0.0007,0.0012,-0.0056,CLIMB,5,1,0,14.0,0.000,5.460,1,-1,0,-2.0,-14.0,-1.0,0.0,0.0,0.0,2037,2826,1212,1912,1298,2788,2050,2901,1310,1039,1278,2804,2035,2812,1211,1912,1316,2791,2052,2884,1309,1040,1284,2806
1782219311.6815,9.5369,1,lf,0.0986,0.0986,-0.1000,0,0.3308,0.3318,-0.1022,-0.0007,0.0012,-0.0055,CLIMB,5,1,0,13.0,0.000,5.480,1,-1,0,-1.0,-13.0,-1.0,0.0,0.0,0.0,2037,2826,1212,1912,1298,2788,2050,2901,1310,1039,1278,2804,2035,2812,1211,1912,1316,2791,2052,2884,1309,1040,1284,2806
1782219311.7016,9.5569,1,lf,0.0986,0.0986,-0.1000,0,0.3312,0.3316,-0.1020,-0.0009,0.0014,-0.0056,CLIMB,5,1,0,13.0,0.000,5.500,1,-1,0,-1.0,-13.0,-1.0,0.0,0.0,0.0,2037,2826,1212,1912,1298,2788,2050,2901,1310,1039,1278,2804,2036,2813,1211,1912,1316,2791,2052,2884,1308,1041,1284,2806
1782219311.7216,9.5769,1,lf,0.0986,0.0986,-0.1000,0,0.3312,0.3316,-0.1020,-0.0009,0.0014,-0.0057,CLIMB,5,1,0,13.0,0.000,5.520,1,-1,0,-1.0,-13.0,-1.0,0.0,0.0,0.0,2037,2826,1212,1912,1298,2788,2050,2901,1310,1039,1278,2804,2036,2813,1211,1912,1316,2791,2052,2884,1308,1041,1284,2806
1782219311.7415,9.5969,1,lf,0.0986,0.0986,-0.1000,0,0.3312,0.3316,-0.1020,-0.0010,0.0014,-0.0057,CLIMB,5,1,0,14.0,0.000,5.540,1,-1,0,-2.0,-14.0,-1.0,0.0,0.0,0.0,2037,2826,1212,1912,1298,2788,2050,2901,1310,1039,1278,2804,2035,2812,1211,1912,1316,2792,2052,2884,1309,1040,1284,2805
1782219311.7616,9.6169,1,lf,0.0986,0.0986,-0.1000,0,0.3308,0.3318,-0.1022,-0.0008,0.0013,-0.0056,CLIMB,5,1,0,14.0,0.000,5.560,1,-1,0,-2.0,-14.0,-1.0,0.0,0.0,0.0,2037,2826,1212,1912,1298,2788,2050,2901,1310,1039,1278,2804,2035,2812,1211,1912,1316,2792,2052,2884,1309,1040,1284,2805
1782219311.7816,9.6370,1,lf,0.0986,0.0986,-0.1000,0,0.3308,0.3318,-0.1022,-0.0008,0.0013,-0.0055,CLIMB,5,1,0,14.0,0.000,5.580,1,-1,0,-2.0,-14.0,-1.0,0.0,0.0,0.0,2037,2826,1212,1912,1298,2788,2050,2901,1310,1039,1278,2804,2035,2812,1211,1912,1316,2792,2052,2884,1309,1040,1284,2805
1782219311.8016,9.6569,1,lf,0.0986,0.0986,-0.1000,0,0.3308,0.3318,-0.1022,-0.0007,0.0013,-0.0055,CLIMB,5,1,0,13.0,0.000,5.600,1,-1,0,-2.0,-13.0,-1.0,0.0,0.0,0.0,2037,2826,1212,1912,1298,2788,2050,2901,1310,1039,1278,2804,2035,2812,1211,1912,1316,2791,2052,2884,1308,1041,1284,2805
1782219311.8215,9.6769,1,lf,0.0986,0.0986,-0.1000,0,0.3308,0.3318,-0.1022,-0.0007,0.0013,-0.0055,CLIMB,5,1,0,13.0,0.000,5.620,1,-1,0,-2.0,-13.0,-1.0,0.0,0.0,0.0,2037,2826,1212,1912,1298,2788,2050,2901,1310,1039,1278,2804,2035,2812,1211,1912,1316,2791,2052,2884,1308,1041,1284,2805
1782219311.8416,9.6969,1,lf,0.0986,0.0986,-0.1000,0,0.3308,0.3318,-0.1022,-0.0007,0.0013,-0.0055,CLIMB,5,1,0,13.0,0.000,5.640,1,-1,0,-2.0,-13.0,-1.0,0.0,0.0,0.0,2037,2826,1212,1912,1298,2788,2050,2901,1310,1039,1278,2804,2035,2813,1211,1912,1316,2791,2052,2884,1308,1040,1284,2805
1782219311.8616,9.7169,1,lf,0.0986,0.0986,-0.1000,0,0.3309,0.3319,-0.1020,-0.0008,0.0012,-0.0056,CLIMB,5,1,0,14.0,0.000,5.660,1,-1,0,-1.0,-14.0,-1.0,0.0,0.0,0.0,2037,2826,1212,1912,1298,2788,2050,2901,1310,1039,1278,2804,2035,2813,1211,1912,1316,2791,2052,2884,1308,1040,1284,2805
1782219311.8816,9.7370,1,lf,0.0986,0.0986,-0.1000,0,0.3309,0.3319,-0.1020,-0.0008,0.0012,-0.0056,CLIMB,5,1,0,14.0,0.000,5.680,1,-1,0,-1.0,-14.0,-1.0,0.0,0.0,0.0,2037,2826,1212,1912,1298,2788,2050,2901,1310,1039,1278,2804,2035,2813,1211,1912,1316,2791,2052,2884,1308,1040,1284,2805
1782219311.9016,9.7569,1,lf,0.0986,0.0986,-0.1000,0,0.3309,0.3319,-0.1020,-0.0008,0.0012,-0.0057,CLIMB,5,1,0,13.0,0.000,5.700,1,-1,0,-2.0,-13.0,-1.0,0.0,0.0,0.0,2037,2826,1212,1912,1298,2788,2050,2901,1310,1039,1278,2804,2035,2813,1211,1912,1316,2792,2052,2884,1309,1040,1284,2805
1782219311.9217,9.7770,1,lf,0.0986,0.0986,-0.1000,0,0.3309,0.3319,-0.1020,-0.0008,0.0012,-0.0057,CLIMB,5,1,0,14.0,0.000,5.720,1,-1,0,-1.0,-14.0,-2.0,0.0,0.0,0.0,2037,2826,1212,1912,1298,2788,2050,2901,1310,1039,1278,2804,2035,2813,1211,1912,1316,2792,2052,2884,1309,1040,1284,2805
1782219311.9415,9.7969,1,lf,0.0986,0.0986,-0.1000,0,0.3309,0.3319,-0.1020,-0.0009,0.0012,-0.0057,CLIMB,5,1,0,14.0,0.000,5.740,1,-1,0,-1.0,-14.0,-2.0,0.0,0.0,0.0,2037,2826,1212,1912,1298,2788,2050,2901,1310,1039,1278,2804,2036,2812,1210,1912,1316,2791,2052,2884,1308,1041,1284,2805
