DreamSnakecc/climbing_ws/test_logs/dxl_autotune_20260623_205243/leg_endpoint/trial_04_id_1_p_120/single_swing_lf_20260623_205418.csv
wall_time,elapsed_s,cycle,leg,cmd_x,cmd_y,cmd_z,cmd_support,ujc_x,ujc_y,ujc_z,body_x,body_y,body_z,mission_state,servo_phase_id,servo_gate_enabled,servo_ready,servo_max_abs_error_tick,servo_within_tolerance_s,servo_wait_s,servo_timed_out,servo_last_pass_phase_id,servo_last_pass_sequence,servo_error_joint1_tick,servo_error_joint2_tick,servo_error_joint3_tick,servo_last_pass_error_joint1_tick,servo_last_pass_error_joint2_tick,servo_last_pass_error_joint3_tick,ticks_cmd_11,ticks_cmd_1,ticks_cmd_2,ticks_cmd_12,ticks_cmd_3,ticks_cmd_4,ticks_cmd_13,ticks_cmd_5,ticks_cmd_6,ticks_cmd_14,ticks_cmd_7,ticks_cmd_8,ticks_act_11,ticks_act_1,ticks_act_2,ticks_act_12,ticks_act_3,ticks_act_4,ticks_act_13,ticks_act_5,ticks_act_6,ticks_act_14,ticks_act_7,ticks_act_8
1782219261.1867,2.7717,1,lf,0.0986,0.0986,-0.1100,0,0.3318,0.3323,-0.1103,-0.0014,0.0004,0.0022,CLIMB,4,1,0,0.0,0.000,0.000,0,-1,0,0.0,0.0,0.0,0.0,0.0,0.0,2037,2781,1318,1912,1298,2788,2050,2901,1310,1039,1278,2804,2036,2776,1313,1912,1316,2793,2052,2884,1308,1040,1297,2806
1782219261.1917,2.7766,1,lf,0.0986,0.0986,-0.1100,0,0.3318,0.3323,-0.1103,-0.0014,0.0004,0.0022,CLIMB,4,1,0,0.0,0.000,0.000,0,-1,0,0.0,0.0,0.0,0.0,0.0,0.0,2037,2781,1318,1912,1298,2788,2050,2901,1310,1039,1278,2804,2036,2776,1313,1912,1316,2793,2052,2884,1308,1040,1297,2806
1782219261.2119,2.7969,1,lf,0.0986,0.0986,-0.1100,0,0.3316,0.3325,-0.1103,-0.0013,0.0004,0.0023,CLIMB,4,1,0,0.0,0.000,0.000,0,-1,0,0.0,0.0,0.0,0.0,0.0,0.0,2037,2781,1318,1912,1298,2788,2050,2901,1310,1039,1278,2804,2035,2776,1313,1912,1316,2793,2052,2884,1308,1040,1297,2806
1782219261.2318,2.8167,1,lf,0.0986,0.0986,-0.1100,0,0.3316,0.3325,-0.1103,-0.0013,0.0004,0.0022,CLIMB,4,1,0,0.0,0.000,0.000,0,-1,0,0.0,0.0,0.0,0.0,0.0,0.0,2037,2781,1318,1912,1298,2788,2050,2901,1310,1039,1278,2804,2035,2776,1313,1912,1316,2793,2052,2884,1308,1040,1297,2806
1782219261.2522,2.8371,1,lf,0.0986,0.0986,-0.1100,0,0.3316,0.3325,-0.1103,-0.0014,0.0004,0.0021,CLIMB,4,1,0,0.0,0.000,0.000,0,-1,0,0.0,0.0,0.0,0.0,0.0,0.0,2037,2781,1318,1912,1298,2788,2050,2901,1310,1039,1278,2804,2035,2776,1313,1912,1316,2793,2052,2884,1309,1040,1297,2806
1782219261.2718,2.8568,1,lf,0.0986,0.0986,-0.1100,0,0.3316,0.3325,-0.1103,-0.0014,0.0004,0.0021,CLIMB,4,1,0,0.0,0.000,0.000,0,-1,0,0.0,0.0,0.0,0.0,0.0,0.0,2037,2781,1318,1912,1298,2788,2050,2901,1310,1039,1278,2804,2035,2776,1313,1912,1316,2793,2052,2884,1309,1040,1297,2806
1782219261.2918,2.8767,1,lf,0.0986,0.0986,-0.1100,0,0.3316,0.3325,-0.1103,-0.0014,0.0004,0.0021,CLIMB,4,1,0,0.0,0.000,0.000,0,-1,0,0.0,0.0,0.0,0.0,0.0,0.0,2037,2781,1318,1912,1298,2788,2050,2901,1310,1039,1278,2804,2036,2776,1313,1912,1316,2793,2052,2884,1309,1040,1297,2806
1782219261.3118,2.8968,1,lf,0.0986,0.0986,-0.1100,0,0.3318,0.3323,-0.1103,-0.0015,0.0006,0.0021,CLIMB,4,1,0,0.0,0.000,0.000,0,-1,0,0.0,0.0,0.0,0.0,0.0,0.0,2037,2781,1318,1912,1298,2788,2050,2901,1310,1039,1278,2804,2036,2776,1313,1912,1316,2793,2052,2884,1309,1040,1297,2806
1782219261.3319,2.9168,1,lf,0.0986,0.0986,-0.1100,0,0.3318,0.3323,-0.1103,-0.0015,0.0006,0.0021,CLIMB,4,1,0,0.0,0.000,0.000,0,-1,0,0.0,0.0,0.0,0.0,0.0,0.0,2037,2781,1318,1912,1298,2788,2050,2901,1310,1039,1278,2804,2036,2776,1313,1912,1316,2793,2052,2884,1309,1040,1297,2806
1782219261.3518,2.9368,1,lf,0.0986,0.0986,-0.1100,0,0.3316,0.3325,-0.1103,-0.0015,0.0005,0.0021,CLIMB,4,1,0,0.0,0.000,0.000,0,-1,0,0.0,0.0,0.0,0.0,0.0,0.0,2037,2781,1318,1912,1298,2788,2050,2901,1310,1039,1278,2804,2035,2776,1313,1913,1316,2793,2052,2884,1309,1040,1297,2806
1782219261.3719,2.9569,1,lf,0.0986,0.0986,-0.1100,0,0.3316,0.3325,-0.1103,-0.0014,0.0005,0.0021,CLIMB,4,1,0,0.0,0.000,0.000,0,-1,0,0.0,0.0,0.0,0.0,0.0,0.0,2037,2781,1318,1912,1298,2788,2050,2901,1310,1039,1278,2804,2035,2776,1313,1913,1316,2793,2052,2884,1309,1040,1297,2806
1782219261.3918,2.9768,1,lf,0.0986,0.0986,-0.1100,0,0.3316,0.3325,-0.1103,-0.0014,0.0004,0.0021,CLIMB,4,1,0,0.0,0.000,0.000,0,-1,0,0.0,0.0,0.0,0.0,0.0,0.0,2037,2781,1318,1912,1298,2788,2050,2901,1310,1039,1278,2804,2036,2776,1313,1912,1316,2793,2052,2884,1308,1040,1297,2806
1782219261.4117,2.9967,1,lf,0.0986,0.0986,-0.1100,0,0.3318,0.3323,-0.1103,-0.0015,0.0006,0.0021,CLIMB,4,1,0,0.0,0.000,0.000,0,-1,0,0.0,0.0,0.0,0.0,0.0,0.0,2037,2781,1318,1912,1298,2788,2050,2901,1310,1039,1278,2804,2036,2776,1313,1912,1316,2793,2052,2884,1308,1040,1297,2806
1782219261.4318,3.0168,1,lf,0.0986,0.0986,-0.1100,0,0.3318,0.3323,-0.1103,-0.0015,0.0006,0.0021,CLIMB,4,1,0,0.0,0.000,0.000,0,-1,0,0.0,0.0,0.0,0.0,0.0,0.0,2037,2781,1318,1912,1298,2788,2050,2901,1310,1039,1278,2804,2036,2776,1313,1912,1316,2793,2052,2884,1308,1040,1297,2806
1782219261.4517,3.0367,1,lf,0.0986,0.0986,-0.1100,0,0.3316,0.3325,-0.1103,-0.0015,0.0005,0.0021,CLIMB,4,1,0,0.0,0.000,0.000,0,-1,0,0.0,0.0,0.0,0.0,0.0,0.0,2037,2781,1318,1912,1298,2788,2050,2901,1310,1039,1278,2804,2035,2776,1313,1912,1316,2793,2052,2884,1309,1040,1297,2806
1782219261.4717,3.0567,1,lf,0.0986,0.0986,-0.1100,0,0.3316,0.3325,-0.1103,-0.0014,0.0005,0.0020,CLIMB,4,1,0,0.0,0.000,0.000,0,-1,0,0.0,0.0,0.0,0.0,0.0,0.0,2037,2781,1318,1912,1298,2788,2050,2901,1310,1039,1278,2804,2035,2776,1313,1912,1316,2793,2052,2884,1309,1040,1297,2806
1782219261.4917,3.0767,1,lf,0.0986,0.0986,-0.1100,0,0.3316,0.3325,-0.1103,-0.0014,0.0004,0.0020,CLIMB,4,1,0,0.0,0.000,0.000,0,-1,0,0.0,0.0,0.0,0.0,0.0,0.0,2037,2781,1318,1912,1298,2788,2050,2901,1310,1039,1278,2804,2036,2776,1313,1912,1316,2794,2052,2885,1309,1040,1297,2806
1782219261.5118,3.0967,1,lf,0.0986,0.0986,-0.1100,0,0.3318,0.3323,-0.1103,-0.0015,0.0006,0.0020,CLIMB,4,1,0,0.0,0.000,0.000,0,-1,0,0.0,0.0,0.0,0.0,0.0,0.0,2037,2781,1318,1912,1298,2788,2050,2901,1310,1039,1278,2804,2036,2776,1313,1912,1316,2794,2052,2885,1309,1040,1297,2806
1782219261.5318,3.1168,1,lf,0.0986,0.0986,-0.1100,0,0.3318,0.3323,-0.1103,-0.0016,0.0006,0.0020,CLIMB,4,1,0,0.0,0.000,0.000,0,-1,0,0.0,0.0,0.0,0.0,0.0,0.0,2037,2781,1318,1912,1298,2788,2050,2901,1310,1039,1278,2804,2036,2776,1313,1912,1316,2794,2052,2885,1309,1040,1297,2806
1782219261.5518,3.1368,1,lf,0.0986,0.0986,-0.1100,0,0.3316,0.3325,-0.1103,-0.0015,0.0005,0.0021,CLIMB,4,1,0,0.0,0.000,0.000,0,-1,0,0.0,0.0,0.0,0.0,0.0,0.0,2037,2781,1318,1912,1298,2788,2050,2901,1310,1039,1278,2804,2035,2776,1313,1913,1316,2794,2052,2884,1308,1040,1297,2806
1782219261.5718,3.1568,1,lf,0.0986,0.0986,-0.1100,0,0.3316,0.3325,-0.1103,-0.0015,0.0005,0.0021,CLIMB,4,1,0,0.0,0.000,0.000,0,-1,0,0.0,0.0,0.0,0.0,0.0,0.0,2037,2781,1318,1912,1298,2788,2050,2901,1310,1039,1278,2804,2035,2776,1313,1913,1316,2794,2052,2884,1308,1040,1297,2806
1782219261.5917,3.1767,1,lf,0.0986,0.0986,-0.1100,0,0.3316,0.3325,-0.1103,-0.0014,0.0004,0.0021,CLIMB,4,1,0,0.0,0.000,0.000,0,-1,0,0.0,0.0,0.0,0.0,0.0,0.0,2037,2781,1318,1912,1298,2788,2050,2901,1310,1039,1278,2804,2035,2776,1313,1912,1316,2793,2052,2884,1308,1040,1297,2806
1782219261.6118,3.1968,1,lf,0.0986,0.0986,-0.1100,0,0.3316,0.3325,-0.1103,-0.0014,0.0004,0.0020,CLIMB,4,1,0,0.0,0.000,0.000,0,-1,0,0.0,0.0,0.0,0.0,0.0,0.0,2037,2781,1318,1912,1298,2788,2050,2901,1310,1039,1278,2804,2035,2776,1313,1912,1316,2793,2052,2884,1308,1040,1297,2806
1782219261.6318,3.2168,1,lf,0.0986,0.0986,-0.1100,0,0.3316,0.3325,-0.1103,-0.0014,0.0004,0.0020,CLIMB,4,1,0,0.0,0.000,0.000,0,-1,0,0.0,0.0,0.0,0.0,0.0,0.0,2037,2781,1318,1912,1298,2788,2050,2901,1310,1039,1278,2804,2035,2776,1313,1912,1316,2793,2052,2884,1308,1040,1297,2806
1782219261.6518,3.2368,1,lf,0.0986,0.0986,-0.1100,0,0.3318,0.3323,-0.1103,-0.0015,0.0005,0.0020,CLIMB,4,1,0,0.0,0.000,0.000,0,-1,0,0.0,0.0,0.0,0.0,0.0,0.0,2037,2781,1318,1912,1298,2788,2050,2901,1310,1039,1278,2804,2036,2776,1313,1912,1316,2793,2052,2884,1309,1040,1297,2806
1782219261.6718,3.2568,1,lf,0.0986,0.0986,-0.1100,0,0.3318,0.3323,-0.1103,-0.0015,0.0006,0.0020,CLIMB,4,1,0,0.0,0.000,0.000,0,-1,0,0.0,0.0,0.0,0.0,0.0,0.0,2037,2781,1318,1912,1298,2788,2050,2901,1310,1039,1278,2804,2036,2776,1313,1912,1316,2793,2052,2884,1309,1040,1297,2806
1782219261.6917,3.2767,1,lf,0.0986,0.0986,-0.1100,0,0.3318,0.3323,-0.1103,-0.0015,0.0006,0.0021,CLIMB,4,1,0,0.0,0.000,0.000,0,-1,0,0.0,0.0,0.0,0.0,0.0,0.0,2037,2781,1318,1912,1298,2788,2050,2901,1310,1039,1278,2804,2035,2776,1313,1912,1316,2793,2052,2885,1309,1040,1297,2806
1782219261.7119,3.2968,1,lf,0.0986,0.0986,-0.1100,0,0.3316,0.3325,-0.1103,-0.0015,0.0005,0.0021,CLIMB,4,1,0,0.0,0.000,0.000,0,-1,0,0.0,0.0,0.0,0.0,0.0,0.0,2037,2781,1318,1912,1298,2788,2050,2901,1310,1039,1278,2804,2035,2776,1313,1912,1316,2793,2052,2885,1309,1040,1297,2806
1782219261.7318,3.3168,1,lf,0.0986,0.0986,-0.1100,0,0.3316,0.3325,-0.1103,-0.0014,0.0004,0.0021,CLIMB,4,1,0,0.0,0.000,0.000,0,-1,0,0.0,0.0,0.0,0.0,0.0,0.0,2037,2781,1318,1912,1298,2788,2050,2901,1310,1039,1278,2804,2035,2776,1313,1912,1316,2793,2052,2885,1309,1040,1297,2806
1782219261.7519,3.3368,1,lf,0.0986,0.0986,-0.1100,0,0.3318,0.3323,-0.1103,-0.0015,0.0006,0.0021,CLIMB,4,1,0,0.0,0.000,0.000,0,-1,0,0.0,0.0,0.0,0.0,0.0,0.0,2037,2781,1318,1912,1298,2788,2050,2901,1310,1039,1278,2804,2036,2776,1313,1912,1316,2793,2052,2884,1309,1040,1297,2806
1782219261.7718,3.3567,1,lf,0.0986,0.0986,-0.1100,0,0.3318,0.3323,-0.1103,-0.0016,0.0007,0.0021,CLIMB,4,1,0,0.0,0.000,0.000,0,-1,0,0.0,0.0,0.0,0.0,0.0,0.0,2037,2781,1318,1912,1298,2788,2050,2901,1310,1039,1278,2804,2036,2776,1313,1912,1316,2793,2052,2884,1309,1040,1297,2806
1782219261.7917,3.3767,1,lf,0.0986,0.0986,-0.1100,0,0.3318,0.3323,-0.1103,-0.0016,0.0008,0.0021,CLIMB,4,1,0,0.0,0.000,0.000,0,-1,0,0.0,0.0,0.0,0.0,0.0,0.0,2037,2781,1318,1912,1298,2788,2050,2901,1310,1039,1278,2804,2035,2776,1313,1912,1316,2793,2052,2884,1308,1040,1297,2806
1782219261.8118,3.3968,1,lf,0.0986,0.0986,-0.1100,0,0.3316,0.3325,-0.1103,-0.0016,0.0007,0.0021,CLIMB,4,1,0,0.0,0.000,0.000,0,-1,0,0.0,0.0,0.0,0.0,0.0,0.0,2037,2781,1318,1912,1298,2788,2050,2901,1310,1039,1278,2804,2035,2776,1313,1912,1316,2793,2052,2884,1308,1040,1297,2806
1782219261.8318,3.4168,1,lf,0.0986,0.0986,-0.1100,0,0.3316,0.3325,-0.1103,-0.0016,0.0007,0.0021,CLIMB,4,1,0,0.0,0.000,0.000,0,-1,0,0.0,0.0,0.0,0.0,0.0,0.0,2037,2781,1318,1912,1298,2788,2050,2901,1310,1039,1278,2804,2035,2776,1313,1912,1316,2793,2052,2884,1308,1040,1297,2806
1782219261.8519,3.4368,1,lf,0.0986,0.0986,-0.1100,0,0.3316,0.3325,-0.1103,-0.0016,0.0008,0.0021,CLIMB,4,1,0,0.0,0.000,0.000,0,-1,0,0.0,0.0,0.0,0.0,0.0,0.0,2037,2781,1318,1912,1298,2788,2050,2901,1310,1039,1278,2804,2035,2776,1313,1912,1316,2793,2052,2884,1308,1040,1297,2806
1782219261.8718,3.4567,1,lf,0.0986,0.0986,-0.1100,0,0.3316,0.3325,-0.1103,-0.0016,0.0008,0.0021,CLIMB,4,1,0,0.0,0.000,0.000,0,-1,0,0.0,0.0,0.0,0.0,0.0,0.0,2037,2781,1318,1912,1298,2788,2050,2901,1310,1039,1278,2804,2035,2776,1313,1912,1316,2793,2052,2884,1308,1040,1297,2806
1782219261.8917,3.4766,1,lf,0.0986,0.0986,-0.1100,0,0.3316,0.3325,-0.1103,-0.0016,0.0008,0.0020,CLIMB,4,1,0,0.0,0.000,0.000,0,-1,0,0.0,0.0,0.0,0.0,0.0,0.0,2037,2781,1318,1912,1298,2788,2050,2901,1310,1039,1278,2804,2036,2776,1313,1912,1316,2793,2052,2884,1308,1041,1295,2806
1782219261.9117,3.4967,1,lf,0.0986,0.0986,-0.1100,0,0.3318,0.3323,-0.1103,-0.0017,0.0010,0.0020,CLIMB,4,1,0,0.0,0.000,0.000,0,-1,0,0.0,0.0,0.0,0.0,0.0,0.0,2037,2781,1318,1912,1298,2788,2050,2901,1310,1039,1278,2804,2036,2776,1313,1912,1316,2793,2052,2884,1308,1041,1295,2806
1782219261.9318,3.5168,1,lf,0.0986,0.0986,-0.1100,0,0.3318,0.3323,-0.1103,-0.0017,0.0011,0.0020,CLIMB,4,1,0,0.0,0.000,0.000,0,-1,0,0.0,0.0,0.0,0.0,0.0,0.0,2037,2781,1318,1912,1298,2788,2050,2901,1310,1039,1278,2804,2036,2776,1313,1912,1316,2793,2052,2884,1308,1041,1295,2806
1782219261.9518,3.5368,1,lf,0.0986,0.0986,-0.1100,0,0.3318,0.3323,-0.1103,-0.0017,0.0011,0.0020,CLIMB,4,1,0,0.0,0.000,0.000,0,-1,0,0.0,0.0,0.0,0.0,0.0,0.0,2037,2781,1318,1912,1298,2788,2050,2901,1310,1039,1278,2804,2036,2776,1313,1912,1316,2793,2052,2884,1308,1040,1293,2806
1782219261.9718,3.5567,1,lf,0.0986,0.0986,-0.1100,0,0.3318,0.3323,-0.1103,-0.0017,0.0011,0.0020,CLIMB,4,1,0,0.0,0.000,0.000,0,-1,0,0.0,0.0,0.0,0.0,0.0,0.0,2037,2781,1318,1912,1298,2788,2050,2901,1310,1039,1278,2804,2036,2776,1313,1912,1316,2793,2052,2884,1308,1040,1293,2806
1782219261.9917,3.5767,1,lf,0.0986,0.0986,-0.1100,0,0.3318,0.3323,-0.1103,-0.0017,0.0010,0.0021,CLIMB,4,1,0,0.0,0.000,0.000,0,-1,0,0.0,0.0,0.0,0.0,0.0,0.0,2037,2781,1318,1912,1298,2788,2050,2901,1310,1039,1278,2804,2035,2776,1313,1912,1316,2792,2052,2884,1309,1040,1292,2806
1782219262.0117,3.5967,1,lf,0.0986,0.0986,-0.1100,0,0.3316,0.3325,-0.1103,-0.0016,0.0008,0.0021,CLIMB,4,1,0,0.0,0.000,0.000,0,-1,0,0.0,0.0,0.0,0.0,0.0,0.0,2037,2781,1318,1912,1298,2788,2050,2901,1310,1039,1278,2804,2035,2776,1313,1912,1316,2792,2052,2884,1309,1040,1292,2806
1782219262.0317,3.6167,1,lf,0.0986,0.0986,-0.1100,0,0.3316,0.3325,-0.1103,-0.0015,0.0007,0.0021,CLIMB,4,1,0,0.0,0.000,0.000,0,-1,0,0.0,0.0,0.0,0.0,0.0,0.0,2037,2781,1318,1912,1298,2788,2050,2901,1310,1039,1278,2804,2035,2776,1313,1912,1316,2792,2052,2884,1309,1040,1292,2806
1782219262.0518,3.6367,1,lf,0.0986,0.0986,-0.1100,0,0.3318,0.3323,-0.1103,-0.0015,0.0007,0.0022,CLIMB,4,1,0,0.0,0.000,0.000,0,-1,0,0.0,0.0,0.0,0.0,0.0,0.0,2037,2781,1318,1912,1298,2788,2050,2901,1310,1039,1278,2804,2036,2776,1313,1913,1316,2792,2052,2884,1309,1040,1290,2806
1782219262.0718,3.6568,1,lf,0.0986,0.0986,-0.1100,0,0.3318,0.3323,-0.1103,-0.0015,0.0008,0.0022,CLIMB,4,1,0,0.0,0.000,0.000,0,-1,0,0.0,0.0,0.0,0.0,0.0,0.0,2037,2781,1318,1912,1298,2788,2050,2901,1310,1039,1278,2804,2036,2776,1313,1913,1316,2792,2052,2884,1309,1040,1290,2806
1782219262.0917,3.6767,1,lf,0.0986,0.0986,-0.1100,0,0.3318,0.3323,-0.1103,-0.0015,0.0008,0.0022,CLIMB,4,1,0,0.0,0.000,0.000,0,-1,0,0.0,0.0,0.0,0.0,0.0,0.0,2037,2781,1318,1912,1298,2788,2050,2901,1310,1039,1278,2804,2035,2776,1313,1912,1316,2792,2052,2884,1308,1041,1288,2806
1782219262.1118,3.6968,1,lf,0.0986,0.0986,-0.1100,0,0.3316,0.3325,-0.1103,-0.0014,0.0007,0.0022,CLIMB,4,1,0,0.0,0.000,0.000,0,-1,0,0.0,0.0,0.0,0.0,0.0,0.0,2037,2781,1318,1912,1298,2788,2050,2901,1310,1039,1278,2804,2035,2776,1313,1912,1316,2792,2052,2884,1308,1041,1288,2806
1782219262.1318,3.7168,1,lf,0.0986,0.0986,-0.1100,0,0.3316,0.3325,-0.1103,-0.0014,0.0006,0.0022,CLIMB,4,1,0,0.0,0.000,0.000,0,-1,0,0.0,0.0,0.0,0.0,0.0,0.0,2037,2781,1318,1912,1298,2788,2050,2901,1310,1039,1278,2804,2035,2776,1313,1912,1316,2792,2052,2884,1308,1041,1288,2806
1782219262.1518,3.7368,1,lf,0.0986,0.0986,-0.1100,0,0.3318,0.3323,-0.1103,-0.0014,0.0007,0.0022,CLIMB,4,1,0,0.0,0.000,0.000,0,-1,0,0.0,0.0,0.0,0.0,0.0,0.0,2037,2781,1318,1912,1298,2788,2050,2901,1310,1039,1278,2804,2036,2776,1313,1912,1316,2792,2052,2884,1308,1041,1285,2806
1782219262.1718,3.7567,1,lf,0.0986,0.0986,-0.1100,0,0.3318,0.3323,-0.1103,-0.0014,0.0007,0.0022,CLIMB,4,1,0,0.0,0.000,0.000,0,-1,0,0.0,0.0,0.0,0.0,0.0,0.0,2037,2781,1318,1912,1298,2788,2050,2901,1310,1039,1278,2804,2036,2776,1313,1912,1316,2792,2052,2884,1308,1041,1285,2806
1782219262.1917,3.7767,1,lf,0.0986,0.0986,-0.1100,0,0.3318,0.3323,-0.1103,-0.0015,0.0007,0.0022,CLIMB,4,1,0,0.0,0.000,0.000,0,-1,0,0.0,0.0,0.0,0.0,0.0,0.0,2037,2781,1318,1912,1298,2788,2050,2901,1310,1039,1278,2804,2036,2776,1313,1913,1316,2792,2052,2884,1308,1041,1283,2805
1782219262.2117,3.7967,1,lf,0.0986,0.0986,-0.1100,0,0.3318,0.3323,-0.1103,-0.0015,0.0007,0.0022,CLIMB,4,1,0,0.0,0.000,0.000,0,-1,0,0.0,0.0,0.0,0.0,0.0,0.0,2037,2781,1318,1912,1298,2788,2050,2901,1310,1039,1278,2804,2036,2776,1313,1913,1316,2792,2052,2884,1308,1041,1283,2805
1782219262.2318,3.8168,1,lf,0.0986,0.0986,-0.1100,0,0.3318,0.3323,-0.1103,-0.0015,0.0007,0.0022,CLIMB,4,1,0,0.0,0.000,0.000,0,-1,0,0.0,0.0,0.0,0.0,0.0,0.0,2037,2781,1318,1912,1298,2788,2050,2901,1310,1039,1278,2804,2036,2776,1313,1913,1316,2792,2052,2884,1308,1041,1283,2805
1782219262.2518,3.8368,1,lf,0.0986,0.0986,-0.1100,0,0.3318,0.3323,-0.1103,-0.0015,0.0007,0.0022,CLIMB,5,1,0,0.0,0.000,0.000,0,-1,0,0.0,0.0,0.0,0.0,0.0,0.0,2037,2781,1318,1912,1298,2788,2050,2901,1310,1039,1278,2804,2036,2776,1313,1912,1316,2792,2052,2884,1309,1041,1283,2805
1782219262.2717,3.8567,1,lf,0.0986,0.0986,-0.1100,0,0.3318,0.3323,-0.1103,-0.0015,0.0007,0.0022,CLIMB,5,1,0,0.0,0.000,0.000,0,-1,0,0.0,0.0,0.0,0.0,0.0,0.0,2037,2781,1318,1912,1298,2788,2050,2901,1310,1039,1278,2804,2036,2776,1313,1912,1316,2792,2052,2884,1309,1041,1283,2805
1782219262.2919,3.8768,1,lf,0.0986,0.0986,-0.1097,0,0.3318,0.3323,-0.1103,-0.0015,0.0007,0.0021,CLIMB,5,1,0,0.0,0.000,0.000,0,-1,0,0.0,0.0,0.0,0.0,0.0,0.0,2037,2782,1315,1912,1298,2788,2050,2901,1310,1039,1278,2804,2036,2776,1313,1912,1316,2792,2052,2884,1308,1041,1283,2806
1782219262.3117,3.8967,1,lf,0.0986,0.0986,-0.1091,0,0.3318,0.3323,-0.1103,-0.0015,0.0007,0.0021,CLIMB,5,1,0,0.0,0.000,0.000,0,-1,0,0.0,0.0,0.0,0.0,0.0,0.0,2037,2785,1308,1912,1298,2788,2050,2901,1310,1039,1278,2804,2036,2776,1313,1912,1316,2792,2052,2884,1308,1041,1283,2806
1782219262.3318,3.9167,1,lf,0.0986,0.0986,-0.1081,0,0.3318,0.3323,-0.1103,-0.0016,0.0007,0.0021,CLIMB,5,1,0,0.0,0.000,0.000,0,-1,0,0.0,0.0,0.0,0.0,0.0,0.0,2037,2789,1297,1912,1298,2788,2050,2901,1310,1039,1278,2804,2036,2776,1313,1912,1316,2792,2052,2884,1308,1041,1283,2806
1782219262.3518,3.9367,1,lf,0.0986,0.0986,-0.1068,0,0.3316,0.3325,-0.1103,-0.0015,0.0005,0.0021,CLIMB,5,1,0,0.0,0.000,0.000,0,-1,0,0.0,0.0,0.0,0.0,0.0,0.0,2037,2795,1283,1912,1298,2788,2050,2901,1310,1039,1278,2804,2035,2776,1313,1912,1316,2792,2052,2884,1308,1041,1283,2806
1782219262.3718,3.9568,1,lf,0.0986,0.0986,-0.1054,0,0.3316,0.3325,-0.1103,-0.0014,0.0004,0.0021,CLIMB,5,1,0,0.0,0.000,0.000,0,-1,0,0.0,0.0,0.0,0.0,0.0,0.0,2037,2802,1267,1912,1298,2788,2050,2901,1310,1039,1278,2804,2035,2776,1313,1912,1316,2792,2052,2884,1308,1041,1283,2806
1782219262.3918,3.9768,1,lf,0.0986,0.0986,-0.1039,0,0.3316,0.3325,-0.1103,-0.0014,0.0004,0.0021,CLIMB,5,1,0,0.0,0.000,0.000,0,-1,0,0.0,0.0,0.0,0.0,0.0,0.0,2037,2809,1251,1912,1298,2788,2050,2901,1310,1039,1278,2804,2036,2776,1313,1912,1316,2792,2052,2884,1308,1039,1283,2806
1782219262.4118,3.9968,1,lf,0.0986,0.0986,-0.1025,0,0.3318,0.3323,-0.1103,-0.0015,0.0006,0.0021,CLIMB,5,1,0,0.0,0.000,0.000,0,-1,0,0.0,0.0,0.0,0.0,0.0,0.0,2037,2815,1237,1912,1298,2788,2050,2901,1310,1039,1278,2804,2036,2776,1313,1912,1316,2792,2052,2884,1308,1039,1283,2806
1782219262.4318,4.0168,1,lf,0.0986,0.0986,-0.1014,0,0.3318,0.3323,-0.1103,-0.0015,0.0006,0.0020,CLIMB,5,1,0,0.0,0.000,0.000,0,-1,0,0.0,0.0,0.0,0.0,0.0,0.0,2037,2820,1225,1912,1298,2788,2050,2901,1310,1039,1278,2804,2036,2776,1313,1912,1316,2792,2052,2884,1308,1039,1283,2806
1782219262.4518,4.0368,1,lf,0.0986,0.0986,-0.1006,0,0.3316,0.3325,-0.1103,-0.0014,0.0004,0.0020,CLIMB,5,1,0,0.0,0.000,0.000,0,-1,0,0.0,0.0,0.0,0.0,0.0,0.0,2037,2823,1217,1912,1298,2788,2050,2901,1310,1039,1278,2804,2035,2776,1313,1912,1316,2792,2052,2884,1309,1041,1283,2806
1782219262.4719,4.0568,1,lf,0.0986,0.0986,-0.1001,0,0.3316,0.3325,-0.1103,-0.0013,0.0003,0.0021,CLIMB,5,1,0,0.0,0.000,0.000,0,-1,0,0.0,0.0,0.0,0.0,0.0,0.0,2037,2825,1213,1912,1298,2788,2050,2901,1310,1039,1278,2804,2035,2776,1313,1912,1316,2792,2052,2884,1309,1041,1283,2806
1782219262.4918,4.0768,1,lf,0.0986,0.0986,-0.1000,0,0.3316,0.3325,-0.1103,-0.0013,0.0003,0.0021,CLIMB,5,1,0,0.0,0.000,0.000,0,-1,0,0.0,0.0,0.0,0.0,0.0,0.0,2037,2826,1212,1912,1298,2788,2050,2901,1310,1039,1278,2804,2036,2776,1308,1912,1316,2792,2052,2884,1308,1041,1284,2806
1782219262.5118,4.0968,1,lf,0.0986,0.0986,-0.1000,0,0.3316,0.3321,-0.1103,-0.0013,0.0006,0.0020,CLIMB,5,1,0,96.0,0.000,0.000,0,-1,0,-1.0,-50.0,96.0,0.0,0.0,0.0,2037,2826,1212,1912,1298,2788,2050,2901,1310,1039,1278,2804,2036,2776,1308,1912,1316,2792,2052,2884,1308,1041,1284,2806
1782219262.5318,4.1168,1,lf,0.0986,0.0986,-0.1000,0,0.3316,0.3321,-0.1103,-0.0013,0.0007,0.0020,CLIMB,5,1,0,89.0,0.000,0.020,0,-1,0,-1.0,-49.0,89.0,0.0,0.0,0.0,2037,2826,1212,1912,1298,2788,2050,2901,1310,1039,1278,2804,2036,2776,1308,1912,1316,2792,2052,2884,1308,1041,1284,2806
1782219262.5518,4.1368,1,lf,0.0986,0.0986,-0.1000,0,0.3314,0.3318,-0.1101,-0.0011,0.0008,0.0019,CLIMB,5,1,0,89.0,0.000,0.040,0,-1,0,-1.0,-49.0,89.0,0.0,0.0,0.0,2037,2826,1212,1912,1298,2788,2050,2901,1310,1039,1278,2804,2036,2777,1301,1912,1316,2792,2052,2884,1308,1041,1284,2805
1782219262.5718,4.1568,1,lf,0.0986,0.0986,-0.1000,0,0.3314,0.3318,-0.1101,-0.0010,0.0008,0.0018,CLIMB,5,1,0,77.0,0.000,0.060,0,-1,0,-1.0,-47.0,77.0,0.0,0.0,0.0,2037,2826,1212,1912,1298,2788,2050,2901,1310,1039,1278,2804,2036,2777,1301,1912,1316,2792,2052,2884,1308,1041,1284,2805
1782219262.5917,4.1767,1,lf,0.0986,0.0986,-0.1000,0,0.3314,0.3318,-0.1101,-0.0010,0.0009,0.0018,CLIMB,5,1,0,77.0,0.000,0.080,0,-1,0,-1.0,-47.0,77.0,0.0,0.0,0.0,2037,2826,1212,1912,1298,2788,2050,2901,1310,1039,1278,2804,2035,2782,1275,1912,1316,2792,2052,2884,1308,1040,1284,2805
1782219262.6117,4.1967,1,lf,0.0986,0.0986,-0.1000,0,0.3305,0.3314,-0.1089,-0.0005,0.0010,0.0012,CLIMB,5,1,0,63.0,0.000,0.100,0,-1,0,-2.0,-44.0,63.0,0.0,0.0,0.0,2037,2826,1212,1912,1298,2788,2050,2901,1310,1039,1278,2804,2035,2782,1275,1912,1316,2792,2052,2884,1308,1040,1284,2805
1782219262.6318,4.2168,1,lf,0.0986,0.0986,-0.1000,0,0.3305,0.3314,-0.1089,-0.0002,0.0011,0.0009,CLIMB,5,1,0,48.0,0.000,0.120,0,-1,0,-1.0,-40.0,48.0,0.0,0.0,0.0,2037,2826,1212,1912,1298,2788,2050,2901,1310,1039,1278,2804,2035,2782,1275,1912,1316,2792,2052,2884,1308,1040,1284,2805
1782219262.6518,4.2368,1,lf,0.0986,0.0986,-0.1000,0,0.3304,0.3309,-0.1080,-0.0001,0.0014,0.0002,CLIMB,5,1,0,48.0,0.000,0.140,0,-1,0,-1.0,-40.0,48.0,0.0,0.0,0.0,2037,2826,1212,1912,1298,2788,2050,2901,1310,1039,1278,2804,2036,2786,1260,1913,1316,2792,2052,2884,1308,1040,1284,2805
1782219262.6719,4.2568,1,lf,0.0986,0.0986,-0.1000,0,0.3304,0.3309,-0.1080,0.0000,0.0016,-0.0001,CLIMB,5,1,0,35.0,0.000,0.160,0,-1,0,-1.0,-35.0,34.0,0.0,0.0,0.0,2037,2826,1212,1912,1298,2788,2050,2901,1310,1039,1278,2804,2036,2786,1260,1913,1316,2792,2052,2884,1308,1040,1284,2805
1782219262.6919,4.2768,1,lf,0.0986,0.0986,-0.1000,0,0.3304,0.3309,-0.1080,0.0001,0.0017,-0.0002,CLIMB,5,1,0,29.0,0.000,0.180,0,-1,0,-1.0,-29.0,23.0,0.0,0.0,0.0,2037,2826,1212,1912,1298,2788,2050,2901,1310,1039,1278,2804,2036,2797,1235,1912,1316,2792,2052,2884,1308,1041,1283,2806
1782219262.7118,4.2968,1,lf,0.0986,0.0986,-0.1000,0,0.3305,0.3310,-0.1056,0.0000,0.0017,-0.0016,CLIMB,5,1,0,29.0,0.000,0.200,0,-1,0,-1.0,-29.0,23.0,0.0,0.0,0.0,2037,2826,1212,1912,1298,2788,2050,2901,1310,1039,1278,2804,2036,2797,1235,1912,1316,2792,2052,2884,1308,1041,1283,2806
1782219262.7318,4.3168,1,lf,0.0986,0.0986,-0.1000,0,0.3305,0.3310,-0.1056,0.0000,0.0017,-0.0023,CLIMB,5,1,0,24.0,0.000,0.220,0,-1,0,-2.0,-24.0,14.0,0.0,0.0,0.0,2037,2826,1212,1912,1298,2788,2050,2901,1310,1039,1278,2804,2036,2797,1235,1912,1316,2792,2052,2884,1308,1041,1283,2806
1782219262.7517,4.3367,1,lf,0.0986,0.0986,-0.1000,0,0.3306,0.3315,-0.1036,-0.0001,0.0013,-0.0037,CLIMB,5,1,0,24.0,0.000,0.240,0,-1,0,-2.0,-24.0,14.0,0.0,0.0,0.0,2037,2826,1212,1912,1298,2788,2050,2901,1310,1039,1278,2804,2035,2806,1220,1912,1316,2792,2053,2884,1308,1041,1284,2805
1782219262.7718,4.3568,1,lf,0.0986,0.0986,-0.1000,0,0.3306,0.3315,-0.1036,-0.0001,0.0012,-0.0044,CLIMB,5,1,0,20.0,0.000,0.260,0,-1,0,-2.0,-20.0,8.0,0.0,0.0,0.0,2037,2826,1212,1912,1298,2788,2050,2901,1310,1039,1278,2804,2035,2806,1220,1912,1316,2792,2053,2884,1308,1041,1284,2805
1782219262.7917,4.3767,1,lf,0.0986,0.0986,-0.1000,0,0.3306,0.3315,-0.1036,-0.0002,0.0011,-0.0047,CLIMB,5,1,0,16.0,0.000,0.280,0,-1,0,-2.0,-16.0,3.0,0.0,0.0,0.0,2037,2826,1212,1912,1298,2788,2050,2901,1310,1039,1278,2804,2035,2810,1215,1912,1316,2792,2052,2884,1308,1041,1284,2806
1782219262.8118,4.3968,1,lf,0.0986,0.0986,-0.1000,0,0.3308,0.3317,-0.1027,-0.0003,0.0010,-0.0054,CLIMB,5,1,0,16.0,0.000,0.300,0,-1,0,-2.0,-16.0,3.0,0.0,0.0,0.0,2037,2826,1212,1912,1298,2788,2050,2901,1310,1039,1278,2804,2035,2810,1215,1912,1316,2792,2052,2884,1308,1041,1284,2806
1782219262.8318,4.4168,1,lf,0.0986,0.0986,-0.1000,0,0.3308,0.3317,-0.1027,-0.0004,0.0009,-0.0057,CLIMB,5,1,0,13.0,0.000,0.320,0,-1,0,-2.0,-13.0,0.0,0.0,0.0,0.0,2037,2826,1212,1912,1298,2788,2050,2901,1310,1039,1278,2804,2035,2810,1215,1912,1316,2792,2052,2884,1308,1041,1284,2806
1782219262.8519,4.4369,1,lf,0.0986,0.0986,-0.1000,0,0.3309,0.3319,-0.1020,-0.0006,0.0009,-0.0062,CLIMB,5,1,0,13.0,0.000,0.340,0,-1,0,-2.0,-13.0,-1.0,0.0,0.0,0.0,2037,2826,1212,1912,1298,2788,2050,2901,1310,1039,1278,2804,2035,2813,1211,1912,1316,2792,2052,2884,1309,1041,1284,2805
1782219262.8718,4.4568,1,lf,0.0986,0.0986,-0.1000,0,0.3309,0.3319,-0.1020,-0.0006,0.0008,-0.0064,CLIMB,5,1,0,13.0,0.000,0.360,0,-1,0,-2.0,-13.0,-1.0,0.0,0.0,0.0,2037,2826,1212,1912,1298,2788,2050,2901,1310,1039,1278,2804,2035,2813,1211,1912,1316,2792,2052,2884,1309,1041,1284,2805
1782219262.8917,4.4767,1,lf,0.0986,0.0986,-0.1000,0,0.3309,0.3319,-0.1020,-0.0007,0.0008,-0.0065,CLIMB,5,1,0,13.0,0.000,0.380,0,-1,0,-1.0,-13.0,0.0,0.0,0.0,0.0,2037,2826,1212,1912,1298,2788,2050,2901,1310,1039,1278,2804,2036,2813,1212,1912,1316,2792,2052,2884,1309,1041,1284,2805
1782219262.9118,4.4968,1,lf,0.0986,0.0986,-0.1000,0,0.3312,0.3317,-0.1020,-0.0008,0.0009,-0.0065,CLIMB,5,1,0,13.0,0.000,0.400,0,-1,0,-1.0,-13.0,0.0,0.0,0.0,0.0,2037,2826,1212,1912,1298,2788,2050,2901,1310,1039,1278,2804,2036,2813,1212,1912,1316,2792,2052,2884,1309,1041,1284,2805
1782219262.9317,4.5167,1,lf,0.0986,0.0986,-0.1000,0,0.3312,0.3317,-0.1020,-0.0008,0.0009,-0.0065,CLIMB,5,1,0,12.0,0.000,0.420,0,-1,0,-2.0,-12.0,-1.0,0.0,0.0,0.0,2037,2826,1212,1912,1298,2788,2050,2901,1310,1039,1278,2804,2036,2813,1212,1912,1316,2792,2052,2884,1309,1041,1284,2805
1782219262.9518,4.5368,1,lf,0.0986,0.0986,-0.1000,0,0.3309,0.3319,-0.1020,-0.0007,0.0007,-0.0064,CLIMB,5,1,0,13.0,0.000,0.440,0,-1,0,-2.0,-13.0,-1.0,0.0,0.0,0.0,2037,2826,1212,1912,1298,2788,2050,2901,1310,1039,1278,2804,2035,2813,1211,1912,1316,2792,2052,2884,1309,1041,1283,2806
1782219262.9719,4.5569,1,lf,0.0986,0.0986,-0.1000,0,0.3309,0.3319,-0.1020,-0.0006,0.0007,-0.0065,CLIMB,5,1,0,13.0,0.000,0.460,0,-1,0,-2.0,-13.0,-1.0,0.0,0.0,0.0,2037,2826,1212,1912,1298,2788,2050,2901,1310,1039,1278,2804,2035,2813,1211,1912,1316,2792,2052,2884,1309,1041,1283,2806
1782219262.9917,4.5767,1,lf,0.0986,0.0986,-0.1000,0,0.3309,0.3319,-0.1020,-0.0006,0.0006,-0.0065,CLIMB,5,1,0,13.0,0.000,0.480,0,-1,0,-1.0,-13.0,-1.0,0.0,0.0,0.0,2037,2826,1212,1912,1298,2788,2050,2901,1310,1039,1278,2804,2036,2813,1211,1912,1316,2792,2052,2884,1308,1041,1283,2806
1782219263.0118,4.5967,1,lf,0.0986,0.0986,-0.1000,0,0.3312,0.3316,-0.1020,-0.0007,0.0008,-0.0065,CLIMB,5,1,0,12.0,0.000,0.500,0,-1,0,-1.0,-12.0,-1.0,0.0,0.0,0.0,2037,2826,1212,1912,1298,2788,2050,2901,1310,1039,1278,2804,2036,2813,1211,1912,1316,2792,2052,2884,1308,1041,1283,2806
1782219263.0318,4.6168,1,lf,0.0986,0.0986,-0.1000,0,0.3312,0.3316,-0.1020,-0.0007,0.0008,-0.0065,CLIMB,5,1,0,12.0,0.000,0.520,0,-1,0,-1.0,-12.0,-1.0,0.0,0.0,0.0,2037,2826,1212,1912,1298,2788,2050,2901,1310,1039,1278,2804,2036,2813,1211,1912,1316,2792,2052,2884,1308,1041,1283,2806
1782219263.0518,4.6368,1,lf,0.0986,0.0986,-0.1000,0,0.3310,0.3320,-0.1018,-0.0007,0.0007,-0.0065,CLIMB,5,1,0,12.0,0.000,0.540,0,-1,0,-2.0,-12.0,-1.0,0.0,0.0,0.0,2037,2826,1212,1912,1298,2788,2050,2901,1310,1039,1278,2804,2035,2814,1211,1912,1316,2792,2052,2884,1309,1041,1282,2805
1782219263.0718,4.6568,1,lf,0.0986,0.0986,-0.1000,0,0.3310,0.3320,-0.1018,-0.0007,0.0006,-0.0065,CLIMB,5,1,0,12.0,0.000,0.560,0,-1,0,-2.0,-12.0,-1.0,0.0,0.0,0.0,2037,2826,1212,1912,1298,2788,2050,2901,1310,1039,1278,2804,2035,2814,1211,1912,1316,2792,2052,2884,1309,1041,1282,2805
1782219263.0917,4.6766,1,lf,0.0986,0.0986,-0.1000,0,0.3310,0.3320,-0.1018,-0.0007,0.0006,-0.0065,CLIMB,5,1,0,13.0,0.000,0.580,0,-1,0,-2.0,-13.0,-1.0,0.0,0.0,0.0,2037,2826,1212,1912,1298,2788,2050,2901,1310,1039,1278,2804,2036,2813,1211,1912,1316,2792,2052,2885,1309,1041,1276,2806
1782219263.1118,4.6968,1,lf,0.0986,0.0986,-0.1000,0,0.3312,0.3316,-0.1020,-0.0007,0.0008,-0.0064,CLIMB,5,1,0,13.0,0.000,0.600,0,-1,0,-1.0,-13.0,-1.0,0.0,0.0,0.0,2037,2826,1212,1912,1298,2788,2050,2901,1310,1039,1278,2804,2036,2813,1211,1912,1316,2792,2052,2885,1309,1041,1276,2806
1782219263.1318,4.7168,1,lf,0.0986,0.0986,-0.1000,0,0.3312,0.3316,-0.1020,-0.0007,0.0008,-0.0064,CLIMB,5,1,0,13.0,0.000,0.620,0,-1,0,-1.0,-13.0,-1.0,0.0,0.0,0.0,2037,2826,1212,1912,1298,2788,2050,2901,1310,1039,1278,2804,2036,2813,1211,1912,1316,2792,2052,2885,1309,1041,1276,2806
1782219263.1518,4.7368,1,lf,0.0986,0.0986,-0.1000,0,0.3313,0.3318,-0.1018,-0.0008,0.0008,-0.0064,CLIMB,5,1,0,12.0,0.000,0.640,0,-1,0,-1.0,-12.0,-1.0,0.0,0.0,0.0,2037,2826,1212,1912,1298,2788,2050,2901,1310,1039,1278,2804,2036,2814,1211,1912,1316,2792,2052,2884,1308,1041,1274,2806
1782219263.1718,4.7567,1,lf,0.0986,0.0986,-0.1000,0,0.3313,0.3318,-0.1018,-0.0008,0.0008,-0.0064,CLIMB,5,1,0,13.0,0.000,0.660,0,-1,0,-2.0,-13.0,-1.0,0.0,0.0,0.0,2037,2826,1212,1912,1298,2788,2050,2901,1310,1039,1278,2804,2036,2814,1211,1912,1316,2792,2052,2884,1308,1041,1274,2806
1782219263.1922,4.7772,1,lf,0.0986,0.0986,-0.1000,0,0.3313,0.3318,-0.1018,-0.0008,0.0007,-0.0065,CLIMB,5,1,0,13.0,0.000,0.680,0,-1,0,-2.0,-13.0,-1.0,0.0,0.0,0.0,2037,2826,1212,1912,1298,2788,2050,2901,1310,1039,1278,2804,2035,2813,1211,1912,1316,2792,2052,2884,1309,1041,1273,2805
1782219263.2118,4.7968,1,lf,0.0986,0.0986,-0.1000,0,0.3309,0.3319,-0.1020,-0.0007,0.0006,-0.0063,CLIMB,5,1,0,13.0,0.000,0.700,0,-1,0,-2.0,-13.0,-1.0,0.0,0.0,0.0,2037,2826,1212,1912,1298,2788,2050,2901,1310,1039,1278,2804,2035,2813,1211,1912,1316,2792,2052,2884,1309,1041,1273,2805
1782219263.2317,4.8166,1,lf,0.0986,0.0986,-0.1000,0,0.3309,0.3319,-0.1020,-0.0006,0.0005,-0.0063,CLIMB,5,1,0,13.0,0.000,0.720,0,-1,0,-2.0,-13.0,-1.0,0.0,0.0,0.0,2037,2826,1212,1912,1298,2788,2050,2901,1310,1039,1278,2804,2035,2813,1211,1912,1316,2792,2052,2884,1309,1041,1273,2805
1782219263.2518,4.8368,1,lf,0.0986,0.0986,-0.1000,0,0.3309,0.3319,-0.1020,-0.0005,0.0005,-0.0062,CLIMB,5,1,0,13.0,0.000,0.740,0,-1,0,-2.0,-13.0,-1.0,0.0,0.0,0.0,2037,2826,1212,1912,1298,2788,2050,2901,1310,1039,1278,2804,2035,2813,1211,1912,1316,2792,2052,2884,1308,1041,1273,2805
1782219263.2718,4.8568,1,lf,0.0986,0.0986,-0.1000,0,0.3309,0.3319,-0.1020,-0.0005,0.0005,-0.0062,CLIMB,5,1,0,13.0,0.000,0.760,0,-1,0,-1.0,-13.0,-1.0,0.0,0.0,0.0,2037,2826,1212,1912,1298,2788,2050,2901,1310,1039,1278,2804,2035,2813,1211,1912,1316,2792,2052,2884,1308,1041,1273,2805
1782219263.2917,4.8767,1,lf,0.0986,0.0986,-0.1000,0,0.3309,0.3319,-0.1020,-0.0005,0.0004,-0.0062,CLIMB,5,1,0,13.0,0.000,0.780,0,-1,0,-1.0,-13.0,-1.0,0.0,0.0,0.0,2037,2826,1212,1912,1298,2788,2050,2901,1310,1039,1278,2804,2035,2814,1211,1912,1316,2792,2052,2884,1309,1040,1274,2806
1782219263.3118,4.8968,1,lf,0.0986,0.0986,-0.1000,0,0.3310,0.3320,-0.1018,-0.0006,0.0004,-0.0063,CLIMB,5,1,0,12.0,0.000,0.800,0,-1,0,-2.0,-12.0,-1.0,0.0,0.0,0.0,2037,2826,1212,1912,1298,2788,2050,2901,1310,1039,1278,2804,2035,2814,1211,1912,1316,2792,2052,2884,1309,1040,1274,2806
1782219263.3318,4.9168,1,lf,0.0986,0.0986,-0.1000,0,0.3310,0.3320,-0.1018,-0.0006,0.0004,-0.0063,CLIMB,5,1,0,13.0,0.000,0.820,0,-1,0,-2.0,-13.0,-1.0,0.0,0.0,0.0,2037,2826,1212,1912,1298,2788,2050,2901,1310,1039,1278,2804,2035,2814,1211,1912,1316,2792,2052,2884,1309,1040,1274,2806
1782219263.3518,4.9368,1,lf,0.0986,0.0986,-0.1000,0,0.3309,0.3319,-0.1020,-0.0005,0.0004,-0.0062,CLIMB,5,1,0,13.0,0.000,0.840,0,-1,0,-2.0,-13.0,-1.0,0.0,0.0,0.0,2037,2826,1212,1912,1298,2788,2050,2901,1310,1039,1278,2804,2035,2813,1211,1912,1316,2792,2052,2884,1309,1040,1273,2806
1782219263.3717,4.9566,1,lf,0.0986,0.0986,-0.1000,0,0.3309,0.3319,-0.1020,-0.0005,0.0004,-0.0062,CLIMB,5,1,0,12.0,0.000,0.860,0,-1,0,-2.0,-12.0,-1.0,0.0,0.0,0.0,2037,2826,1212,1912,1298,2788,2050,2901,1310,1039,1278,2804,2035,2813,1211,1912,1316,2792,2052,2884,1309,1040,1273,2806
1782219263.3919,4.9768,1,lf,0.0986,0.0986,-0.1000,0,0.3309,0.3319,-0.1020,-0.0005,0.0004,-0.0061,CLIMB,5,1,0,12.0,0.000,0.880,0,-1,0,-2.0,-12.0,-1.0,0.0,0.0,0.0,2037,2826,1212,1912,1298,2788,2050,2901,1310,1039,1278,2804,2036,2814,1211,1912,1316,2792,2052,2884,1309,1039,1274,2806
1782219263.4118,4.9968,1,lf,0.0986,0.0986,-0.1000,0,0.3313,0.3318,-0.1018,-0.0007,0.0006,-0.0062,CLIMB,5,1,0,12.0,0.000,0.900,0,-1,0,-1.0,-12.0,-1.0,0.0,0.0,0.0,2037,2826,1212,1912,1298,2788,2050,2901,1310,1039,1278,2804,2036,2814,1211,1912,1316,2792,2052,2884,1309,1039,1274,2806
1782219263.4318,5.0168,1,lf,0.0986,0.0986,-0.1000,0,0.3313,0.3318,-0.1018,-0.0007,0.0006,-0.0063,CLIMB,5,1,0,12.0,0.000,0.920,0,-1,0,-2.0,-12.0,-1.0,0.0,0.0,0.0,2037,2826,1212,1912,1298,2788,2050,2901,1310,1039,1278,2804,2036,2814,1211,1912,1316,2792,2052,2884,1309,1039,1274,2806
1782219263.4519,5.0369,1,lf,0.0986,0.0986,-0.1000,0,0.3310,0.3320,-0.1018,-0.0007,0.0005,-0.0063,CLIMB,5,1,0,12.0,0.000,0.940,0,-1,0,-2.0,-12.0,-1.0,0.0,0.0,0.0,2037,2826,1212,1912,1298,2788,2050,2901,1310,1039,1278,2804,2035,2814,1211,1912,1316,2792,2052,2884,1308,1039,1273,2806
1782219263.4718,5.0568,1,lf,0.0986,0.0986,-0.1000,0,0.3310,0.3320,-0.1018,-0.0006,0.0004,-0.0063,CLIMB,5,1,0,13.0,0.000,0.960,0,-1,0,-1.0,-13.0,-1.0,0.0,0.0,0.0,2037,2826,1212,1912,1298,2788,2050,2901,1310,1039,1278,2804,2035,2814,1211,1912,1316,2792,2052,2884,1308,1039,1273,2806
1782219263.4918,5.0768,1,lf,0.0986,0.0986,-0.1000,0,0.3310,0.3320,-0.1018,-0.0006,0.0004,-0.0064,CLIMB,5,1,0,12.0,0.000,0.980,0,-1,0,-1.0,-12.0,-1.0,0.0,0.0,0.0,2037,2826,1212,1912,1298,2788,2050,2901,1310,1039,1278,2804,2036,2814,1211,1912,1316,2792,2052,2884,1308,1037,1274,2805
1782219263.5119,5.0968,1,lf,0.0986,0.0986,-0.1000,0,0.3313,0.3318,-0.1018,-0.0007,0.0005,-0.0064,CLIMB,5,1,0,12.0,0.000,1.000,0,-1,0,-1.0,-12.0,-1.0,0.0,0.0,0.0,2037,2826,1212,1912,1298,2788,2050,2901,1310,1039,1278,2804,2036,2814,1211,1912,1316,2792,2052,2884,1308,1037,1274,2805
1782219263.5318,5.1168,1,lf,0.0986,0.0986,-0.1000,0,0.3313,0.3318,-0.1018,-0.0008,0.0006,-0.0064,CLIMB,5,1,0,13.0,0.000,1.020,0,-1,0,-1.0,-13.0,-1.0,0.0,0.0,0.0,2037,2826,1212,1912,1298,2788,2050,2901,1310,1039,1278,2804,2036,2814,1211,1912,1316,2792,2052,2884,1308,1037,1274,2805
1782219263.5518,5.1368,1,lf,0.0986,0.0986,-0.1000,0,0.3310,0.3320,-0.1018,-0.0007,0.0005,-0.0064,CLIMB,5,1,0,13.0,0.000,1.040,0,-1,0,-1.0,-13.0,-1.0,0.0,0.0,0.0,2037,2826,1212,1912,1298,2788,2050,2901,1310,1039,1278,2804,2035,2814,1211,1912,1316,2792,2052,2884,1309,1037,1275,2806
1782219263.5718,5.1568,1,lf,0.0986,0.0986,-0.1000,0,0.3310,0.3320,-0.1018,-0.0006,0.0004,-0.0064,CLIMB,5,1,0,12.0,0.000,1.060,0,-1,0,-2.0,-12.0,-1.0,0.0,0.0,0.0,2037,2826,1212,1912,1298,2788,2050,2901,1310,1039,1278,2804,2035,2814,1211,1912,1316,2792,2052,2884,1309,1037,1275,2806
1782219263.5917,5.1767,1,lf,0.0986,0.0986,-0.1000,0,0.3310,0.3320,-0.1018,-0.0006,0.0004,-0.0064,CLIMB,5,1,0,13.0,0.000,1.080,0,-1,0,-1.0,-13.0,-1.0,0.0,0.0,0.0,2037,2826,1212,1912,1298,2788,2050,2901,1310,1039,1278,2804,2036,2813,1211,1912,1316,2792,2052,2884,1308,1037,1278,2805
1782219263.6118,5.1968,1,lf,0.0986,0.0986,-0.1000,0,0.3312,0.3316,-0.1020,-0.0007,0.0006,-0.0063,CLIMB,5,1,0,13.0,0.000,1.100,0,-1,0,-1.0,-13.0,-1.0,0.0,0.0,0.0,2037,2826,1212,1912,1298,2788,2050,2901,1310,1039,1278,2804,2036,2813,1211,1912,1316,2792,2052,2884,1308,1037,1278,2805
1782219263.6318,5.2168,1,lf,0.0986,0.0986,-0.1000,0,0.3312,0.3316,-0.1020,-0.0007,0.0007,-0.0062,CLIMB,5,1,0,12.0,0.000,1.120,0,-1,0,-1.0,-12.0,-1.0,0.0,0.0,0.0,2037,2826,1212,1912,1298,2788,2050,2901,1310,1039,1278,2804,2036,2813,1211,1912,1316,2792,2052,2884,1308,1037,1278,2805
1782219263.6518,5.2368,1,lf,0.0986,0.0986,-0.1000,0,0.3309,0.3319,-0.1020,-0.0006,0.0006,-0.0062,CLIMB,5,1,0,13.0,0.000,1.140,0,-1,0,-2.0,-13.0,-1.0,0.0,0.0,0.0,2037,2826,1212,1912,1298,2788,2050,2901,1310,1039,1278,2804,2035,2813,1211,1912,1316,2792,2052,2884,1308,1037,1281,2806
1782219263.6718,5.2568,1,lf,0.0986,0.0986,-0.1000,0,0.3309,0.3319,-0.1020,-0.0006,0.0005,-0.0062,CLIMB,5,1,0,13.0,0.000,1.160,0,-1,0,-2.0,-13.0,-1.0,0.0,0.0,0.0,2037,2826,1212,1912,1298,2788,2050,2901,1310,1039,1278,2804,2035,2813,1211,1912,1316,2792,2052,2884,1308,1037,1281,2806
1782219263.6918,5.2768,1,lf,0.0986,0.0986,-0.1000,0,0.3309,0.3319,-0.1020,-0.0005,0.0005,-0.0062,CLIMB,5,1,0,12.0,0.000,1.180,0,-1,0,-2.0,-12.0,-1.0,0.0,0.0,0.0,2037,2826,1212,1912,1298,2788,2050,2901,1310,1039,1278,2804,2035,2814,1211,1912,1316,2792,2052,2884,1309,1037,1282,2806
1782219263.7118,5.2968,1,lf,0.0986,0.0986,-0.1000,0,0.3310,0.3320,-0.1018,-0.0006,0.0004,-0.0063,CLIMB,5,1,0,12.0,0.000,1.200,0,-1,0,-2.0,-12.0,-1.0,0.0,0.0,0.0,2037,2826,1212,1912,1298,2788,2050,2901,1310,1039,1278,2804,2035,2814,1211,1912,1316,2792,2052,2884,1309,1037,1282,2806
1782219263.7318,5.3168,1,lf,0.0986,0.0986,-0.1000,0,0.3310,0.3320,-0.1018,-0.0006,0.0004,-0.0064,CLIMB,5,1,0,13.0,0.000,1.220,0,-1,0,-1.0,-13.0,-1.0,0.0,0.0,0.0,2037,2826,1212,1912,1298,2788,2050,2901,1310,1039,1278,2804,2035,2814,1211,1912,1316,2792,2052,2884,1309,1037,1282,2806
1782219263.7518,5.3368,1,lf,0.0986,0.0986,-0.1000,0,0.3310,0.3320,-0.1018,-0.0006,0.0003,-0.0064,CLIMB,5,1,0,12.0,0.000,1.240,0,-1,0,-2.0,-12.0,-1.0,0.0,0.0,0.0,2037,2826,1212,1912,1298,2788,2050,2901,1310,1039,1278,2804,2035,2814,1211,1912,1316,2792,2052,2884,1309,1037,1282,2805
1782219263.7718,5.3568,1,lf,0.0986,0.0986,-0.1000,0,0.3310,0.3320,-0.1018,-0.0006,0.0004,-0.0064,CLIMB,5,1,0,12.0,0.000,1.260,0,-1,0,-2.0,-12.0,-1.0,0.0,0.0,0.0,2037,2826,1212,1912,1298,2788,2050,2901,1310,1039,1278,2804,2035,2814,1211,1912,1316,2792,2052,2884,1309,1037,1282,2805
1782219263.7917,5.3767,1,lf,0.0986,0.0986,-0.1000,0,0.3310,0.3320,-0.1018,-0.0007,0.0004,-0.0064,CLIMB,5,1,0,12.0,0.000,1.280,0,-1,0,-1.0,-12.0,-1.0,0.0,0.0,0.0,2037,2826,1212,1912,1298,2788,2050,2901,1310,1039,1278,2804,2036,2814,1211,1912,1316,2792,2052,2884,1308,1037,1282,2805
1782219263.8119,5.3968,1,lf,0.0986,0.0986,-0.1000,0,0.3313,0.3318,-0.1018,-0.0008,0.0006,-0.0064,CLIMB,5,1,0,13.0,0.000,1.300,0,-1,0,-1.0,-13.0,-1.0,0.0,0.0,0.0,2037,2826,1212,1912,1298,2788,2050,2901,1310,1039,1278,2804,2036,2814,1211,1912,1316,2792,2052,2884,1308,1037,1282,2805
1782219263.8319,5.4169,1,lf,0.0986,0.0986,-0.1000,0,0.3313,0.3318,-0.1018,-0.0008,0.0006,-0.0064,CLIMB,5,1,0,13.0,0.000,1.320,0,-1,0,-1.0,-13.0,-1.0,0.0,0.0,0.0,2037,2826,1212,1912,1298,2788,2050,2901,1310,1039,1278,2804,2036,2814,1211,1912,1316,2792,2052,2884,1308,1037,1282,2805
1782219263.8518,5.4368,1,lf,0.0986,0.0986,-0.1000,0,0.3312,0.3316,-0.1020,-0.0008,0.0007,-0.0062,CLIMB,5,1,0,13.0,0.000,1.340,0,-1,0,-1.0,-13.0,-1.0,0.0,0.0,0.0,2037,2826,1212,1912,1298,2788,2050,2901,1310,1039,1278,2804,2036,2813,1211,1912,1316,2792,2052,2884,1309,1038,1282,2805
1782219263.8718,5.4568,1,lf,0.0986,0.0986,-0.1000,0,0.3312,0.3316,-0.1020,-0.0007,0.0008,-0.0062,CLIMB,5,1,0,13.0,0.000,1.360,0,-1,0,-1.0,-13.0,-1.0,0.0,0.0,0.0,2037,2826,1212,1912,1298,2788,2050,2901,1310,1039,1278,2804,2036,2813,1211,1912,1316,2792,2052,2884,1309,1038,1282,2805
1782219263.8918,5.4768,1,lf,0.0986,0.0986,-0.1000,0,0.3312,0.3316,-0.1020,-0.0007,0.0008,-0.0061,CLIMB,5,1,0,13.0,0.000,1.380,0,-1,0,-2.0,-13.0,-1.0,0.0,0.0,0.0,2037,2826,1212,1912,1298,2788,2050,2901,1310,1039,1278,2804,2035,2814,1211,1912,1316,2792,2052,2884,1308,1039,1282,2805
1782219263.9119,5.4968,1,lf,0.0986,0.0986,-0.1000,0,0.3310,0.3320,-0.1018,-0.0007,0.0006,-0.0062,CLIMB,5,1,0,12.0,0.000,1.400,0,-1,0,-2.0,-12.0,-1.0,0.0,0.0,0.0,2037,2826,1212,1912,1298,2788,2050,2901,1310,1039,1278,2804,2035,2814,1211,1912,1316,2792,2052,2884,1308,1039,1282,2805
1782219263.9318,5.5168,1,lf,0.0986,0.0986,-0.1000,0,0.3310,0.3320,-0.1018,-0.0007,0.0005,-0.0063,CLIMB,5,1,0,12.0,0.000,1.420,0,-1,0,-2.0,-12.0,-1.0,0.0,0.0,0.0,2037,2826,1212,1912,1298,2788,2050,2901,1310,1039,1278,2804,2035,2814,1211,1912,1316,2792,2052,2884,1308,1039,1282,2805
1782219263.9517,5.5366,1,lf,0.0986,0.0986,-0.1000,0,0.3310,0.3320,-0.1018,-0.0007,0.0005,-0.0064,CLIMB,5,1,0,12.0,0.000,1.440,0,-1,0,-2.0,-12.0,-1.0,0.0,0.0,0.0,2037,2826,1212,1912,1298,2788,2050,2901,1310,1039,1278,2804,2035,2814,1211,1912,1316,2792,2052,2884,1309,1040,1281,2806
1782219263.9718,5.5568,1,lf,0.0986,0.0986,-0.1000,0,0.3310,0.3320,-0.1018,-0.0007,0.0004,-0.0064,CLIMB,5,1,0,12.0,0.000,1.460,0,-1,0,-1.0,-12.0,-1.0,0.0,0.0,0.0,2037,2826,1212,1912,1298,2788,2050,2901,1310,1039,1278,2804,2035,2814,1211,1912,1316,2792,2052,2884,1309,1040,1281,2806
1782219263.9917,5.5767,1,lf,0.0986,0.0986,-0.1000,0,0.3310,0.3320,-0.1018,-0.0007,0.0004,-0.0063,CLIMB,5,1,0,12.0,0.000,1.480,0,-1,0,-1.0,-12.0,-1.0,0.0,0.0,0.0,2037,2826,1212,1912,1298,2788,2050,2901,1310,1039,1278,2804,2036,2813,1211,1912,1316,2792,2052,2884,1308,1041,1274,2805
1782219264.0119,5.5969,1,lf,0.0986,0.0986,-0.1000,0,0.3312,0.3316,-0.1020,-0.0006,0.0005,-0.0062,CLIMB,5,1,0,13.0,0.000,1.500,0,-1,0,-1.0,-13.0,-1.0,0.0,0.0,0.0,2037,2826,1212,1912,1298,2788,2050,2901,1310,1039,1278,2804,2036,2813,1211,1912,1316,2792,2052,2884,1308,1041,1274,2805
1782219264.0318,5.6168,1,lf,0.0986,0.0986,-0.1000,0,0.3312,0.3316,-0.1020,-0.0006,0.0005,-0.0061,CLIMB,5,1,0,13.0,0.000,1.520,0,-1,0,-1.0,-13.0,-1.0,0.0,0.0,0.0,2037,2826,1212,1912,1298,2788,2050,2901,1310,1039,1278,2804,2036,2813,1211,1912,1316,2792,2052,2884,1308,1041,1274,2805
1782219264.0517,5.6367,1,lf,0.0986,0.0986,-0.1000,0,0.3313,0.3318,-0.1018,-0.0006,0.0005,-0.0062,CLIMB,5,1,0,12.0,0.000,1.540,0,-1,0,-1.0,-12.0,-1.0,0.0,0.0,0.0,2037,2826,1212,1912,1298,2788,2050,2901,1310,1039,1278,2804,2036,2814,1211,1912,1316,2792,2052,2884,1308,1041,1274,2805
1782219264.0718,5.6568,1,lf,0.0986,0.0986,-0.1000,0,0.3313,0.3318,-0.1018,-0.0007,0.0005,-0.0062,CLIMB,5,1,0,13.0,0.000,1.560,0,-1,0,-2.0,-13.0,-1.0,0.0,0.0,0.0,2037,2826,1212,1912,1298,2788,2050,2901,1310,1039,1278,2804,2036,2814,1211,1912,1316,2792,2052,2884,1308,1041,1274,2805
1782219264.0918,5.6768,1,lf,0.0986,0.0986,-0.1000,0,0.3313,0.3318,-0.1018,-0.0007,0.0005,-0.0062,CLIMB,5,1,0,13.0,0.000,1.580,0,-1,0,-2.0,-13.0,-1.0,0.0,0.0,0.0,2037,2826,1212,1912,1298,2788,2050,2901,1310,1039,1278,2804,2035,2814,1211,1912,1315,2792,2052,2884,1308,1041,1272,2805
1782219264.1117,5.6967,1,lf,0.0986,0.0986,-0.1000,0,0.3310,0.3320,-0.1018,-0.0006,0.0003,-0.0062,CLIMB,5,1,0,12.0,0.000,1.600,0,-1,0,-2.0,-12.0,-1.0,0.0,0.0,0.0,2037,2826,1212,1912,1298,2788,2050,2901,1310,1039,1278,2804,2035,2814,1211,1912,1315,2792,2052,2884,1308,1041,1272,2805
1782219264.1317,5.7167,1,lf,0.0986,0.0986,-0.1000,0,0.3310,0.3320,-0.1018,-0.0006,0.0003,-0.0062,CLIMB,5,1,0,12.0,0.000,1.620,0,-1,0,-2.0,-12.0,-1.0,0.0,0.0,0.0,2037,2826,1212,1912,1298,2788,2050,2901,1310,1039,1278,2804,2035,2814,1211,1912,1315,2792,2052,2884,1308,1041,1272,2805
1782219264.1517,5.7367,1,lf,0.0986,0.0986,-0.1000,0,0.3310,0.3320,-0.1018,-0.0006,0.0002,-0.0063,CLIMB,5,1,0,12.0,0.000,1.640,0,-1,0,-2.0,-12.0,-1.0,0.0,0.0,0.0,2037,2826,1212,1912,1298,2788,2050,2901,1310,1039,1278,2804,2035,2814,1211,1912,1315,2792,2052,2884,1309,1041,1272,2804
1782219264.1718,5.7568,1,lf,0.0986,0.0986,-0.1000,0,0.3310,0.3320,-0.1018,-0.0006,0.0002,-0.0063,CLIMB,5,1,0,12.0,0.000,1.660,0,-1,0,-2.0,-12.0,-1.0,0.0,0.0,0.0,2037,2826,1212,1912,1298,2788,2050,2901,1310,1039,1278,2804,2035,2814,1211,1912,1315,2792,2052,2884,1309,1041,1272,2804
1782219264.1919,5.7768,1,lf,0.0986,0.0986,-0.1000,0,0.3310,0.3320,-0.1018,-0.0005,0.0002,-0.0062,CLIMB,5,1,0,12.0,0.000,1.680,0,-1,0,-2.0,-12.0,-1.0,0.0,0.0,0.0,2037,2826,1212,1912,1298,2788,2050,2901,1310,1039,1278,2804,2035,2813,1211,1912,1316,2792,2052,2884,1308,1041,1272,2805
1782219264.2118,5.7968,1,lf,0.0986,0.0986,-0.1000,0,0.3309,0.3319,-0.1020,-0.0005,0.0003,-0.0061,CLIMB,5,1,0,13.0,0.000,1.700,0,-1,0,-2.0,-13.0,-1.0,0.0,0.0,0.0,2037,2826,1212,1912,1298,2788,2050,2901,1310,1039,1278,2804,2035,2813,1211,1912,1316,2792,2052,2884,1308,1041,1272,2805
1782219264.2317,5.8167,1,lf,0.0986,0.0986,-0.1000,0,0.3309,0.3319,-0.1020,-0.0004,0.0003,-0.0060,CLIMB,5,1,0,13.0,0.000,1.720,0,-1,0,-1.0,-13.0,-1.0,0.0,0.0,0.0,2037,2826,1212,1912,1298,2788,2050,2901,1310,1039,1278,2804,2035,2813,1211,1912,1316,2792,2052,2884,1308,1041,1272,2805
1782219264.2518,5.8368,1,lf,0.0986,0.0986,-0.1000,0,0.3312,0.3316,-0.1020,-0.0005,0.0005,-0.0060,CLIMB,5,1,0,13.0,0.000,1.740,0,-1,0,-1.0,-13.0,-1.0,0.0,0.0,0.0,2037,2826,1212,1912,1298,2788,2050,2901,1310,1039,1278,2804,2036,2813,1211,1912,1316,2792,2052,2884,1308,1041,1273,2805
1782219264.2718,5.8568,1,lf,0.0986,0.0986,-0.1000,0,0.3312,0.3316,-0.1020,-0.0006,0.0006,-0.0060,CLIMB,5,1,0,12.0,0.000,1.760,0,-1,0,-2.0,-12.0,-1.0,0.0,0.0,0.0,2037,2826,1212,1912,1298,2788,2050,2901,1310,1039,1278,2804,2036,2813,1211,1912,1316,2792,2052,2884,1308,1041,1273,2805
1782219264.2921,5.8771,1,lf,0.0986,0.0986,-0.1000,0,0.3312,0.3316,-0.1020,-0.0006,0.0006,-0.0060,CLIMB,5,1,0,12.0,0.000,1.780,0,-1,0,-1.0,-12.0,-1.0,0.0,0.0,0.0,2037,2826,1212,1912,1298,2788,2050,2901,1310,1039,1278,2804,2036,2814,1211,1912,1316,2792,2052,2884,1309,1041,1273,2805
1782219264.3119,5.8969,1,lf,0.0986,0.0986,-0.1000,0,0.3313,0.3318,-0.1018,-0.0007,0.0006,-0.0061,CLIMB,5,1,0,12.0,0.000,1.800,0,-1,0,-1.0,-12.0,-1.0,0.0,0.0,0.0,2037,2826,1212,1912,1298,2788,2050,2901,1310,1039,1278,2804,2036,2814,1211,1912,1316,2792,2052,2884,1309,1041,1273,2805
1782219264.3318,5.9168,1,lf,0.0986,0.0986,-0.1000,0,0.3313,0.3318,-0.1018,-0.0007,0.0006,-0.0063,CLIMB,5,1,0,12.0,0.000,1.820,0,-1,0,-2.0,-12.0,-1.0,0.0,0.0,0.0,2037,2826,1212,1912,1298,2788,2050,2901,1310,1039,1278,2804,2036,2814,1211,1912,1316,2792,2052,2884,1309,1041,1273,2805
1782219264.3518,5.9368,1,lf,0.0986,0.0986,-0.1000,0,0.3313,0.3318,-0.1018,-0.0008,0.0006,-0.0063,CLIMB,5,1,0,12.0,0.000,1.840,0,-1,0,-2.0,-12.0,-1.0,0.0,0.0,0.0,2037,2826,1212,1912,1298,2788,2050,2901,1310,1039,1278,2804,2036,2814,1211,1912,1316,2792,2052,2884,1309,1041,1274,2805
1782219264.3718,5.9567,1,lf,0.0986,0.0986,-0.1000,0,0.3313,0.3318,-0.1018,-0.0008,0.0006,-0.0064,CLIMB,5,1,0,12.0,0.000,1.860,0,-1,0,-1.0,-12.0,-1.0,0.0,0.0,0.0,2037,2826,1212,1912,1298,2788,2050,2901,1310,1039,1278,2804,2036,2814,1211,1912,1316,2792,2052,2884,1309,1041,1274,2805
1782219264.3919,5.9769,1,lf,0.0986,0.0986,-0.1000,0,0.3313,0.3318,-0.1018,-0.0008,0.0006,-0.0064,CLIMB,5,1,0,13.0,0.000,1.880,0,-1,0,-1.0,-13.0,-1.0,0.0,0.0,0.0,2037,2826,1212,1912,1298,2788,2050,2901,1310,1039,1278,2804,2036,2813,1211,1912,1316,2792,2052,2884,1308,1041,1278,2805
1782219264.4118,5.9968,1,lf,0.0986,0.0986,-0.1000,0,0.3312,0.3316,-0.1020,-0.0008,0.0007,-0.0063,CLIMB,5,1,0,13.0,0.000,1.900,0,-1,0,-1.0,-13.0,-1.0,0.0,0.0,0.0,2037,2826,1212,1912,1298,2788,2050,2901,1310,1039,1278,2804,2036,2813,1211,1912,1316,2792,2052,2884,1308,1041,1278,2805
1782219264.4317,6.0167,1,lf,0.0986,0.0986,-0.1000,0,0.3312,0.3316,-0.1020,-0.0008,0.0007,-0.0063,CLIMB,5,1,0,13.0,0.000,1.920,0,-1,0,-1.0,-13.0,-1.0,0.0,0.0,0.0,2037,2826,1212,1912,1298,2788,2050,2901,1310,1039,1278,2804,2036,2813,1211,1912,1316,2792,2052,2884,1308,1041,1278,2805
1782219264.4517,6.0366,1,lf,0.0986,0.0986,-0.1000,0,0.3312,0.3316,-0.1020,-0.0008,0.0008,-0.0063,CLIMB,5,1,0,13.0,0.000,1.940,0,-1,0,-1.0,-13.0,-1.0,0.0,0.0,0.0,2037,2826,1212,1912,1298,2788,2050,2901,1310,1039,1278,2804,2036,2813,1211,1912,1316,2792,2052,2884,1309,1041,1282,2805
1782219264.4717,6.0566,1,lf,0.0986,0.0986,-0.1000,0,0.3312,0.3316,-0.1020,-0.0008,0.0008,-0.0063,CLIMB,5,1,0,13.0,0.000,1.960,0,-1,0,-1.0,-13.0,-1.0,0.0,0.0,0.0,2037,2826,1212,1912,1298,2788,2050,2901,1310,1039,1278,2804,2036,2813,1211,1912,1316,2792,2052,2884,1309,1041,1282,2805
1782219264.4918,6.0767,1,lf,0.0986,0.0986,-0.1000,0,0.3312,0.3316,-0.1020,-0.0007,0.0008,-0.0062,CLIMB,5,1,0,12.0,0.000,1.980,0,-1,0,-2.0,-12.0,-1.0,0.0,0.0,0.0,2037,2826,1212,1912,1298,2788,2050,2901,1310,1039,1278,2804,2035,2814,1211,1912,1316,2792,2052,2884,1309,1041,1283,2806
1782219264.5119,6.0969,1,lf,0.0986,0.0986,-0.1000,0,0.3310,0.3320,-0.1018,-0.0007,0.0006,-0.0063,CLIMB,5,1,0,12.0,0.000,2.000,0,-1,0,-2.0,-12.0,-1.0,0.0,0.0,0.0,2037,2826,1212,1912,1298,2788,2050,2901,1310,1039,1278,2804,2035,2814,1211,1912,1316,2792,2052,2884,1309,1041,1283,2806
1782219264.5317,6.1167,1,lf,0.0986,0.0986,-0.1000,0,0.3310,0.3320,-0.1018,-0.0007,0.0005,-0.0064,CLIMB,5,1,0,12.0,0.000,2.020,0,-1,0,-1.0,-12.0,-1.0,0.0,0.0,0.0,2037,2826,1212,1912,1298,2788,2050,2901,1310,1039,1278,2804,2035,2814,1211,1912,1316,2792,2052,2884,1309,1041,1283,2806
1782219264.5518,6.1367,1,lf,0.0986,0.0986,-0.1000,0,0.3310,0.3320,-0.1018,-0.0007,0.0004,-0.0064,CLIMB,5,1,0,12.0,0.000,2.040,0,-1,0,-2.0,-12.0,-1.0,0.0,0.0,0.0,2037,2826,1212,1912,1298,2788,2050,2901,1310,1039,1278,2804,2035,2814,1211,1912,1316,2792,2052,2884,1308,1041,1283,2805
1782219264.5718,6.1568,1,lf,0.0986,0.0986,-0.1000,0,0.3310,0.3320,-0.1018,-0.0007,0.0004,-0.0064,CLIMB,5,1,0,12.0,0.000,2.060,0,-1,0,-2.0,-12.0,-1.0,0.0,0.0,0.0,2037,2826,1212,1912,1298,2788,2050,2901,1310,1039,1278,2804,2035,2814,1211,1912,1316,2792,2052,2884,1308,1041,1283,2805
1782219264.5919,6.1769,1,lf,0.0986,0.0986,-0.1000,0,0.3310,0.3320,-0.1018,-0.0007,0.0003,-0.0064,CLIMB,5,1,0,12.0,0.000,2.080,0,-1,0,-2.0,-12.0,-1.0,0.0,0.0,0.0,2037,2826,1212,1912,1298,2788,2050,2901,1310,1039,1278,2804,2035,2814,1211,1912,1316,2792,2052,2884,1309,1041,1284,2805
1782219264.6122,6.1972,1,lf,0.0986,0.0986,-0.1000,0,0.3310,0.3320,-0.1018,-0.0007,0.0003,-0.0065,CLIMB,5,1,0,13.0,0.000,2.100,0,-1,0,-2.0,-13.0,-1.0,0.0,0.0,0.0,2037,2826,1212,1912,1298,2788,2050,2901,1310,1039,1278,2804,2035,2814,1211,1912,1316,2792,2052,2884,1309,1041,1284,2805
1782219264.6319,6.2168,1,lf,0.0986,0.0986,-0.1000,0,0.3310,0.3320,-0.1018,-0.0007,0.0003,-0.0065,CLIMB,5,1,0,13.0,0.000,2.120,0,-1,0,-2.0,-13.0,-1.0,0.0,0.0,0.0,2037,2826,1212,1912,1298,2788,2050,2901,1310,1039,1278,2804,2035,2814,1211,1912,1316,2792,2052,2884,1309,1041,1284,2805
1782219264.6518,6.2368,1,lf,0.0986,0.0986,-0.1000,0,0.3312,0.3316,-0.1020,-0.0007,0.0005,-0.0064,CLIMB,5,1,0,13.0,0.000,2.140,0,-1,0,-1.0,-13.0,-1.0,0.0,0.0,0.0,2037,2826,1212,1912,1298,2788,2050,2901,1310,1039,1278,2804,2036,2813,1211,1912,1316,2792,2052,2884,1309,1040,1284,2805
1782219264.6718,6.2568,1,lf,0.0986,0.0986,-0.1000,0,0.3312,0.3316,-0.1020,-0.0007,0.0006,-0.0064,CLIMB,5,1,0,13.0,0.000,2.160,0,-1,0,-1.0,-13.0,-1.0,0.0,0.0,0.0,2037,2826,1212,1912,1298,2788,2050,2901,1310,1039,1278,2804,2036,2813,1211,1912,1316,2792,2052,2884,1309,1040,1284,2805
1782219264.6917,6.2767,1,lf,0.0986,0.0986,-0.1000,0,0.3312,0.3316,-0.1020,-0.0007,0.0007,-0.0064,CLIMB,5,1,0,13.0,0.000,2.180,0,-1,0,-2.0,-13.0,-1.0,0.0,0.0,0.0,2037,2826,1212,1912,1298,2788,2050,2901,1310,1039,1278,2804,2036,2814,1211,1912,1316,2792,2052,2884,1308,1040,1284,2805
1782219264.7120,6.2969,1,lf,0.0986,0.0986,-0.1000,0,0.3313,0.3318,-0.1018,-0.0008,0.0007,-0.0065,CLIMB,5,1,0,12.0,0.000,2.200,0,-1,0,-1.0,-12.0,-1.0,0.0,0.0,0.0,2037,2826,1212,1912,1298,2788,2050,2901,1310,1039,1278,2804,2036,2814,1211,1912,1316,2792,2052,2884,1308,1040,1284,2805
1782219264.7321,6.3171,1,lf,0.0986,0.0986,-0.1000,0,0.3313,0.3318,-0.1018,-0.0008,0.0007,-0.0065,CLIMB,5,1,0,12.0,0.000,2.220,0,-1,0,-1.0,-12.0,-1.0,0.0,0.0,0.0,2037,2826,1212,1912,1298,2788,2050,2901,1310,1039,1278,2804,2036,2814,1211,1912,1316,2792,2052,2884,1308,1040,1284,2805
1782219264.7517,6.3367,1,lf,0.0986,0.0986,-0.1000,0,0.3313,0.3318,-0.1018,-0.0009,0.0007,-0.0065,CLIMB,5,1,0,12.0,0.000,2.240,0,-1,0,-1.0,-12.0,-1.0,0.0,0.0,0.0,2037,2826,1212,1912,1298,2788,2050,2901,1310,1039,1278,2804,2036,2814,1211,1912,1316,2792,2052,2884,1308,1041,1284,2805
1782219264.7718,6.3568,1,lf,0.0986,0.0986,-0.1000,0,0.3313,0.3318,-0.1018,-0.0009,0.0007,-0.0066,CLIMB,5,1,0,12.0,0.000,2.260,0,-1,0,-1.0,-12.0,-1.0,0.0,0.0,0.0,2037,2826,1212,1912,1298,2788,2050,2901,1310,1039,1278,2804,2036,2814,1211,1912,1316,2792,2052,2884,1308,1041,1284,2805
1782219264.7918,6.3768,1,lf,0.0986,0.0986,-0.1000,0,0.3313,0.3318,-0.1018,-0.0009,0.0007,-0.0066,CLIMB,5,1,0,12.0,0.000,2.280,0,-1,0,-1.0,-12.0,-1.0,0.0,0.0,0.0,2037,2826,1212,1912,1298,2788,2050,2901,1310,1039,1278,2804,2035,2814,1211,1912,1316,2792,2052,2884,1308,1041,1284,2805
1782219264.8117,6.3967,1,lf,0.0986,0.0986,-0.1000,0,0.3310,0.3320,-0.1018,-0.0008,0.0006,-0.0066,CLIMB,5,1,0,12.0,0.000,2.300,0,-1,0,-2.0,-12.0,-1.0,0.0,0.0,0.0,2037,2826,1212,1912,1298,2788,2050,2901,1310,1039,1278,2804,2035,2814,1211,1912,1316,2792,2052,2884,1308,1041,1284,2805
1782219264.8319,6.4169,1,lf,0.0986,0.0986,-0.1000,0,0.3310,0.3320,-0.1018,-0.0008,0.0005,-0.0066,CLIMB,5,1,0,12.0,0.000,2.320,0,-1,0,-2.0,-12.0,-1.0,0.0,0.0,0.0,2037,2826,1212,1912,1298,2788,2050,2901,1310,1039,1278,2804,2035,2814,1211,1912,1316,2792,2052,2884,1308,1041,1284,2805
1782219264.8518,6.4368,1,lf,0.0986,0.0986,-0.1000,0,0.3310,0.3320,-0.1018,-0.0008,0.0005,-0.0066,CLIMB,5,1,0,12.0,0.000,2.340,0,-1,0,-2.0,-12.0,-1.0,0.0,0.0,0.0,2037,2826,1212,1912,1298,2788,2050,2901,1310,1039,1278,2804,2035,2814,1211,1912,1316,2792,2052,2884,1308,1040,1284,2805
1782219264.8719,6.4569,1,lf,0.0986,0.0986,-0.1000,0,0.3310,0.3320,-0.1018,-0.0007,0.0005,-0.0066,CLIMB,5,1,0,13.0,0.000,2.360,0,-1,0,-2.0,-13.0,-1.0,0.0,0.0,0.0,2037,2826,1212,1912,1298,2788,2050,2901,1310,1039,1278,2804,2035,2814,1211,1912,1316,2792,2052,2884,1308,1040,1284,2805
1782219264.8918,6.4768,1,lf,0.0986,0.0986,-0.1000,0,0.3310,0.3320,-0.1018,-0.0008,0.0005,-0.0066,CLIMB,5,1,0,13.0,0.000,2.380,0,-1,0,-2.0,-13.0,-1.0,0.0,0.0,0.0,2037,2826,1212,1912,1298,2788,2050,2901,1310,1039,1278,2804,2035,2813,1211,1912,1316,2792,2052,2884,1308,1040,1284,2805
1782219264.9118,6.4968,1,lf,0.0986,0.0986,-0.1000,0,0.3309,0.3319,-0.1020,-0.0007,0.0005,-0.0065,CLIMB,5,1,0,13.0,0.000,2.400,0,-1,0,-2.0,-13.0,-1.0,0.0,0.0,0.0,2037,2826,1212,1912,1298,2788,2050,2901,1310,1039,1278,2804,2035,2813,1211,1912,1316,2792,2052,2884,1308,1040,1284,2805
1782219264.9318,6.5167,1,lf,0.0986,0.0986,-0.1000,0,0.3309,0.3319,-0.1020,-0.0007,0.0006,-0.0064,CLIMB,5,1,0,13.0,0.000,2.420,0,-1,0,-2.0,-13.0,-1.0,0.0,0.0,0.0,2037,2826,1212,1912,1298,2788,2050,2901,1310,1039,1278,2804,2035,2813,1211,1912,1316,2792,2052,2884,1308,1040,1284,2805
1782219264.9520,6.5370,1,lf,0.0986,0.0986,-0.1000,0,0.3309,0.3319,-0.1020,-0.0007,0.0006,-0.0064,CLIMB,5,1,0,13.0,0.000,2.440,0,-1,0,-2.0,-13.0,-1.0,0.0,0.0,0.0,2037,2826,1212,1912,1298,2788,2050,2901,1310,1039,1278,2804,2035,2813,1211,1912,1316,2792,2052,2884,1309,1041,1284,2805
1782219264.9718,6.5567,1,lf,0.0986,0.0986,-0.1000,0,0.3309,0.3319,-0.1020,-0.0007,0.0006,-0.0064,CLIMB,5,1,0,12.0,0.000,2.460,0,-1,0,-2.0,-12.0,-1.0,0.0,0.0,0.0,2037,2826,1212,1912,1298,2788,2050,2901,1310,1039,1278,2804,2035,2813,1211,1912,1316,2792,2052,2884,1309,1041,1284,2805
1782219264.9918,6.5768,1,lf,0.0986,0.0986,-0.1000,0,0.3309,0.3319,-0.1020,-0.0007,0.0006,-0.0063,CLIMB,5,1,0,12.0,0.000,2.480,0,-1,0,-2.0,-12.0,-1.0,0.0,0.0,0.0,2037,2826,1212,1912,1298,2788,2050,2901,1310,1039,1278,2804,2036,2813,1211,1912,1316,2792,2052,2884,1308,1041,1284,2805
1782219265.0118,6.5968,1,lf,0.0986,0.0986,-0.1000,0,0.3312,0.3316,-0.1020,-0.0007,0.0008,-0.0063,CLIMB,5,1,0,13.0,0.000,2.500,0,-1,0,-1.0,-13.0,-1.0,0.0,0.0,0.0,2037,2826,1212,1912,1298,2788,2050,2901,1310,1039,1278,2804,2036,2813,1211,1912,1316,2792,2052,2884,1308,1041,1284,2805
1782219265.0318,6.6168,1,lf,0.0986,0.0986,-0.1000,0,0.3312,0.3316,-0.1020,-0.0008,0.0009,-0.0063,CLIMB,5,1,0,12.0,0.000,2.520,0,-1,0,-1.0,-12.0,-1.0,0.0,0.0,0.0,2037,2826,1212,1912,1298,2788,2050,2901,1310,1039,1278,2804,2036,2813,1211,1912,1316,2792,2052,2884,1308,1041,1284,2805
1782219265.0519,6.6369,1,lf,0.0986,0.0986,-0.1000,0,0.3313,0.3318,-0.1018,-0.0009,0.0009,-0.0064,CLIMB,5,1,0,12.0,0.000,2.540,0,-1,0,-1.0,-12.0,-1.0,0.0,0.0,0.0,2037,2826,1212,1912,1298,2788,2050,2901,1310,1039,1278,2804,2036,2814,1211,1912,1316,2792,2052,2884,1309,1041,1284,2805
1782219265.0718,6.6568,1,lf,0.0986,0.0986,-0.1000,0,0.3313,0.3318,-0.1018,-0.0010,0.0009,-0.0065,CLIMB,5,1,0,13.0,0.000,2.560,0,-1,0,-1.0,-13.0,-1.0,0.0,0.0,0.0,2037,2826,1212,1912,1298,2788,2050,2901,1310,1039,1278,2804,2036,2814,1211,1912,1316,2792,2052,2884,1309,1041,1284,2805
1782219265.0918,6.6768,1,lf,0.0986,0.0986,-0.1000,0,0.3313,0.3318,-0.1018,-0.0010,0.0009,-0.0065,CLIMB,5,1,0,12.0,0.000,2.580,0,-1,0,-2.0,-12.0,-1.0,0.0,0.0,0.0,2037,2826,1212,1912,1298,2788,2050,2901,1310,1039,1278,2804,2035,2814,1211,1912,1316,2792,2052,2884,1308,1041,1284,2805
1782219265.1118,6.6968,1,lf,0.0986,0.0986,-0.1000,0,0.3310,0.3320,-0.1018,-0.0009,0.0008,-0.0065,CLIMB,5,1,0,12.0,0.000,2.600,0,-1,0,-2.0,-12.0,-1.0,0.0,0.0,0.0,2037,2826,1212,1912,1298,2788,2050,2901,1310,1039,1278,2804,2035,2814,1211,1912,1316,2792,2052,2884,1308,1041,1284,2805
1782219265.1317,6.7167,1,lf,0.0986,0.0986,-0.1000,0,0.3310,0.3320,-0.1018,-0.0009,0.0007,-0.0065,CLIMB,5,1,0,13.0,0.000,2.620,0,-1,0,-1.0,-13.0,-1.0,0.0,0.0,0.0,2037,2826,1212,1912,1298,2788,2050,2901,1310,1039,1278,2804,2035,2814,1211,1912,1316,2792,2052,2884,1308,1041,1284,2805
1782219265.1522,6.7372,1,lf,0.0986,0.0986,-0.1000,0,0.3310,0.3320,-0.1018,-0.0009,0.0007,-0.0065,CLIMB,5,1,0,13.0,0.000,2.640,0,-1,0,-1.0,-13.0,-1.0,0.0,0.0,0.0,2037,2826,1212,1912,1298,2788,2050,2901,1310,1039,1278,2804,2035,2814,1211,1912,1316,2792,2052,2884,1308,1041,1284,2805
1782219265.1717,6.7567,1,lf,0.0986,0.0986,-0.1000,0,0.3310,0.3320,-0.1018,-0.0008,0.0007,-0.0065,CLIMB,5,1,0,12.0,0.000,2.660,0,-1,0,-2.0,-12.0,-1.0,0.0,0.0,0.0,2037,2826,1212,1912,1298,2788,2050,2901,1310,1039,1278,2804,2035,2814,1211,1912,1316,2792,2052,2884,1308,1041,1284,2805
1782219265.1919,6.7769,1,lf,0.0986,0.0986,-0.1000,0,0.3310,0.3320,-0.1018,-0.0008,0.0006,-0.0065,CLIMB,5,1,0,13.0,0.000,2.680,0,-1,0,-1.0,-13.0,-1.0,0.0,0.0,0.0,2037,2826,1212,1912,1298,2788,2050,2901,1310,1039,1278,2804,2036,2813,1211,1912,1316,2792,2052,2884,1308,1041,1284,2805
1782219265.2118,6.7968,1,lf,0.0986,0.0986,-0.1000,0,0.3312,0.3316,-0.1020,-0.0008,0.0008,-0.0064,CLIMB,5,1,0,13.0,0.000,2.700,0,-1,0,-1.0,-13.0,-1.0,0.0,0.0,0.0,2037,2826,1212,1912,1298,2788,2050,2901,1310,1039,1278,2804,2036,2813,1211,1912,1316,2792,2052,2884,1308,1041,1284,2805
1782219265.2318,6.8167,1,lf,0.0986,0.0986,-0.1000,0,0.3312,0.3316,-0.1020,-0.0008,0.0009,-0.0064,CLIMB,5,1,0,12.0,0.000,2.720,0,-1,0,-2.0,-12.0,-1.0,0.0,0.0,0.0,2037,2826,1212,1912,1298,2788,2050,2901,1310,1039,1278,2804,2036,2813,1211,1912,1316,2792,2052,2884,1308,1041,1284,2805
1782219265.2518,6.8368,1,lf,0.0986,0.0986,-0.1000,0,0.3310,0.3320,-0.1018,-0.0008,0.0007,-0.0064,CLIMB,5,1,0,12.0,0.000,2.740,0,-1,0,-2.0,-12.0,-1.0,0.0,0.0,0.0,2037,2826,1212,1912,1298,2788,2050,2901,1310,1039,1278,2804,2035,2814,1211,1912,1316,2792,2052,2884,1308,1040,1284,2805
1782219265.2718,6.8568,1,lf,0.0986,0.0986,-0.1000,0,0.3310,0.3320,-0.1018,-0.0008,0.0007,-0.0065,CLIMB,5,1,0,12.0,0.000,2.760,0,-1,0,-2.0,-12.0,-1.0,0.0,0.0,0.0,2037,2826,1212,1912,1298,2788,2050,2901,1310,1039,1278,2804,2035,2814,1211,1912,1316,2792,2052,2884,1308,1040,1284,2805
1782219265.2920,6.8770,1,lf,0.0986,0.0986,-0.1000,0,0.3310,0.3320,-0.1018,-0.0008,0.0006,-0.0065,CLIMB,5,1,0,13.0,0.000,2.780,0,-1,0,-2.0,-13.0,-1.0,0.0,0.0,0.0,2037,2826,1212,1912,1298,2788,2050,2901,1310,1039,1278,2804,2035,2813,1211,1912,1316,2793,2052,2884,1309,1040,1284,2805
1782219265.3120,6.8969,1,lf,0.0986,0.0986,-0.1000,0,0.3309,0.3319,-0.1020,-0.0007,0.0006,-0.0064,CLIMB,5,1,0,13.0,0.000,2.800,0,-1,0,-2.0,-13.0,-1.0,0.0,0.0,0.0,2037,2826,1212,1912,1298,2788,2050,2901,1310,1039,1278,2804,2035,2813,1211,1912,1316,2793,2052,2884,1309,1040,1284,2805
1782219265.3320,6.9169,1,lf,0.0986,0.0986,-0.1000,0,0.3309,0.3319,-0.1020,-0.0007,0.0006,-0.0064,CLIMB,5,1,0,12.0,0.000,2.820,0,-1,0,-2.0,-12.0,-1.0,0.0,0.0,0.0,2037,2826,1212,1912,1298,2788,2050,2901,1310,1039,1278,2804,2035,2813,1211,1912,1316,2793,2052,2884,1309,1040,1284,2805
1782219265.3520,6.9369,1,lf,0.0986,0.0986,-0.1000,0,0.3313,0.3318,-0.1018,-0.0009,0.0008,-0.0065,CLIMB,5,1,0,12.0,0.000,2.840,0,-1,0,-1.0,-12.0,-1.0,0.0,0.0,0.0,2037,2826,1212,1912,1298,2788,2050,2901,1310,1039,1278,2804,2036,2814,1211,1912,1316,2792,2052,2884,1308,1040,1283,2805
1782219265.3718,6.9568,1,lf,0.0986,0.0986,-0.1000,0,0.3313,0.3318,-0.1018,-0.0010,0.0009,-0.0065,CLIMB,5,1,0,12.0,0.000,2.860,0,-1,0,-1.0,-12.0,-1.0,0.0,0.0,0.0,2037,2826,1212,1912,1298,2788,2050,2901,1310,1039,1278,2804,2036,2814,1211,1912,1316,2792,2052,2884,1308,1040,1283,2805
1782219265.3918,6.9768,1,lf,0.0986,0.0986,-0.1000,0,0.3313,0.3318,-0.1018,-0.0010,0.0009,-0.0066,CLIMB,5,1,0,13.0,0.000,2.880,0,-1,0,-2.0,-13.0,-1.0,0.0,0.0,0.0,2037,2826,1212,1912,1298,2788,2050,2901,1310,1039,1278,2804,2035,2813,1211,1912,1316,2792,2052,2884,1308,1040,1284,2805
1782219265.4118,6.9968,1,lf,0.0986,0.0986,-0.1000,0,0.3309,0.3319,-0.1020,-0.0009,0.0009,-0.0065,CLIMB,5,1,0,12.0,0.000,2.900,0,-1,0,-2.0,-12.0,-1.0,0.0,0.0,0.0,2037,2826,1212,1912,1298,2788,2050,2901,1310,1039,1278,2804,2035,2813,1211,1912,1316,2792,2052,2884,1308,1040,1284,2805
1782219265.4319,7.0169,1,lf,0.0986,0.0986,-0.1000,0,0.3309,0.3319,-0.1020,-0.0009,0.0009,-0.0064,CLIMB,5,1,0,12.0,0.000,2.920,0,-1,0,-2.0,-12.0,-1.0,0.0,0.0,0.0,2037,2826,1212,1912,1298,2788,2050,2901,1310,1039,1278,2804,2035,2813,1211,1912,1316,2792,2052,2884,1308,1040,1284,2805
1782219265.4520,7.0369,1,lf,0.0986,0.0986,-0.1000,0,0.3313,0.3318,-0.1018,-0.0010,0.0010,-0.0065,CLIMB,5,1,0,12.0,0.000,2.940,0,-1,0,-1.0,-12.0,-1.0,0.0,0.0,0.0,2037,2826,1212,1912,1298,2788,2050,2901,1310,1039,1278,2804,2036,2814,1211,1912,1316,2792,2052,2884,1308,1041,1284,2805
1782219265.4718,7.0568,1,lf,0.0986,0.0986,-0.1000,0,0.3313,0.3318,-0.1018,-0.0011,0.0011,-0.0066,CLIMB,5,1,0,12.0,0.000,2.960,0,-1,0,-1.0,-12.0,-1.0,0.0,0.0,0.0,2037,2826,1212,1912,1298,2788,2050,2901,1310,1039,1278,2804,2036,2814,1211,1912,1316,2792,2052,2884,1308,1041,1284,2805
1782219265.4918,7.0768,1,lf,0.0986,0.0986,-0.1000,0,0.3313,0.3318,-0.1018,-0.0012,0.0012,-0.0066,CLIMB,5,1,0,12.0,0.000,2.980,0,-1,0,-2.0,-12.0,-1.0,0.0,0.0,0.0,2037,2826,1212,1912,1298,2788,2050,2901,1310,1039,1278,2804,2035,2813,1211,1912,1316,2792,2052,2884,1309,1040,1284,2805
1782219265.5119,7.0969,1,lf,0.0986,0.0986,-0.1000,0,0.3309,0.3319,-0.1020,-0.0010,0.0011,-0.0065,CLIMB,5,1,0,13.0,0.000,3.000,1,-1,0,-2.0,-13.0,-1.0,0.0,0.0,0.0,2037,2826,1212,1912,1298,2788,2050,2901,1310,1039,1278,2804,2035,2813,1211,1912,1316,2792,2052,2884,1309,1040,1284,2805
1782219265.5320,7.1169,1,lf,0.0986,0.0986,-0.1000,0,0.3309,0.3319,-0.1020,-0.0009,0.0011,-0.0064,CLIMB,5,1,0,13.0,0.000,3.020,1,-1,0,-2.0,-13.0,-1.0,0.0,0.0,0.0,2037,2826,1212,1912,1298,2788,2050,2901,1310,1039,1278,2804,2035,2813,1211,1912,1316,2792,2052,2884,1309,1040,1284,2805
1782219265.5518,7.1368,1,lf,0.0986,0.0986,-0.1000,0,0.3310,0.3320,-0.1018,-0.0010,0.0010,-0.0065,CLIMB,5,1,0,12.0,0.000,3.040,1,-1,0,-2.0,-12.0,-1.0,0.0,0.0,0.0,2037,2826,1212,1912,1298,2788,2050,2901,1310,1039,1278,2804,2035,2814,1211,1912,1316,2792,2052,2884,1309,1041,1284,2805
1782219265.5719,7.1568,1,lf,0.0986,0.0986,-0.1000,0,0.3310,0.3320,-0.1018,-0.0010,0.0009,-0.0065,CLIMB,5,1,0,12.0,0.000,3.060,1,-1,0,-1.0,-12.0,-1.0,0.0,0.0,0.0,2037,2826,1212,1912,1298,2788,2050,2901,1310,1039,1278,2804,2035,2814,1211,1912,1316,2792,2052,2884,1309,1041,1284,2805
1782219265.5918,7.1768,1,lf,0.0986,0.0986,-0.1000,0,0.3310,0.3320,-0.1018,-0.0010,0.0009,-0.0066,CLIMB,5,1,0,12.0,0.000,3.080,1,-1,0,-1.0,-12.0,-1.0,0.0,0.0,0.0,2037,2826,1212,1912,1298,2788,2050,2901,1310,1039,1278,2804,2036,2813,1211,1912,1316,2792,2052,2884,1309,1041,1284,2805
1782219265.6120,7.1969,1,lf,0.0986,0.0986,-0.1000,0,0.3312,0.3316,-0.1020,-0.0010,0.0011,-0.0065,CLIMB,5,1,0,13.0,0.000,3.100,1,-1,0,-1.0,-13.0,-1.0,0.0,0.0,0.0,2037,2826,1212,1912,1298,2788,2050,2901,1310,1039,1278,2804,2036,2813,1211,1912,1316,2792,2052,2884,1309,1041,1284,2805
1782219265.6318,7.2168,1,lf,0.0986,0.0986,-0.1000,0,0.3312,0.3316,-0.1020,-0.0010,0.0012,-0.0064,CLIMB,5,1,0,13.0,0.000,3.120,1,-1,0,-1.0,-13.0,-1.0,0.0,0.0,0.0,2037,2826,1212,1912,1298,2788,2050,2901,1310,1039,1278,2804,2036,2813,1211,1912,1316,2792,2052,2884,1309,1041,1284,2805
1782219265.6518,7.2367,1,lf,0.0986,0.0986,-0.1000,0,0.3310,0.3320,-0.1018,-0.0010,0.0010,-0.0065,CLIMB,5,1,0,12.0,0.000,3.140,1,-1,0,-2.0,-12.0,-1.0,0.0,0.0,0.0,2037,2826,1212,1912,1298,2788,2050,2901,1310,1039,1278,2804,2035,2814,1211,1913,1316,2792,2052,2884,1308,1041,1284,2805
1782219265.6718,7.2568,1,lf,0.0986,0.0986,-0.1000,0,0.3310,0.3320,-0.1018,-0.0010,0.0009,-0.0065,CLIMB,5,1,0,13.0,0.000,3.160,1,-1,0,-2.0,-13.0,-1.0,0.0,0.0,0.0,2037,2826,1212,1912,1298,2788,2050,2901,1310,1039,1278,2804,2035,2814,1211,1913,1316,2792,2052,2884,1308,1041,1284,2805
1782219265.6917,7.2767,1,lf,0.0986,0.0986,-0.1000,0,0.3310,0.3320,-0.1018,-0.0010,0.0009,-0.0065,CLIMB,5,1,0,13.0,0.000,3.180,1,-1,0,-2.0,-13.0,-1.0,0.0,0.0,0.0,2037,2826,1212,1912,1298,2788,2050,2901,1310,1039,1278,2804,2035,2813,1211,1912,1316,2792,2052,2884,1309,1041,1284,2805
1782219265.7118,7.2967,1,lf,0.0986,0.0986,-0.1000,0,0.3309,0.3319,-0.1020,-0.0009,0.0009,-0.0064,CLIMB,5,1,0,13.0,0.000,3.200,1,-1,0,-2.0,-13.0,-1.0,0.0,0.0,0.0,2037,2826,1212,1912,1298,2788,2050,2901,1310,1039,1278,2804,2035,2813,1211,1912,1316,2792,2052,2884,1309,1041,1284,2805
1782219265.7318,7.3168,1,lf,0.0986,0.0986,-0.1000,0,0.3309,0.3319,-0.1020,-0.0008,0.0008,-0.0064,CLIMB,5,1,0,13.0,0.000,3.220,1,-1,0,-2.0,-13.0,-1.0,0.0,0.0,0.0,2037,2826,1212,1912,1298,2788,2050,2901,1310,1039,1278,2804,2035,2813,1211,1912,1316,2792,2052,2884,1309,1041,1284,2805
1782219265.7519,7.3369,1,lf,0.0986,0.0986,-0.1000,0,0.3309,0.3319,-0.1020,-0.0008,0.0008,-0.0064,CLIMB,5,1,0,13.0,0.000,3.240,1,-1,0,-2.0,-13.0,-1.0,0.0,0.0,0.0,2037,2826,1212,1912,1298,2788,2050,2901,1310,1039,1278,2804,2035,2813,1211,1912,1316,2792,2052,2884,1308,1041,1284,2805
1782219265.7718,7.3568,1,lf,0.0986,0.0986,-0.1000,0,0.3309,0.3319,-0.1020,-0.0008,0.0008,-0.0064,CLIMB,5,1,0,13.0,0.000,3.260,1,-1,0,-2.0,-13.0,-1.0,0.0,0.0,0.0,2037,2826,1212,1912,1298,2788,2050,2901,1310,1039,1278,2804,2035,2813,1211,1912,1316,2792,2052,2884,1308,1041,1284,2805
1782219265.7918,7.3768,1,lf,0.0986,0.0986,-0.1000,0,0.3309,0.3319,-0.1020,-0.0007,0.0008,-0.0064,CLIMB,5,1,0,13.0,0.000,3.280,1,-1,0,-2.0,-13.0,-1.0,0.0,0.0,0.0,2037,2826,1212,1912,1298,2788,2050,2901,1310,1039,1278,2804,2036,2814,1211,1912,1316,2792,2052,2884,1309,1040,1284,2805
1782219265.8126,7.3976,1,lf,0.0986,0.0986,-0.1000,0,0.3313,0.3318,-0.1018,-0.0009,0.0009,-0.0065,CLIMB,5,1,0,12.0,0.000,3.300,1,-1,0,-1.0,-12.0,-1.0,0.0,0.0,0.0,2037,2826,1212,1912,1298,2788,2050,2901,1310,1039,1278,2804,2036,2814,1211,1912,1316,2792,2052,2884,1309,1040,1284,2805
1782219265.8318,7.4167,1,lf,0.0986,0.0986,-0.1000,0,0.3313,0.3318,-0.1018,-0.0010,0.0009,-0.0065,CLIMB,5,1,0,12.0,0.000,3.320,1,-1,0,-1.0,-12.0,-1.0,0.0,0.0,0.0,2037,2826,1212,1912,1298,2788,2050,2901,1310,1039,1278,2804,2036,2814,1211,1912,1316,2792,2052,2884,1309,1040,1284,2805
1782219265.8520,7.4369,1,lf,0.0986,0.0986,-0.1000,0,0.3309,0.3319,-0.1020,-0.0009,0.0008,-0.0064,CLIMB,5,1,0,12.0,0.000,3.340,1,-1,0,-1.0,-12.0,-1.0,0.0,0.0,0.0,2037,2826,1212,1912,1298,2788,2050,2901,1310,1039,1278,2804,2035,2813,1211,1912,1316,2792,2052,2884,1308,1041,1284,2805
1782219265.8718,7.4568,1,lf,0.0986,0.0986,-0.1000,0,0.3309,0.3319,-0.1020,-0.0008,0.0008,-0.0064,CLIMB,5,1,0,13.0,0.000,3.360,1,-1,0,-2.0,-13.0,-1.0,0.0,0.0,0.0,2037,2826,1212,1912,1298,2788,2050,2901,1310,1039,1278,2804,2035,2813,1211,1912,1316,2792,2052,2884,1308,1041,1284,2805
1782219265.8917,7.4767,1,lf,0.0986,0.0986,-0.1000,0,0.3309,0.3319,-0.1020,-0.0008,0.0008,-0.0064,CLIMB,5,1,0,13.0,0.000,3.380,1,-1,0,-2.0,-13.0,-1.0,0.0,0.0,0.0,2037,2826,1212,1912,1298,2788,2050,2901,1310,1039,1278,2804,2035,2813,1211,1912,1316,2792,2052,2884,1308,1041,1284,2805
1782219265.9117,7.4967,1,lf,0.0986,0.0986,-0.1000,0,0.3309,0.3319,-0.1020,-0.0008,0.0008,-0.0064,CLIMB,5,1,0,13.0,0.000,3.400,1,-1,0,-2.0,-13.0,-1.0,0.0,0.0,0.0,2037,2826,1212,1912,1298,2788,2050,2901,1310,1039,1278,2804,2035,2813,1211,1912,1316,2792,2052,2884,1308,1041,1284,2805
1782219265.9318,7.5168,1,lf,0.0986,0.0986,-0.1000,0,0.3309,0.3319,-0.1020,-0.0008,0.0008,-0.0064,CLIMB,5,1,0,12.0,0.000,3.420,1,-1,0,-1.0,-12.0,-1.0,0.0,0.0,0.0,2037,2826,1212,1912,1298,2788,2050,2901,1310,1039,1278,2804,2035,2813,1211,1912,1316,2792,2052,2884,1308,1041,1284,2805
1782219265.9519,7.5369,1,lf,0.0986,0.0986,-0.1000,0,0.3309,0.3319,-0.1020,-0.0008,0.0008,-0.0064,CLIMB,5,1,0,12.0,0.000,3.440,1,-1,0,-1.0,-12.0,-1.0,0.0,0.0,0.0,2037,2826,1212,1912,1298,2788,2050,2901,1310,1039,1278,2804,2035,2813,1211,1912,1316,2792,2052,2884,1308,1041,1284,2805
1782219265.9718,7.5568,1,lf,0.0986,0.0986,-0.1000,0,0.3309,0.3319,-0.1020,-0.0008,0.0008,-0.0064,CLIMB,5,1,0,13.0,0.000,3.460,1,-1,0,-2.0,-13.0,-1.0,0.0,0.0,0.0,2037,2826,1212,1912,1298,2788,2050,2901,1310,1039,1278,2804,2035,2813,1211,1912,1316,2792,2052,2884,1308,1041,1284,2805
1782219265.9918,7.5767,1,lf,0.0986,0.0986,-0.1000,0,0.3309,0.3319,-0.1020,-0.0008,0.0009,-0.0063,CLIMB,5,1,0,12.0,0.000,3.480,1,-1,0,-2.0,-12.0,-1.0,0.0,0.0,0.0,2037,2826,1212,1912,1298,2788,2050,2901,1310,1039,1278,2804,2035,2814,1211,1912,1316,2792,2052,2884,1308,1040,1283,2805
1782219266.0120,7.5969,1,lf,0.0986,0.0986,-0.1000,0,0.3310,0.3320,-0.1018,-0.0009,0.0009,-0.0065,CLIMB,5,1,0,12.0,0.000,3.500,1,-1,0,-2.0,-12.0,-1.0,0.0,0.0,0.0,2037,2826,1212,1912,1298,2788,2050,2901,1310,1039,1278,2804,2035,2814,1211,1912,1316,2792,2052,2884,1308,1040,1283,2805
1782219266.0318,7.6168,1,lf,0.0986,0.0986,-0.1000,0,0.3310,0.3320,-0.1018,-0.0010,0.0010,-0.0065,CLIMB,5,1,0,12.0,0.000,3.520,1,-1,0,-2.0,-12.0,-1.0,0.0,0.0,0.0,2037,2826,1212,1912,1298,2788,2050,2901,1310,1039,1278,2804,2035,2814,1211,1912,1316,2792,2052,2884,1308,1040,1283,2805
1782219266.0518,7.6368,1,lf,0.0986,0.0986,-0.1000,0,0.3309,0.3319,-0.1020,-0.0010,0.0011,-0.0065,CLIMB,5,1,0,13.0,0.000,3.540,1,-1,0,-2.0,-13.0,-1.0,0.0,0.0,0.0,2037,2826,1212,1912,1298,2788,2050,2901,1310,1039,1278,2804,2035,2813,1211,1912,1316,2792,2052,2884,1308,1040,1284,2805
1782219266.0718,7.6568,1,lf,0.0986,0.0986,-0.1000,0,0.3309,0.3319,-0.1020,-0.0010,0.0011,-0.0065,CLIMB,5,1,0,13.0,0.000,3.560,1,-1,0,-2.0,-13.0,-1.0,0.0,0.0,0.0,2037,2826,1212,1912,1298,2788,2050,2901,1310,1039,1278,2804,2035,2813,1211,1912,1316,2792,2052,2884,1308,1040,1284,2805
1782219266.0918,7.6768,1,lf,0.0986,0.0986,-0.1000,0,0.3309,0.3319,-0.1020,-0.0010,0.0011,-0.0064,CLIMB,5,1,0,13.0,0.000,3.580,1,-1,0,-1.0,-13.0,-1.0,0.0,0.0,0.0,2037,2826,1212,1912,1298,2788,2050,2901,1310,1039,1278,2804,2036,2813,1211,1912,1316,2792,2052,2884,1309,1041,1284,2805
1782219266.1119,7.6969,1,lf,0.0986,0.0986,-0.1000,0,0.3312,0.3316,-0.1020,-0.0011,0.0013,-0.0064,CLIMB,5,1,0,13.0,0.000,3.600,1,-1,0,-1.0,-13.0,-1.0,0.0,0.0,0.0,2037,2826,1212,1912,1298,2788,2050,2901,1310,1039,1278,2804,2036,2813,1211,1912,1316,2792,2052,2884,1309,1041,1284,2805
1782219266.1318,7.7168,1,lf,0.0986,0.0986,-0.1000,0,0.3312,0.3316,-0.1020,-0.0011,0.0014,-0.0064,CLIMB,5,1,0,12.0,0.000,3.620,1,-1,0,-2.0,-12.0,-1.0,0.0,0.0,0.0,2037,2826,1212,1912,1298,2788,2050,2901,1310,1039,1278,2804,2036,2813,1211,1912,1316,2792,2052,2884,1309,1041,1284,2805
1782219266.1519,7.7369,1,lf,0.0986,0.0986,-0.1000,0,0.3310,0.3320,-0.1018,-0.0012,0.0012,-0.0065,CLIMB,5,1,0,12.0,0.000,3.640,1,-1,0,-2.0,-12.0,-1.0,0.0,0.0,0.0,2037,2826,1212,1912,1298,2788,2050,2901,1310,1039,1278,2804,2035,2814,1211,1912,1316,2792,2052,2884,1309,1041,1284,2805
1782219266.1718,7.7568,1,lf,0.0986,0.0986,-0.1000,0,0.3310,0.3320,-0.1018,-0.0012,0.0012,-0.0065,CLIMB,5,1,0,12.0,0.000,3.660,1,-1,0,-2.0,-12.0,-1.0,0.0,0.0,0.0,2037,2826,1212,1912,1298,2788,2050,2901,1310,1039,1278,2804,2035,2814,1211,1912,1316,2792,2052,2884,1309,1041,1284,2805
1782219266.1918,7.7768,1,lf,0.0986,0.0986,-0.1000,0,0.3310,0.3320,-0.1018,-0.0012,0.0012,-0.0065,CLIMB,5,1,0,12.0,0.000,3.680,1,-1,0,-2.0,-12.0,-1.0,0.0,0.0,0.0,2037,2826,1212,1912,1298,2788,2050,2901,1310,1039,1278,2804,2035,2814,1211,1912,1316,2792,2052,2884,1308,1040,1284,2806
1782219266.2119,7.7969,1,lf,0.0986,0.0986,-0.1000,0,0.3310,0.3320,-0.1018,-0.0012,0.0011,-0.0066,CLIMB,5,1,0,13.0,0.000,3.700,1,-1,0,-1.0,-13.0,-1.0,0.0,0.0,0.0,2037,2826,1212,1912,1298,2788,2050,2901,1310,1039,1278,2804,2035,2814,1211,1912,1316,2792,2052,2884,1308,1040,1284,2806
1782219266.2318,7.8168,1,lf,0.0986,0.0986,-0.1000,0,0.3310,0.3320,-0.1018,-0.0012,0.0011,-0.0066,CLIMB,5,1,0,13.0,0.000,3.720,1,-1,0,-1.0,-13.0,-1.0,0.0,0.0,0.0,2037,2826,1212,1912,1298,2788,2050,2901,1310,1039,1278,2804,2035,2814,1211,1912,1316,2792,2052,2884,1308,1040,1284,2806
1782219266.2518,7.8368,1,lf,0.0986,0.0986,-0.1000,0,0.3310,0.3320,-0.1018,-0.0012,0.0011,-0.0066,CLIMB,5,1,0,12.0,0.000,3.740,1,-1,0,-2.0,-12.0,-1.0,0.0,0.0,0.0,2037,2826,1212,1912,1298,2788,2050,2901,1310,1039,1278,2804,2035,2814,1211,1912,1316,2792,2052,2884,1308,1041,1284,2805
1782219266.2717,7.8567,1,lf,0.0986,0.0986,-0.1000,0,0.3310,0.3320,-0.1018,-0.0012,0.0011,-0.0066,CLIMB,5,1,0,12.0,0.000,3.760,1,-1,0,-2.0,-12.0,-1.0,0.0,0.0,0.0,2037,2826,1212,1912,1298,2788,2050,2901,1310,1039,1278,2804,2035,2814,1211,1912,1316,2792,2052,2884,1308,1041,1284,2805
1782219266.2917,7.8767,1,lf,0.0986,0.0986,-0.1000,0,0.3310,0.3320,-0.1018,-0.0012,0.0011,-0.0066,CLIMB,5,1,0,13.0,0.000,3.780,1,-1,0,-2.0,-13.0,-1.0,0.0,0.0,0.0,2037,2826,1212,1912,1298,2788,2050,2901,1310,1039,1278,2804,2036,2814,1211,1912,1316,2792,2052,2884,1308,1041,1284,2806
1782219266.3117,7.8967,1,lf,0.0986,0.0986,-0.1000,0,0.3313,0.3318,-0.1018,-0.0012,0.0012,-0.0066,CLIMB,5,1,0,12.0,0.000,3.800,1,-1,0,-1.0,-12.0,-1.0,0.0,0.0,0.0,2037,2826,1212,1912,1298,2788,2050,2901,1310,1039,1278,2804,2036,2814,1211,1912,1316,2792,2052,2884,1308,1041,1284,2806
1782219266.3319,7.9169,1,lf,0.0986,0.0986,-0.1000,0,0.3313,0.3318,-0.1018,-0.0013,0.0013,-0.0065,CLIMB,5,1,0,12.0,0.000,3.820,1,-1,0,-1.0,-12.0,-1.0,0.0,0.0,0.0,2037,2826,1212,1912,1298,2788,2050,2901,1310,1039,1278,2804,2036,2814,1211,1912,1316,2792,2052,2884,1308,1041,1284,2806
1782219266.3518,7.9368,1,lf,0.0986,0.0986,-0.1000,0,0.3312,0.3316,-0.1020,-0.0012,0.0014,-0.0064,CLIMB,5,1,0,13.0,0.000,3.840,1,-1,0,-1.0,-13.0,-1.0,0.0,0.0,0.0,2037,2826,1212,1912,1298,2788,2050,2901,1310,1039,1278,2804,2036,2813,1211,1912,1316,2792,2052,2884,1308,1040,1284,2806
1782219266.3718,7.9568,1,lf,0.0986,0.0986,-0.1000,0,0.3312,0.3316,-0.1020,-0.0012,0.0014,-0.0064,CLIMB,5,1,0,12.0,0.000,3.860,1,-1,0,-2.0,-12.0,-1.0,0.0,0.0,0.0,2037,2826,1212,1912,1298,2788,2050,2901,1310,1039,1278,2804,2036,2813,1211,1912,1316,2792,2052,2884,1308,1040,1284,2806
1782219266.3920,7.9769,1,lf,0.0986,0.0986,-0.1000,0,0.3312,0.3316,-0.1020,-0.0012,0.0014,-0.0063,CLIMB,5,1,0,12.0,0.000,3.880,1,-1,0,-2.0,-12.0,-1.0,0.0,0.0,0.0,2037,2826,1212,1912,1298,2788,2050,2901,1310,1039,1278,2804,2035,2814,1211,1912,1316,2792,2052,2884,1308,1041,1284,2805
1782219266.4119,7.9968,1,lf,0.0986,0.0986,-0.1000,0,0.3310,0.3320,-0.1018,-0.0011,0.0012,-0.0064,CLIMB,5,1,0,12.0,0.000,3.900,1,-1,0,-2.0,-12.0,-1.0,0.0,0.0,0.0,2037,2826,1212,1912,1298,2788,2050,2901,1310,1039,1278,2804,2035,2814,1211,1912,1316,2792,2052,2884,1308,1041,1284,2805
1782219266.4319,8.0169,1,lf,0.0986,0.0986,-0.1000,0,0.3310,0.3320,-0.1018,-0.0011,0.0011,-0.0065,CLIMB,5,1,0,12.0,0.000,3.920,1,-1,0,-2.0,-12.0,-1.0,0.0,0.0,0.0,2037,2826,1212,1912,1298,2788,2050,2901,1310,1039,1278,2804,2035,2814,1211,1912,1316,2792,2052,2884,1308,1041,1284,2805
1782219266.4518,8.0368,1,lf,0.0986,0.0986,-0.1000,0,0.3312,0.3316,-0.1020,-0.0011,0.0013,-0.0064,CLIMB,5,1,0,13.0,0.000,3.940,1,-1,0,-1.0,-13.0,-1.0,0.0,0.0,0.0,2037,2826,1212,1912,1298,2788,2050,2901,1310,1039,1278,2804,2036,2813,1211,1912,1316,2792,2052,2884,1308,1040,1283,2805
1782219266.4718,8.0568,1,lf,0.0986,0.0986,-0.1000,0,0.3312,0.3316,-0.1020,-0.0011,0.0013,-0.0063,CLIMB,5,1,0,13.0,0.000,3.960,1,-1,0,-1.0,-13.0,-1.0,0.0,0.0,0.0,2037,2826,1212,1912,1298,2788,2050,2901,1310,1039,1278,2804,2036,2813,1211,1912,1316,2792,2052,2884,1308,1040,1283,2805
1782219266.4920,8.0769,1,lf,0.0986,0.0986,-0.1000,0,0.3312,0.3316,-0.1020,-0.0011,0.0014,-0.0063,CLIMB,5,1,0,13.0,0.000,3.980,1,-1,0,-1.0,-13.0,-1.0,0.0,0.0,0.0,2037,2826,1212,1912,1298,2788,2050,2901,1310,1039,1278,2804,2035,2814,1211,1912,1316,2792,2052,2884,1308,1040,1284,2805
1782219266.5117,8.0967,1,lf,0.0986,0.0986,-0.1000,0,0.3310,0.3320,-0.1018,-0.0011,0.0012,-0.0064,CLIMB,5,1,0,12.0,0.000,4.000,1,-1,0,-2.0,-12.0,-1.0,0.0,0.0,0.0,2037,2826,1212,1912,1298,2788,2050,2901,1310,1039,1278,2804,2035,2814,1211,1912,1316,2792,2052,2884,1308,1040,1284,2805
1782219266.5317,8.1167,1,lf,0.0986,0.0986,-0.1000,0,0.3310,0.3320,-0.1018,-0.0011,0.0011,-0.0065,CLIMB,5,1,0,13.0,0.000,4.020,1,-1,0,-1.0,-13.0,-1.0,0.0,0.0,0.0,2037,2826,1212,1912,1298,2788,2050,2901,1310,1039,1278,2804,2035,2814,1211,1912,1316,2792,2052,2884,1308,1040,1284,2805
1782219266.5518,8.1368,1,lf,0.0986,0.0986,-0.1000,0,0.3312,0.3316,-0.1020,-0.0011,0.0012,-0.0064,CLIMB,5,1,0,13.0,0.000,4.040,1,-1,0,-1.0,-13.0,-1.0,0.0,0.0,0.0,2037,2826,1212,1912,1298,2788,2050,2901,1310,1039,1278,2804,2036,2813,1211,1912,1316,2791,2052,2884,1308,1041,1284,2805
1782219266.5718,8.1568,1,lf,0.0986,0.0986,-0.1000,0,0.3312,0.3316,-0.1020,-0.0011,0.0013,-0.0064,CLIMB,5,1,0,12.0,0.000,4.060,1,-1,0,-2.0,-12.0,-1.0,0.0,0.0,0.0,2037,2826,1212,1912,1298,2788,2050,2901,1310,1039,1278,2804,2036,2813,1211,1912,1316,2791,2052,2884,1308,1041,1284,2805
1782219266.5920,8.1770,1,lf,0.0986,0.0986,-0.1000,0,0.3312,0.3316,-0.1020,-0.0011,0.0013,-0.0063,CLIMB,5,1,0,12.0,0.000,4.080,1,-1,0,-2.0,-12.0,-1.0,0.0,0.0,0.0,2037,2826,1212,1912,1298,2788,2050,2901,1310,1039,1278,2804,2036,2814,1211,1912,1316,2792,2052,2884,1309,1040,1284,2805
1782219266.6118,8.1968,1,lf,0.0986,0.0986,-0.1000,0,0.3313,0.3318,-0.1018,-0.0011,0.0013,-0.0064,CLIMB,5,1,0,12.0,0.000,4.100,1,-1,0,-1.0,-12.0,-1.0,0.0,0.0,0.0,2037,2826,1212,1912,1298,2788,2050,2901,1310,1039,1278,2804,2036,2814,1211,1912,1316,2792,2052,2884,1309,1040,1284,2805
1782219266.6318,8.2168,1,lf,0.0986,0.0986,-0.1000,0,0.3313,0.3318,-0.1018,-0.0012,0.0012,-0.0065,CLIMB,5,1,0,12.0,0.000,4.120,1,-1,0,-2.0,-12.0,-1.0,0.0,0.0,0.0,2037,2826,1212,1912,1298,2788,2050,2901,1310,1039,1278,2804,2036,2814,1211,1912,1316,2792,2052,2884,1309,1040,1284,2805
1782219266.6519,8.2369,1,lf,0.0986,0.0986,-0.1000,0,0.3310,0.3320,-0.1018,-0.0011,0.0011,-0.0065,CLIMB,5,1,0,12.0,0.000,4.140,1,-1,0,-2.0,-12.0,-1.0,0.0,0.0,0.0,2037,2826,1212,1912,1298,2788,2050,2901,1310,1039,1278,2804,2035,2814,1211,1912,1316,2792,2052,2884,1308,1040,1284,2805
1782219266.6719,8.2568,1,lf,0.0986,0.0986,-0.1000,0,0.3310,0.3320,-0.1018,-0.0010,0.0010,-0.0065,CLIMB,5,1,0,13.0,0.000,4.160,1,-1,0,-2.0,-13.0,-1.0,0.0,0.0,0.0,2037,2826,1212,1912,1298,2788,2050,2901,1310,1039,1278,2804,2035,2814,1211,1912,1316,2792,2052,2884,1308,1040,1284,2805
1782219266.6917,8.2767,1,lf,0.0986,0.0986,-0.1000,0,0.3310,0.3320,-0.1018,-0.0010,0.0009,-0.0065,CLIMB,5,1,0,13.0,0.000,4.180,1,-1,0,-1.0,-13.0,-1.0,0.0,0.0,0.0,2037,2826,1212,1912,1298,2788,2050,2901,1310,1039,1278,2804,2036,2813,1211,1912,1316,2792,2052,2884,1309,1041,1284,2805
1782219266.7123,8.2973,1,lf,0.0986,0.0986,-0.1000,0,0.3312,0.3316,-0.1020,-0.0011,0.0011,-0.0064,CLIMB,5,1,0,13.0,0.000,4.200,1,-1,0,-1.0,-13.0,-1.0,0.0,0.0,0.0,2037,2826,1212,1912,1298,2788,2050,2901,1310,1039,1278,2804,2036,2813,1211,1912,1316,2792,2052,2884,1309,1041,1284,2805
1782219266.7322,8.3172,1,lf,0.0986,0.0986,-0.1000,0,0.3312,0.3316,-0.1020,-0.0011,0.0012,-0.0064,CLIMB,5,1,0,13.0,0.000,4.220,1,-1,0,-1.0,-13.0,-1.0,0.0,0.0,0.0,2037,2826,1212,1912,1298,2788,2050,2901,1310,1039,1278,2804,2036,2813,1211,1912,1316,2792,2052,2884,1309,1041,1284,2805
1782219266.7517,8.3367,1,lf,0.0986,0.0986,-0.1000,0,0.3313,0.3318,-0.1018,-0.0011,0.0012,-0.0065,CLIMB,5,1,0,13.0,0.000,4.240,1,-1,0,-1.0,-13.0,-1.0,0.0,0.0,0.0,2037,2826,1212,1912,1298,2788,2050,2901,1310,1039,1278,2804,2036,2814,1211,1912,1316,2792,2052,2884,1309,1040,1284,2805
1782219266.7717,8.3567,1,lf,0.0986,0.0986,-0.1000,0,0.3313,0.3318,-0.1018,-0.0012,0.0012,-0.0065,CLIMB,5,1,0,12.0,0.000,4.260,1,-1,0,-1.0,-12.0,-1.0,0.0,0.0,0.0,2037,2826,1212,1912,1298,2788,2050,2901,1310,1039,1278,2804,2036,2814,1211,1912,1316,2792,2052,2884,1309,1040,1284,2805
1782219266.7919,8.3769,1,lf,0.0986,0.0986,-0.1000,0,0.3313,0.3318,-0.1018,-0.0012,0.0012,-0.0065,CLIMB,5,1,0,12.0,0.000,4.280,1,-1,0,-2.0,-12.0,-1.0,0.0,0.0,0.0,2037,2826,1212,1912,1298,2788,2050,2901,1310,1039,1278,2804,2035,2814,1211,1912,1315,2792,2052,2884,1308,1041,1284,2805
1782219266.8119,8.3969,1,lf,0.0986,0.0986,-0.1000,0,0.3310,0.3320,-0.1018,-0.0011,0.0011,-0.0065,CLIMB,5,1,0,12.0,0.000,4.300,1,-1,0,-2.0,-12.0,-1.0,0.0,0.0,0.0,2037,2826,1212,1912,1298,2788,2050,2901,1310,1039,1278,2804,2035,2814,1211,1912,1315,2792,2052,2884,1308,1041,1284,2805
1782219266.8319,8.4169,1,lf,0.0986,0.0986,-0.1000,0,0.3310,0.3320,-0.1018,-0.0011,0.0010,-0.0065,CLIMB,5,1,0,12.0,0.000,4.320,1,-1,0,-1.0,-12.0,-1.0,0.0,0.0,0.0,2037,2826,1212,1912,1298,2788,2050,2901,1310,1039,1278,2804,2035,2814,1211,1912,1315,2792,2052,2884,1308,1041,1284,2805
1782219266.8517,8.4367,1,lf,0.0986,0.0986,-0.1000,0,0.3310,0.3320,-0.1018,-0.0011,0.0010,-0.0065,CLIMB,5,1,0,12.0,0.000,4.340,1,-1,0,-2.0,-12.0,-1.0,0.0,0.0,0.0,2037,2826,1212,1912,1298,2788,2050,2901,1310,1039,1278,2804,2035,2814,1211,1912,1316,2792,2052,2884,1309,1041,1284,2805
1782219266.8718,8.4568,1,lf,0.0986,0.0986,-0.1000,0,0.3310,0.3320,-0.1018,-0.0010,0.0010,-0.0065,CLIMB,5,1,0,12.0,0.000,4.360,1,-1,0,-2.0,-12.0,-1.0,0.0,0.0,0.0,2037,2826,1212,1912,1298,2788,2050,2901,1310,1039,1278,2804,2035,2814,1211,1912,1316,2792,2052,2884,1309,1041,1284,2805
1782219266.8918,8.4768,1,lf,0.0986,0.0986,-0.1000,0,0.3310,0.3320,-0.1018,-0.0010,0.0010,-0.0065,CLIMB,5,1,0,12.0,0.000,4.380,1,-1,0,-2.0,-12.0,-1.0,0.0,0.0,0.0,2037,2826,1212,1912,1298,2788,2050,2901,1310,1039,1278,2804,2035,2814,1211,1912,1316,2792,2052,2884,1308,1040,1284,2805
1782219266.9119,8.4969,1,lf,0.0986,0.0986,-0.1000,0,0.3310,0.3320,-0.1018,-0.0011,0.0010,-0.0065,CLIMB,5,1,0,12.0,0.000,4.400,1,-1,0,-2.0,-12.0,-1.0,0.0,0.0,0.0,2037,2826,1212,1912,1298,2788,2050,2901,1310,1039,1278,2804,2035,2814,1211,1912,1316,2792,2052,2884,1308,1040,1284,2805
1782219266.9320,8.5170,1,lf,0.0986,0.0986,-0.1000,0,0.3310,0.3320,-0.1018,-0.0011,0.0010,-0.0065,CLIMB,5,1,0,12.0,0.000,4.420,1,-1,0,-1.0,-12.0,-1.0,0.0,0.0,0.0,2037,2826,1212,1912,1298,2788,2050,2901,1310,1039,1278,2804,2035,2814,1211,1912,1316,2792,2052,2884,1308,1040,1284,2805
1782219266.9519,8.5369,1,lf,0.0986,0.0986,-0.1000,0,0.3309,0.3319,-0.1020,-0.0010,0.0011,-0.0064,CLIMB,5,1,0,13.0,0.000,4.440,1,-1,0,-2.0,-13.0,-1.0,0.0,0.0,0.0,2037,2826,1212,1912,1298,2788,2050,2901,1310,1039,1278,2804,2035,2813,1211,1912,1316,2792,2052,2884,1309,1040,1284,2805
1782219266.9719,8.5568,1,lf,0.0986,0.0986,-0.1000,0,0.3309,0.3319,-0.1020,-0.0010,0.0011,-0.0064,CLIMB,5,1,0,13.0,0.000,4.460,1,-1,0,-2.0,-13.0,-1.0,0.0,0.0,0.0,2037,2826,1212,1912,1298,2788,2050,2901,1310,1039,1278,2804,2035,2813,1211,1912,1316,2792,2052,2884,1309,1040,1284,2805
1782219266.9918,8.5768,1,lf,0.0986,0.0986,-0.1000,0,0.3309,0.3319,-0.1020,-0.0009,0.0011,-0.0063,CLIMB,5,1,0,13.0,0.000,4.480,1,-1,0,-2.0,-13.0,-1.0,0.0,0.0,0.0,2037,2826,1212,1912,1298,2788,2050,2901,1310,1039,1278,2804,2035,2813,1211,1912,1316,2792,2052,2884,1308,1041,1283,2805
1782219267.0118,8.5968,1,lf,0.0986,0.0986,-0.1000,0,0.3309,0.3319,-0.1020,-0.0009,0.0011,-0.0063,CLIMB,5,1,0,12.0,0.000,4.500,1,-1,0,-1.0,-12.0,-1.0,0.0,0.0,0.0,2037,2826,1212,1912,1298,2788,2050,2901,1310,1039,1278,2804,2035,2813,1211,1912,1316,2792,2052,2884,1308,1041,1283,2805
1782219267.0318,8.6168,1,lf,0.0986,0.0986,-0.1000,0,0.3309,0.3319,-0.1020,-0.0009,0.0011,-0.0063,CLIMB,5,1,0,12.0,0.000,4.520,1,-1,0,-1.0,-12.0,-1.0,0.0,0.0,0.0,2037,2826,1212,1912,1298,2788,2050,2901,1310,1039,1278,2804,2035,2813,1211,1912,1316,2792,2052,2884,1308,1041,1283,2805
1782219267.0520,8.6370,1,lf,0.0986,0.0986,-0.1000,0,0.3313,0.3318,-0.1018,-0.0011,0.0012,-0.0064,CLIMB,5,1,0,12.0,0.000,4.540,1,-1,0,-1.0,-12.0,-1.0,0.0,0.0,0.0,2037,2826,1212,1912,1298,2788,2050,2901,1310,1039,1278,2804,2036,2814,1211,1912,1316,2791,2052,2884,1309,1040,1284,2805
1782219267.0718,8.6568,1,lf,0.0986,0.0986,-0.1000,0,0.3313,0.3318,-0.1018,-0.0012,0.0013,-0.0065,CLIMB,5,1,0,12.0,0.000,4.560,1,-1,0,-1.0,-12.0,-1.0,0.0,0.0,0.0,2037,2826,1212,1912,1298,2788,2050,2901,1310,1039,1278,2804,2036,2814,1211,1912,1316,2791,2052,2884,1309,1040,1284,2805
1782219267.0919,8.6769,1,lf,0.0986,0.0986,-0.1000,0,0.3313,0.3318,-0.1018,-0.0012,0.0013,-0.0065,CLIMB,5,1,0,12.0,0.000,4.580,1,-1,0,-2.0,-12.0,-1.0,0.0,0.0,0.0,2037,2826,1212,1912,1298,2788,2050,2901,1310,1039,1278,2804,2036,2814,1211,1912,1316,2791,2052,2884,1308,1041,1284,2805
1782219267.1118,8.6968,1,lf,0.0986,0.0986,-0.1000,0,0.3313,0.3318,-0.1018,-0.0013,0.0013,-0.0065,CLIMB,5,1,0,12.0,0.000,4.600,1,-1,0,-1.0,-12.0,-1.0,0.0,0.0,0.0,2037,2826,1212,1912,1298,2788,2050,2901,1310,1039,1278,2804,2036,2814,1211,1912,1316,2791,2052,2884,1308,1041,1284,2805
1782219267.1319,8.7169,1,lf,0.0986,0.0986,-0.1000,0,0.3313,0.3318,-0.1018,-0.0013,0.0014,-0.0065,CLIMB,5,1,0,12.0,0.000,4.620,1,-1,0,-1.0,-12.0,-1.0,0.0,0.0,0.0,2037,2826,1212,1912,1298,2788,2050,2901,1310,1039,1278,2804,2036,2814,1211,1912,1316,2791,2052,2884,1308,1041,1284,2805
1782219267.1520,8.7370,1,lf,0.0986,0.0986,-0.1000,0,0.3310,0.3320,-0.1018,-0.0012,0.0012,-0.0065,CLIMB,5,1,0,12.0,0.000,4.640,1,-1,0,-2.0,-12.0,-1.0,0.0,0.0,0.0,2037,2826,1212,1912,1298,2788,2050,2901,1310,1039,1278,2804,2035,2814,1211,1912,1316,2792,2052,2884,1308,1040,1284,2805
1782219267.1719,8.7568,1,lf,0.0986,0.0986,-0.1000,0,0.3310,0.3320,-0.1018,-0.0011,0.0011,-0.0065,CLIMB,5,1,0,12.0,0.000,4.660,1,-1,0,-2.0,-12.0,-1.0,0.0,0.0,0.0,2037,2826,1212,1912,1298,2788,2050,2901,1310,1039,1278,2804,2035,2814,1211,1912,1316,2792,2052,2884,1308,1040,1284,2805
1782219267.1918,8.7768,1,lf,0.0986,0.0986,-0.1000,0,0.3310,0.3320,-0.1018,-0.0011,0.0011,-0.0066,CLIMB,5,1,0,12.0,0.000,4.680,1,-1,0,-2.0,-12.0,-1.0,0.0,0.0,0.0,2037,2826,1212,1912,1298,2788,2050,2901,1310,1039,1278,2804,2036,2814,1211,1912,1316,2792,2052,2884,1308,1041,1284,2805
1782219267.2124,8.7974,1,lf,0.0986,0.0986,-0.1000,0,0.3313,0.3318,-0.1018,-0.0012,0.0012,-0.0066,CLIMB,5,1,0,12.0,0.000,4.700,1,-1,0,-1.0,-12.0,-1.0,0.0,0.0,0.0,2037,2826,1212,1912,1298,2788,2050,2901,1310,1039,1278,2804,2036,2814,1211,1912,1316,2792,2052,2884,1308,1041,1284,2805
1782219267.2317,8.8166,1,lf,0.0986,0.0986,-0.1000,0,0.3313,0.3318,-0.1018,-0.0012,0.0013,-0.0066,CLIMB,5,1,0,12.0,0.000,4.720,1,-1,0,-1.0,-12.0,-1.0,0.0,0.0,0.0,2037,2826,1212,1912,1298,2788,2050,2901,1310,1039,1278,2804,2036,2814,1211,1912,1316,2792,2052,2884,1308,1041,1284,2805
1782219267.2518,8.8368,1,lf,0.0986,0.0986,-0.1000,0,0.3312,0.3316,-0.1020,-0.0012,0.0014,-0.0064,CLIMB,5,1,0,13.0,0.000,4.740,1,-1,0,-1.0,-13.0,-1.0,0.0,0.0,0.0,2037,2826,1212,1912,1298,2788,2050,2901,1310,1039,1278,2804,2036,2813,1211,1912,1316,2792,2052,2884,1308,1041,1284,2805
1782219267.2718,8.8568,1,lf,0.0986,0.0986,-0.1000,0,0.3312,0.3316,-0.1020,-0.0012,0.0014,-0.0064,CLIMB,5,1,0,12.0,0.000,4.760,1,-1,0,-1.0,-12.0,-1.0,0.0,0.0,0.0,2037,2826,1212,1912,1298,2788,2050,2901,1310,1039,1278,2804,2036,2813,1211,1912,1316,2792,2052,2884,1308,1041,1284,2805
1782219267.2918,8.8768,1,lf,0.0986,0.0986,-0.1000,0,0.3312,0.3316,-0.1020,-0.0011,0.0014,-0.0064,CLIMB,5,1,0,12.0,0.000,4.780,1,-1,0,-1.0,-12.0,-1.0,0.0,0.0,0.0,2037,2826,1212,1912,1298,2788,2050,2901,1310,1039,1278,2804,2035,2814,1211,1912,1316,2791,2052,2884,1309,1040,1284,2805
1782219267.3117,8.8967,1,lf,0.0986,0.0986,-0.1000,0,0.3310,0.3320,-0.1018,-0.0011,0.0012,-0.0065,CLIMB,5,1,0,12.0,0.000,4.800,1,-1,0,-2.0,-12.0,-1.0,0.0,0.0,0.0,2037,2826,1212,1912,1298,2788,2050,2901,1310,1039,1278,2804,2035,2814,1211,1912,1316,2791,2052,2884,1309,1040,1284,2805
1782219267.3318,8.9168,1,lf,0.0986,0.0986,-0.1000,0,0.3310,0.3320,-0.1018,-0.0011,0.0011,-0.0065,CLIMB,5,1,0,12.0,0.000,4.820,1,-1,0,-2.0,-12.0,-1.0,0.0,0.0,0.0,2037,2826,1212,1912,1298,2788,2050,2901,1310,1039,1278,2804,2035,2814,1211,1912,1316,2791,2052,2884,1309,1040,1284,2805
1782219267.3519,8.9368,1,lf,0.0986,0.0986,-0.1000,0,0.3310,0.3320,-0.1018,-0.0011,0.0011,-0.0065,CLIMB,5,1,0,12.0,0.000,4.840,1,-1,0,-2.0,-12.0,-1.0,0.0,0.0,0.0,2037,2826,1212,1912,1298,2788,2050,2901,1310,1039,1278,2804,2035,2814,1211,1912,1316,2792,2052,2884,1309,1041,1284,2805
1782219267.3718,8.9568,1,lf,0.0986,0.0986,-0.1000,0,0.3310,0.3320,-0.1018,-0.0011,0.0011,-0.0065,CLIMB,5,1,0,12.0,0.000,4.860,1,-1,0,-2.0,-12.0,-1.0,0.0,0.0,0.0,2037,2826,1212,1912,1298,2788,2050,2901,1310,1039,1278,2804,2035,2814,1211,1912,1316,2792,2052,2884,1309,1041,1284,2805
1782219267.3918,8.9767,1,lf,0.0986,0.0986,-0.1000,0,0.3310,0.3320,-0.1018,-0.0011,0.0011,-0.0065,CLIMB,5,1,0,12.0,0.000,4.880,1,-1,0,-2.0,-12.0,-1.0,0.0,0.0,0.0,2037,2826,1212,1912,1298,2788,2050,2901,1310,1039,1278,2804,2035,2814,1211,1912,1316,2792,2052,2884,1308,1041,1284,2805
1782219267.4118,8.9968,1,lf,0.0986,0.0986,-0.1000,0,0.3310,0.3320,-0.1018,-0.0011,0.0011,-0.0065,CLIMB,5,1,0,12.0,0.000,4.900,1,-1,0,-2.0,-12.0,-1.0,0.0,0.0,0.0,2037,2826,1212,1912,1298,2788,2050,2901,1310,1039,1278,2804,2035,2814,1211,1912,1316,2792,2052,2884,1308,1041,1284,2805
1782219267.4317,9.0167,1,lf,0.0986,0.0986,-0.1000,0,0.3310,0.3320,-0.1018,-0.0011,0.0010,-0.0065,CLIMB,5,1,0,13.0,0.000,4.920,1,-1,0,-1.0,-13.0,-1.0,0.0,0.0,0.0,2037,2826,1212,1912,1298,2788,2050,2901,1310,1039,1278,2804,2035,2814,1211,1912,1316,2792,2052,2884,1308,1041,1284,2805
1782219267.4519,9.0369,1,lf,0.0986,0.0986,-0.1000,0,0.3312,0.3316,-0.1020,-0.0011,0.0012,-0.0064,CLIMB,5,1,0,13.0,0.000,4.940,1,-1,0,-1.0,-13.0,-1.0,0.0,0.0,0.0,2037,2826,1212,1912,1298,2788,2050,2901,1310,1039,1278,2804,2036,2813,1211,1912,1316,2792,2052,2884,1308,1040,1284,2805
1782219267.4718,9.0568,1,lf,0.0986,0.0986,-0.1000,0,0.3312,0.3316,-0.1020,-0.0011,0.0013,-0.0064,CLIMB,5,1,0,13.0,0.000,4.960,1,-1,0,-2.0,-13.0,-1.0,0.0,0.0,0.0,2037,2826,1212,1912,1298,2788,2050,2901,1310,1039,1278,2804,2036,2813,1211,1912,1316,2792,2052,2884,1308,1040,1284,2805
1782219267.4917,9.0767,1,lf,0.0986,0.0986,-0.1000,0,0.3312,0.3316,-0.1020,-0.0011,0.0014,-0.0063,CLIMB,5,1,0,12.0,0.000,4.980,1,-1,0,-2.0,-12.0,-1.0,0.0,0.0,0.0,2037,2826,1212,1912,1298,2788,2050,2901,1310,1039,1278,2804,2035,2814,1211,1912,1316,2792,2052,2884,1309,1040,1284,2805
1782219267.5119,9.0969,1,lf,0.0986,0.0986,-0.1000,0,0.3310,0.3320,-0.1018,-0.0011,0.0012,-0.0064,CLIMB,5,1,0,12.0,0.000,5.000,1,-1,0,-2.0,-12.0,-1.0,0.0,0.0,0.0,2037,2826,1212,1912,1298,2788,2050,2901,1310,1039,1278,2804,2035,2814,1211,1912,1316,2792,2052,2884,1309,1040,1284,2805
1782219267.5318,9.1168,1,lf,0.0986,0.0986,-0.1000,0,0.3310,0.3320,-0.1018,-0.0011,0.0011,-0.0065,CLIMB,5,1,0,12.0,0.000,5.020,1,-1,0,-1.0,-12.0,-1.0,0.0,0.0,0.0,2037,2826,1212,1912,1298,2788,2050,2901,1310,1039,1278,2804,2035,2814,1211,1912,1316,2792,2052,2884,1309,1040,1284,2805
1782219267.5519,9.1369,1,lf,0.0986,0.0986,-0.1000,0,0.3313,0.3318,-0.1018,-0.0012,0.0012,-0.0065,CLIMB,5,1,0,12.0,0.000,5.040,1,-1,0,-1.0,-12.0,-1.0,0.0,0.0,0.0,2037,2826,1212,1912,1298,2788,2050,2901,1310,1039,1278,2804,2036,2814,1211,1912,1316,2791,2052,2884,1308,1041,1283,2805
1782219267.5719,9.1568,1,lf,0.0986,0.0986,-0.1000,0,0.3313,0.3318,-0.1018,-0.0012,0.0013,-0.0065,CLIMB,5,1,0,12.0,0.000,5.060,1,-1,0,-1.0,-12.0,-1.0,0.0,0.0,0.0,2037,2826,1212,1912,1298,2788,2050,2901,1310,1039,1278,2804,2036,2814,1211,1912,1316,2791,2052,2884,1308,1041,1283,2805
1782219267.5918,9.1768,1,lf,0.0986,0.0986,-0.1000,0,0.3313,0.3318,-0.1018,-0.0012,0.0013,-0.0066,CLIMB,5,1,0,13.0,0.000,5.080,1,-1,0,-2.0,-13.0,-1.0,0.0,0.0,0.0,2037,2826,1212,1912,1298,2788,2050,2901,1310,1039,1278,2804,2035,2813,1211,1912,1316,2791,2052,2884,1308,1040,1284,2805
1782219267.6120,9.1969,1,lf,0.0986,0.0986,-0.1000,0,0.3309,0.3319,-0.1020,-0.0011,0.0012,-0.0064,CLIMB,5,1,0,13.0,0.000,5.100,1,-1,0,-2.0,-13.0,-1.0,0.0,0.0,0.0,2037,2826,1212,1912,1298,2788,2050,2901,1310,1039,1278,2804,2035,2813,1211,1912,1316,2791,2052,2884,1308,1040,1284,2805
1782219267.6317,9.2167,1,lf,0.0986,0.0986,-0.1000,0,0.3309,0.3319,-0.1020,-0.0010,0.0012,-0.0064,CLIMB,5,1,0,12.0,0.000,5.120,1,-1,0,-2.0,-12.0,-1.0,0.0,0.0,0.0,2037,2826,1212,1912,1298,2788,2050,2901,1310,1039,1278,2804,2035,2813,1211,1912,1316,2791,2052,2884,1308,1040,1284,2805
1782219267.6518,9.2368,1,lf,0.0986,0.0986,-0.1000,0,0.3310,0.3320,-0.1018,-0.0010,0.0011,-0.0065,CLIMB,5,1,0,12.0,0.000,5.140,1,-1,0,-2.0,-12.0,-1.0,0.0,0.0,0.0,2037,2826,1212,1912,1298,2788,2050,2901,1310,1039,1278,2804,2035,2814,1211,1912,1316,2792,2053,2884,1308,1040,1283,2805
1782219267.6718,9.2568,1,lf,0.0986,0.0986,-0.1000,0,0.3310,0.3320,-0.1018,-0.0011,0.0010,-0.0065,CLIMB,5,1,0,12.0,0.000,5.160,1,-1,0,-2.0,-12.0,-1.0,0.0,0.0,0.0,2037,2826,1212,1912,1298,2788,2050,2901,1310,1039,1278,2804,2035,2814,1211,1912,1316,2792,2053,2884,1308,1040,1283,2805
1782219267.6918,9.2767,1,lf,0.0986,0.0986,-0.1000,0,0.3310,0.3320,-0.1018,-0.0011,0.0010,-0.0065,CLIMB,5,1,0,13.0,0.000,5.180,1,-1,0,-2.0,-13.0,-1.0,0.0,0.0,0.0,2037,2826,1212,1912,1298,2788,2050,2901,1310,1039,1278,2804,2035,2813,1211,1912,1316,2792,2052,2884,1308,1040,1284,2806
1782219267.7118,9.2968,1,lf,0.0986,0.0986,-0.1000,0,0.3309,0.3319,-0.1020,-0.0010,0.0011,-0.0064,CLIMB,5,1,0,13.0,0.000,5.200,1,-1,0,-2.0,-13.0,-1.0,0.0,0.0,0.0,2037,2826,1212,1912,1298,2788,2050,2901,1310,1039,1278,2804,2035,2813,1211,1912,1316,2792,2052,2884,1308,1040,1284,2806
1782219267.7318,9.3168,1,lf,0.0986,0.0986,-0.1000,0,0.3309,0.3319,-0.1020,-0.0010,0.0011,-0.0064,CLIMB,5,1,0,12.0,0.000,5.220,1,-1,0,-2.0,-12.0,-1.0,0.0,0.0,0.0,2037,2826,1212,1912,1298,2788,2050,2901,1310,1039,1278,2804,2035,2813,1211,1912,1316,2792,2052,2884,1308,1040,1284,2806
1782219267.7518,9.3368,1,lf,0.0986,0.0986,-0.1000,0,0.3313,0.3318,-0.1018,-0.0011,0.0012,-0.0065,CLIMB,5,1,0,12.0,0.000,5.240,1,-1,0,-1.0,-12.0,-1.0,0.0,0.0,0.0,2037,2826,1212,1912,1298,2788,2050,2901,1310,1039,1278,2804,2036,2814,1211,1912,1316,2791,2052,2884,1309,1040,1284,2805
1782219267.7718,9.3568,1,lf,0.0986,0.0986,-0.1000,0,0.3313,0.3318,-0.1018,-0.0012,0.0013,-0.0065,CLIMB,5,1,0,12.0,0.000,5.260,1,-1,0,-1.0,-12.0,-1.0,0.0,0.0,0.0,2037,2826,1212,1912,1298,2788,2050,2901,1310,1039,1278,2804,2036,2814,1211,1912,1316,2791,2052,2884,1309,1040,1284,2805
1782219267.7918,9.3767,1,lf,0.0986,0.0986,-0.1000,0,0.3313,0.3318,-0.1018,-0.0012,0.0013,-0.0065,CLIMB,5,1,0,12.0,0.000,5.280,1,-1,0,-1.0,-12.0,-1.0,0.0,0.0,0.0,2037,2826,1212,1912,1298,2788,2050,2901,1310,1039,1278,2804,2036,2814,1211,1912,1316,2792,2052,2884,1308,1041,1284,2805
1782219267.8119,9.3969,1,lf,0.0986,0.0986,-0.1000,0,0.3313,0.3318,-0.1018,-0.0013,0.0013,-0.0066,CLIMB,5,1,0,13.0,0.000,5.300,1,-1,0,-2.0,-13.0,-1.0,0.0,0.0,0.0,2037,2826,1212,1912,1298,2788,2050,2901,1310,1039,1278,2804,2036,2814,1211,1912,1316,2792,2052,2884,1308,1041,1284,2805
1782219267.8322,9.4171,1,lf,0.0986,0.0986,-0.1000,0,0.3313,0.3318,-0.1018,-0.0013,0.0013,-0.0066,CLIMB,5,1,0,13.0,0.000,5.320,1,-1,0,-2.0,-13.0,-1.0,0.0,0.0,0.0,2037,2826,1212,1912,1298,2788,2050,2901,1310,1039,1278,2804,2036,2814,1211,1912,1316,2792,2052,2884,1308,1041,1284,2805
1782219267.8518,9.4368,1,lf,0.0986,0.0986,-0.1000,0,0.3313,0.3318,-0.1018,-0.0013,0.0013,-0.0066,CLIMB,5,1,0,12.0,0.000,5.340,1,-1,0,-1.0,-12.0,-1.0,0.0,0.0,0.0,2037,2826,1212,1912,1298,2788,2050,2901,1310,1039,1278,2804,2036,2814,1211,1912,1316,2792,2052,2884,1309,1040,1284,2805
1782219267.8718,9.4568,1,lf,0.0986,0.0986,-0.1000,0,0.3313,0.3318,-0.1018,-0.0013,0.0013,-0.0066,CLIMB,5,1,0,12.0,0.000,5.360,1,-1,0,-1.0,-12.0,-1.0,0.0,0.0,0.0,2037,2826,1212,1912,1298,2788,2050,2901,1310,1039,1278,2804,2036,2814,1211,1912,1316,2792,2052,2884,1309,1040,1284,2805
1782219267.8918,9.4767,1,lf,0.0986,0.0986,-0.1000,0,0.3313,0.3318,-0.1018,-0.0013,0.0013,-0.0066,CLIMB,5,1,0,12.0,0.000,5.380,1,-1,0,-1.0,-12.0,-1.0,0.0,0.0,0.0,2037,2826,1212,1912,1298,2788,2050,2901,1310,1039,1278,2804,2035,2814,1211,1912,1316,2792,2052,2884,1308,1041,1284,2806
1782219267.9119,9.4969,1,lf,0.0986,0.0986,-0.1000,0,0.3310,0.3320,-0.1018,-0.0012,0.0012,-0.0065,CLIMB,5,1,0,12.0,0.000,5.400,1,-1,0,-2.0,-12.0,-1.0,0.0,0.0,0.0,2037,2826,1212,1912,1298,2788,2050,2901,1310,1039,1278,2804,2035,2814,1211,1912,1316,2792,2052,2884,1308,1041,1284,2806
1782219267.9319,9.5168,1,lf,0.0986,0.0986,-0.1000,0,0.3310,0.3320,-0.1018,-0.0011,0.0011,-0.0065,CLIMB,5,1,0,12.0,0.000,5.420,1,-1,0,-2.0,-12.0,-1.0,0.0,0.0,0.0,2037,2826,1212,1912,1298,2788,2050,2901,1310,1039,1278,2804,2035,2814,1211,1912,1316,2792,2052,2884,1308,1041,1284,2806
1782219267.9520,9.5370,1,lf,0.0986,0.0986,-0.1000,0,0.3310,0.3320,-0.1018,-0.0011,0.0011,-0.0066,CLIMB,5,1,0,12.0,0.000,5.440,1,-1,0,-2.0,-12.0,-1.0,0.0,0.0,0.0,2037,2826,1212,1912,1298,2788,2050,2901,1310,1039,1278,2804,2035,2814,1211,1912,1316,2792,2053,2884,1309,1041,1284,2805
1782219267.9719,9.5569,1,lf,0.0986,0.0986,-0.1000,0,0.3310,0.3320,-0.1018,-0.0011,0.0011,-0.0066,CLIMB,5,1,0,13.0,0.000,5.460,1,-1,0,-2.0,-13.0,-1.0,0.0,0.0,0.0,2037,2826,1212,1912,1298,2788,2050,2901,1310,1039,1278,2804,2035,2814,1211,1912,1316,2792,2053,2884,1309,1041,1284,2805
1782219267.9918,9.5768,1,lf,0.0986,0.0986,-0.1000,0,0.3310,0.3320,-0.1018,-0.0011,0.0010,-0.0066,CLIMB,5,1,0,13.0,0.000,5.480,1,-1,0,-2.0,-13.0,-1.0,0.0,0.0,0.0,2037,2826,1212,1912,1298,2788,2050,2901,1310,1039,1278,2804,2035,2814,1211,1912,1316,2792,2052,2884,1308,1041,1283,2805
1782219268.0118,9.5968,1,lf,0.0986,0.0986,-0.1000,0,0.3310,0.3320,-0.1018,-0.0011,0.0010,-0.0066,CLIMB,5,1,0,12.0,0.000,5.500,1,-1,0,-2.0,-12.0,-1.0,0.0,0.0,0.0,2037,2826,1212,1912,1298,2788,2050,2901,1310,1039,1278,2804,2035,2814,1211,1912,1316,2792,2052,2884,1308,1041,1283,2805
1782219268.0321,9.6171,1,lf,0.0986,0.0986,-0.1000,0,0.3310,0.3320,-0.1018,-0.0011,0.0010,-0.0066,CLIMB,5,1,0,12.0,0.000,5.520,1,-1,0,-2.0,-12.0,-1.0,0.0,0.0,0.0,2037,2826,1212,1912,1298,2788,2050,2901,1310,1039,1278,2804,2035,2814,1211,1912,1316,2792,2052,2884,1308,1041,1283,2805
1782219268.0519,9.6369,1,lf,0.0986,0.0986,-0.1000,0,0.3312,0.3316,-0.1020,-0.0011,0.0012,-0.0064,CLIMB,5,1,0,13.0,0.000,5.540,1,-1,0,-1.0,-13.0,-1.0,0.0,0.0,0.0,2037,2826,1212,1912,1298,2788,2050,2901,1310,1039,1278,2804,2036,2813,1211,1912,1316,2792,2052,2884,1308,1041,1284,2805
1782219268.0721,9.6571,1,lf,0.0986,0.0986,-0.1000,0,0.3312,0.3316,-0.1020,-0.0011,0.0013,-0.0064,CLIMB,5,1,0,12.0,0.000,5.560,1,-1,0,-2.0,-12.0,-1.0,0.0,0.0,0.0,2037,2826,1212,1912,1298,2788,2050,2901,1310,1039,1278,2804,2036,2813,1211,1912,1316,2792,2052,2884,1308,1041,1284,2805
1782219268.0918,9.6768,1,lf,0.0986,0.0986,-0.1000,0,0.3312,0.3316,-0.1020,-0.0011,0.0014,-0.0063,CLIMB,5,1,0,12.0,0.000,5.580,1,-1,0,-2.0,-12.0,-1.0,0.0,0.0,0.0,2037,2826,1212,1912,1298,2788,2050,2901,1310,1039,1278,2804,2035,2814,1211,1912,1316,2792,2052,2884,1309,1040,1284,2805
1782219268.1121,9.6971,1,lf,0.0986,0.0986,-0.1000,0,0.3310,0.3320,-0.1018,-0.0011,0.0012,-0.0064,CLIMB,5,1,0,12.0,0.000,5.600,1,-1,0,-2.0,-12.0,-1.0,0.0,0.0,0.0,2037,2826,1212,1912,1298,2788,2050,2901,1310,1039,1278,2804,2035,2814,1211,1912,1316,2792,2052,2884,1309,1040,1284,2805
1782219268.1318,9.7168,1,lf,0.0986,0.0986,-0.1000,0,0.3310,0.3320,-0.1018,-0.0011,0.0011,-0.0065,CLIMB,5,1,0,13.0,0.000,5.620,1,-1,0,-1.0,-13.0,-1.0,0.0,0.0,0.0,2037,2826,1212,1912,1298,2788,2050,2901,1310,1039,1278,2804,2035,2814,1211,1912,1316,2792,2052,2884,1309,1040,1284,2805
1782219268.1519,9.7369,1,lf,0.0986,0.0986,-0.1000,0,0.3312,0.3316,-0.1020,-0.0011,0.0013,-0.0064,CLIMB,5,1,0,13.0,0.000,5.640,1,-1,0,-1.0,-13.0,-1.0,0.0,0.0,0.0,2037,2826,1212,1912,1298,2788,2050,2901,1310,1039,1278,2804,2036,2813,1211,1912,1316,2791,2052,2884,1308,1040,1284,2805
1782219268.1717,9.7567,1,lf,0.0986,0.0986,-0.1000,0,0.3312,0.3316,-0.1020,-0.0011,0.0013,-0.0063,CLIMB,5,1,0,13.0,0.000,5.660,1,-1,0,-1.0,-13.0,-1.0,0.0,0.0,0.0,2037,2826,1212,1912,1298,2788,2050,2901,1310,1039,1278,2804,2036,2813,1211,1912,1316,2791,2052,2884,1308,1040,1284,2805
1782219268.1918,9.7767,1,lf,0.0986,0.0986,-0.1000,0,0.3312,0.3316,-0.1020,-0.0011,0.0014,-0.0063,CLIMB,5,1,0,13.0,0.000,5.680,1,-1,0,-1.0,-13.0,-1.0,0.0,0.0,0.0,2037,2826,1212,1912,1298,2788,2050,2901,1310,1039,1278,2804,2035,2813,1211,1912,1316,2791,2052,2884,1308,1040,1284,2805
1782219268.2118,9.7968,1,lf,0.0986,0.0986,-0.1000,0,0.3309,0.3319,-0.1020,-0.0010,0.0012,-0.0063,CLIMB,5,1,0,13.0,0.000,5.700,1,-1,0,-2.0,-13.0,-1.0,0.0,0.0,0.0,2037,2826,1212,1912,1298,2788,2050,2901,1310,1039,1278,2804,2035,2813,1211,1912,1316,2791,2052,2884,1308,1040,1284,2805
